&ACCESS RVO
DEF s1001_1()
; Generated by AUTODESK Fusion 360 CAM 2.0.15293
; Creation date: Monday, February 06, 2023 16:13:04
;FOLD s1001_1
; Start position (joint) = {A1 5,A2 -80,A3 100,A4 75,A5 -60,A6 -65}
; Tool Number            = 0
; Base Number            = 1
; Spindle Speed          = 0 RPM
; Program file name      = s1001_1.src

PTP {X 10.000,Y 10.000,Z 10.000,A -150.000,B 0.000,C 180.000,E1 0,E2 0,E3 0,E4 0,E5 0,E6 0,S'B110',T'B110010'}
;--------------------------------
;Part 1
;rapid-leaky
$VEL.CP=0.02
LIN {X 20.000,Y 20.750,Z 1.000,A -150.000,B 0.000,C 180.000} C_DIS
$VEL.CP=0.03
LIN {X 20.000,Y 20.750,Z 1.000,A -150.000,B 0.000,C 180.000} C_DIS
;bead-prime
$VEL.CP=0.01
LIN {X 80.000,Y 20.750,Z 1.000,A -150.000,B 0.000,C 180.000} C_DIS
$VEL.CP=0.03
LIN {X 80.000,Y 20.750,Z 1.000,A -150.000,B 0.000,C 180.000} C_DIS
$VEL.CP=0.02
LIN {X 79.200,Y 20.750,Z 1.000,A -150.000,B 0.000,C 180.000} C_DIS
LIN {X 80.000,Y 20.750,Z 1.000,A -150.000,B 0.000,C 180.000} C_DIS
;rapid-dry
LIN {X 145.186,Y 140.550,Z 1.000,A -150.000,B 0.000,C 180.000} C_DIS
$VEL.CP=0.03
LIN {X 145.186,Y 140.550,Z 1.000,A -150.000,B 0.000,C 180.000} C_DIS
;bead-skirt/brim
$VEL.CP=0.02
LIN {X 145.675,Y 140.317,Z 1.000,A -150.000,B 0.000,C 180.000} C_DIS
LIN {X 146.177,Y 140.107,Z 1.000,A -150.000,B 0.000,C 180.000} C_DIS
LIN {X 147.076,Y 139.807,Z 1.000,A -150.000,B 0.000,C 180.000} C_DIS
LIN {X 147.521,Y 139.688,Z 1.000,A -150.000,B 0.000,C 180.000} C_DIS
LIN {X 148.364,Y 139.522,Z 1.000,A -150.000,B 0.000,C 180.000} C_DIS
LIN {X 148.901,Y 139.454,Z 1.000,A -150.000,B 0.000,C 180.000} C_DIS
LIN {X 149.687,Y 139.401,Z 1.000,A -150.000,B 0.000,C 180.000} C_DIS
LIN {X 150.241,Y 139.397,Z 1.000,A -150.000,B 0.000,C 180.000} C_DIS
LIN {X 150.984,Y 139.442,Z 1.000,A -150.000,B 0.000,C 180.000} C_DIS
LIN {X 151.563,Y 139.511,Z 1.000,A -150.000,B 0.000,C 180.000} C_DIS
LIN {X 152.094,Y 139.604,Z 1.000,A -150.000,B 0.000,C 180.000} C_DIS
LIN {X 152.623,Y 139.723,Z 1.000,A -150.000,B 0.000,C 180.000} C_DIS
LIN {X 153.010,Y 139.831,Z 1.000,A -150.000,B 0.000,C 180.000} C_DIS
LIN {X 153.719,Y 140.068,Z 1.000,A -150.000,B 0.000,C 180.000} C_DIS
LIN {X 154.402,Y 140.353,Z 1.000,A -150.000,B 0.000,C 180.000} C_DIS
LIN {X 154.755,Y 140.521,Z 1.000,A -150.000,B 0.000,C 180.000} C_DIS
LIN {X 155.570,Y 140.974,Z 1.000,A -150.000,B 0.000,C 180.000} C_DIS
LIN {X 156.270,Y 141.448,Z 1.000,A -150.000,B 0.000,C 180.000} C_DIS
LIN {X 156.788,Y 141.853,Z 1.000,A -150.000,B 0.000,C 180.000} C_DIS
LIN {X 157.213,Y 142.226,Z 1.000,A -150.000,B 0.000,C 180.000} C_DIS
LIN {X 157.748,Y 142.758,Z 1.000,A -150.000,B 0.000,C 180.000} C_DIS
LIN {X 158.350,Y 143.462,Z 1.000,A -150.000,B 0.000,C 180.000} C_DIS
LIN {X 158.594,Y 143.786,Z 1.000,A -150.000,B 0.000,C 180.000} C_DIS
LIN {X 158.900,Y 144.233,Z 1.000,A -150.000,B 0.000,C 180.000} C_DIS
LIN {X 159.184,Y 144.695,Z 1.000,A -150.000,B 0.000,C 180.000} C_DIS
LIN {X 159.520,Y 145.335,Z 1.000,A -150.000,B 0.000,C 180.000} C_DIS
LIN {X 159.777,Y 145.889,Z 1.000,A -150.000,B 0.000,C 180.000} C_DIS
LIN {X 160.100,Y 146.767,Z 1.000,A -150.000,B 0.000,C 180.000} C_DIS
LIN {X 160.347,Y 147.674,Z 1.000,A -150.000,B 0.000,C 180.000} C_DIS
LIN {X 160.455,Y 148.221,Z 1.000,A -150.000,B 0.000,C 180.000} C_DIS
LIN {X 160.522,Y 148.670,Z 1.000,A -150.000,B 0.000,C 180.000} C_DIS
LIN {X 160.594,Y 149.527,Z 1.000,A -150.000,B 0.000,C 180.000} C_DIS
LIN {X 160.603,Y 149.934,Z 1.000,A -150.000,B 0.000,C 180.000} C_DIS
LIN {X 160.589,Y 150.564,Z 1.000,A -150.000,B 0.000,C 180.000} C_DIS
LIN {X 160.513,Y 151.396,Z 1.000,A -150.000,B 0.000,C 180.000} C_DIS
LIN {X 160.453,Y 151.795,Z 1.000,A -150.000,B 0.000,C 180.000} C_DIS
LIN {X 160.346,Y 152.327,Z 1.000,A -150.000,B 0.000,C 180.000} C_DIS
LIN {X 160.216,Y 152.850,Z 1.000,A -150.000,B 0.000,C 180.000} C_DIS
LIN {X 160.098,Y 153.238,Z 1.000,A -150.000,B 0.000,C 180.000} C_DIS
LIN {X 159.776,Y 154.112,Z 1.000,A -150.000,B 0.000,C 180.000} C_DIS
LIN {X 159.419,Y 154.872,Z 1.000,A -150.000,B 0.000,C 180.000} C_DIS
LIN {X 159.103,Y 155.440,Z 1.000,A -150.000,B 0.000,C 180.000} C_DIS
LIN {X 158.895,Y 155.773,Z 1.000,A -150.000,B 0.000,C 180.000} C_DIS
LIN {X 158.357,Y 156.530,Z 1.000,A -150.000,B 0.000,C 180.000} C_DIS
LIN {X 157.798,Y 157.189,Z 1.000,A -150.000,B 0.000,C 180.000} C_DIS
LIN {X 157.464,Y 157.531,Z 1.000,A -150.000,B 0.000,C 180.000} C_DIS
LIN {X 157.017,Y 157.953,Z 1.000,A -150.000,B 0.000,C 180.000} C_DIS
LIN {X 156.343,Y 158.499,Z 1.000,A -150.000,B 0.000,C 180.000} C_DIS
LIN {X 155.737,Y 158.918,Z 1.000,A -150.000,B 0.000,C 180.000} C_DIS
LIN {X 155.228,Y 159.229,Z 1.000,A -150.000,B 0.000,C 180.000} C_DIS
LIN {X 154.665,Y 159.523,Z 1.000,A -150.000,B 0.000,C 180.000} C_DIS
LIN {X 153.896,Y 159.863,Z 1.000,A -150.000,B 0.000,C 180.000} C_DIS
LIN {X 153.016,Y 160.168,Z 1.000,A -150.000,B 0.000,C 180.000} C_DIS
LIN {X 152.470,Y 160.312,Z 1.000,A -150.000,B 0.000,C 180.000} C_DIS
LIN {X 151.992,Y 160.415,Z 1.000,A -150.000,B 0.000,C 180.000} C_DIS
LIN {X 151.178,Y 160.539,Z 1.000,A -150.000,B 0.000,C 180.000} C_DIS
LIN {X 150.631,Y 160.585,Z 1.000,A -150.000,B 0.000,C 180.000} C_DIS
LIN {X 149.837,Y 160.603,Z 1.000,A -150.000,B 0.000,C 180.000} C_DIS
LIN {X 149.288,Y 160.581,Z 1.000,A -150.000,B 0.000,C 180.000} C_DIS
LIN {X 148.367,Y 160.478,Z 1.000,A -150.000,B 0.000,C 180.000} C_DIS
LIN {X 147.541,Y 160.316,Z 1.000,A -150.000,B 0.000,C 180.000} C_DIS
LIN {X 146.921,Y 160.150,Z 1.000,A -150.000,B 0.000,C 180.000} C_DIS
LIN {X 146.279,Y 159.930,Z 1.000,A -150.000,B 0.000,C 180.000} C_DIS
LIN {X 145.678,Y 159.684,Z 1.000,A -150.000,B 0.000,C 180.000} C_DIS
LIN {X 145.165,Y 159.439,Z 1.000,A -150.000,B 0.000,C 180.000} C_DIS
LIN {X 144.589,Y 159.120,Z 1.000,A -150.000,B 0.000,C 180.000} C_DIS
LIN {X 144.029,Y 158.764,Z 1.000,A -150.000,B 0.000,C 180.000} C_DIS
LIN {X 143.287,Y 158.210,Z 1.000,A -150.000,B 0.000,C 180.000} C_DIS
LIN {X 142.850,Y 157.833,Z 1.000,A -150.000,B 0.000,C 180.000} C_DIS
LIN {X 142.198,Y 157.180,Z 1.000,A -150.000,B 0.000,C 180.000} C_DIS
LIN {X 141.941,Y 156.893,Z 1.000,A -150.000,B 0.000,C 180.000} C_DIS
LIN {X 141.369,Y 156.163,Z 1.000,A -150.000,B 0.000,C 180.000} C_DIS
LIN {X 140.855,Y 155.372,Z 1.000,A -150.000,B 0.000,C 180.000} C_DIS
LIN {X 140.584,Y 154.879,Z 1.000,A -150.000,B 0.000,C 180.000} C_DIS
LIN {X 140.337,Y 154.369,Z 1.000,A -150.000,B 0.000,C 180.000} C_DIS
LIN {X 140.077,Y 153.745,Z 1.000,A -150.000,B 0.000,C 180.000} C_DIS
LIN {X 139.769,Y 152.793,Z 1.000,A -150.000,B 0.000,C 180.000} C_DIS
LIN {X 139.667,Y 152.392,Z 1.000,A -150.000,B 0.000,C 180.000} C_DIS
LIN {X 139.529,Y 151.677,Z 1.000,A -150.000,B 0.000,C 180.000} C_DIS
LIN {X 139.437,Y 150.934,Z 1.000,A -150.000,B 0.000,C 180.000} C_DIS
LIN {X 139.394,Y 150.006,Z 1.000,A -150.000,B 0.000,C 180.000} C_DIS
LIN {X 139.438,Y 149.056,Z 1.000,A -150.000,B 0.000,C 180.000} C_DIS
LIN {X 139.559,Y 148.138,Z 1.000,A -150.000,B 0.000,C 180.000} C_DIS
LIN {X 139.746,Y 147.290,Z 1.000,A -150.000,B 0.000,C 180.000} C_DIS
LIN {X 139.928,Y 146.682,Z 1.000,A -150.000,B 0.000,C 180.000} C_DIS
LIN {X 140.080,Y 146.247,Z 1.000,A -150.000,B 0.000,C 180.000} C_DIS
LIN {X 140.416,Y 145.461,Z 1.000,A -150.000,B 0.000,C 180.000} C_DIS
LIN {X 140.851,Y 144.635,Z 1.000,A -150.000,B 0.000,C 180.000} C_DIS
LIN {X 141.155,Y 144.152,Z 1.000,A -150.000,B 0.000,C 180.000} C_DIS
LIN {X 141.534,Y 143.613,Z 1.000,A -150.000,B 0.000,C 180.000} C_DIS
LIN {X 141.948,Y 143.099,Z 1.000,A -150.000,B 0.000,C 180.000} C_DIS
LIN {X 142.576,Y 142.427,Z 1.000,A -150.000,B 0.000,C 180.000} C_DIS
LIN {X 142.857,Y 142.162,Z 1.000,A -150.000,B 0.000,C 180.000} C_DIS
LIN {X 143.286,Y 141.791,Z 1.000,A -150.000,B 0.000,C 180.000} C_DIS
LIN {X 144.030,Y 141.235,Z 1.000,A -150.000,B 0.000,C 180.000} C_DIS
LIN {X 144.668,Y 140.833,Z 1.000,A -150.000,B 0.000,C 180.000} C_DIS
LIN {X 145.186,Y 140.550,Z 1.000,A -150.000,B 0.000,C 180.000} C_DIS
$VEL.CP=0.03
LIN {X 145.186,Y 140.550,Z 1.000,A -150.000,B 0.000,C 180.000} C_DIS
$VEL.CP=0.02
LIN {X 145.675,Y 140.317,Z 1.000,A -150.000,B 0.000,C 180.000} C_DIS
LIN {X 145.914,Y 140.217,Z 1.000,A -150.000,B 0.000,C 180.000} C_DIS
LIN {X 145.675,Y 140.317,Z 1.000,A -150.000,B 0.000,C 180.000} C_DIS
LIN {X 145.186,Y 140.550,Z 1.000,A -150.000,B 0.000,C 180.000} C_DIS
;rapid-leaky
LIN {X 145.368,Y 140.906,Z 1.000,A -150.000,B 0.000,C 180.000} C_DIS
$VEL.CP=0.03
LIN {X 145.368,Y 140.906,Z 1.000,A -150.000,B 0.000,C 180.000} C_DIS
;bead-skirt/brim
$VEL.CP=0.02
LIN {X 145.838,Y 140.682,Z 1.000,A -150.000,B 0.000,C 180.000} C_DIS
LIN {X 146.318,Y 140.481,Z 1.000,A -150.000,B 0.000,C 180.000} C_DIS
LIN {X 147.191,Y 140.190,Z 1.000,A -150.000,B 0.000,C 180.000} C_DIS
LIN {X 147.612,Y 140.078,Z 1.000,A -150.000,B 0.000,C 180.000} C_DIS
LIN {X 148.428,Y 139.917,Z 1.000,A -150.000,B 0.000,C 180.000} C_DIS
LIN {X 148.940,Y 139.853,Z 1.000,A -150.000,B 0.000,C 180.000} C_DIS
LIN {X 149.702,Y 139.801,Z 1.000,A -150.000,B 0.000,C 180.000} C_DIS
LIN {X 150.230,Y 139.797,Z 1.000,A -150.000,B 0.000,C 180.000} C_DIS
LIN {X 150.949,Y 139.841,Z 1.000,A -150.000,B 0.000,C 180.000} C_DIS
LIN {X 151.505,Y 139.907,Z 1.000,A -150.000,B 0.000,C 180.000} C_DIS
LIN {X 152.015,Y 139.996,Z 1.000,A -150.000,B 0.000,C 180.000} C_DIS
LIN {X 152.525,Y 140.111,Z 1.000,A -150.000,B 0.000,C 180.000} C_DIS
LIN {X 152.893,Y 140.213,Z 1.000,A -150.000,B 0.000,C 180.000} C_DIS
LIN {X 153.578,Y 140.443,Z 1.000,A -150.000,B 0.000,C 180.000} C_DIS
LIN {X 154.239,Y 140.718,Z 1.000,A -150.000,B 0.000,C 180.000} C_DIS
LIN {X 154.572,Y 140.877,Z 1.000,A -150.000,B 0.000,C 180.000} C_DIS
LIN {X 155.360,Y 141.315,Z 1.000,A -150.000,B 0.000,C 180.000} C_DIS
LIN {X 156.035,Y 141.771,Z 1.000,A -150.000,B 0.000,C 180.000} C_DIS
LIN {X 156.533,Y 142.161,Z 1.000,A -150.000,B 0.000,C 180.000} C_DIS
LIN {X 156.940,Y 142.518,Z 1.000,A -150.000,B 0.000,C 180.000} C_DIS
LIN {X 157.454,Y 143.031,Z 1.000,A -150.000,B 0.000,C 180.000} C_DIS
LIN {X 158.038,Y 143.712,Z 1.000,A -150.000,B 0.000,C 180.000} C_DIS
LIN {X 158.269,Y 144.019,Z 1.000,A -150.000,B 0.000,C 180.000} C_DIS
LIN {X 158.564,Y 144.451,Z 1.000,A -150.000,B 0.000,C 180.000} C_DIS
LIN {X 158.836,Y 144.893,Z 1.000,A -150.000,B 0.000,C 180.000} C_DIS
LIN {X 159.162,Y 145.512,Z 1.000,A -150.000,B 0.000,C 180.000} C_DIS
LIN {X 159.407,Y 146.042,Z 1.000,A -150.000,B 0.000,C 180.000} C_DIS
LIN {X 159.720,Y 146.892,Z 1.000,A -150.000,B 0.000,C 180.000} C_DIS
LIN {X 159.956,Y 147.761,Z 1.000,A -150.000,B 0.000,C 180.000} C_DIS
LIN {X 160.060,Y 148.289,Z 1.000,A -150.000,B 0.000,C 180.000} C_DIS
LIN {X 160.125,Y 148.717,Z 1.000,A -150.000,B 0.000,C 180.000} C_DIS
LIN {X 160.195,Y 149.548,Z 1.000,A -150.000,B 0.000,C 180.000} C_DIS
LIN {X 160.203,Y 149.934,Z 1.000,A -150.000,B 0.000,C 180.000} C_DIS
LIN {X 160.190,Y 150.541,Z 1.000,A -150.000,B 0.000,C 180.000} C_DIS
LIN {X 160.116,Y 151.348,Z 1.000,A -150.000,B 0.000,C 180.000} C_DIS
LIN {X 160.059,Y 151.726,Z 1.000,A -150.000,B 0.000,C 180.000} C_DIS
LIN {X 159.956,Y 152.239,Z 1.000,A -150.000,B 0.000,C 180.000} C_DIS
LIN {X 159.830,Y 152.744,Z 1.000,A -150.000,B 0.000,C 180.000} C_DIS
LIN {X 159.719,Y 153.111,Z 1.000,A -150.000,B 0.000,C 180.000} C_DIS
LIN {X 159.407,Y 153.957,Z 1.000,A -150.000,B 0.000,C 180.000} C_DIS
LIN {X 159.063,Y 154.689,Z 1.000,A -150.000,B 0.000,C 180.000} C_DIS
LIN {X 158.758,Y 155.237,Z 1.000,A -150.000,B 0.000,C 180.000} C_DIS
LIN {X 158.562,Y 155.551,Z 1.000,A -150.000,B 0.000,C 180.000} C_DIS
LIN {X 158.041,Y 156.284,Z 1.000,A -150.000,B 0.000,C 180.000} C_DIS
LIN {X 157.502,Y 156.919,Z 1.000,A -150.000,B 0.000,C 180.000} C_DIS
LIN {X 157.183,Y 157.246,Z 1.000,A -150.000,B 0.000,C 180.000} C_DIS
LIN {X 156.754,Y 157.651,Z 1.000,A -150.000,B 0.000,C 180.000} C_DIS
LIN {X 156.103,Y 158.179,Z 1.000,A -150.000,B 0.000,C 180.000} C_DIS
LIN {X 155.519,Y 158.582,Z 1.000,A -150.000,B 0.000,C 180.000} C_DIS
LIN {X 155.031,Y 158.880,Z 1.000,A -150.000,B 0.000,C 180.000} C_DIS
LIN {X 154.491,Y 159.163,Z 1.000,A -150.000,B 0.000,C 180.000} C_DIS
LIN {X 153.750,Y 159.490,Z 1.000,A -150.000,B 0.000,C 180.000} C_DIS
LIN {X 152.899,Y 159.785,Z 1.000,A -150.000,B 0.000,C 180.000} C_DIS
LIN {X 152.377,Y 159.923,Z 1.000,A -150.000,B 0.000,C 180.000} C_DIS
LIN {X 151.920,Y 160.022,Z 1.000,A -150.000,B 0.000,C 180.000} C_DIS
LIN {X 151.131,Y 160.141,Z 1.000,A -150.000,B 0.000,C 180.000} C_DIS
LIN {X 150.610,Y 160.185,Z 1.000,A -150.000,B 0.000,C 180.000} C_DIS
LIN {X 149.840,Y 160.202,Z 1.000,A -150.000,B 0.000,C 180.000} C_DIS
LIN {X 149.318,Y 160.182,Z 1.000,A -150.000,B 0.000,C 180.000} C_DIS
LIN {X 148.427,Y 160.083,Z 1.000,A -150.000,B 0.000,C 180.000} C_DIS
LIN {X 147.632,Y 159.926,Z 1.000,A -150.000,B 0.000,C 180.000} C_DIS
LIN {X 147.037,Y 159.767,Z 1.000,A -150.000,B 0.000,C 180.000} C_DIS
LIN {X 146.419,Y 159.555,Z 1.000,A -150.000,B 0.000,C 180.000} C_DIS
LIN {X 145.840,Y 159.319,Z 1.000,A -150.000,B 0.000,C 180.000} C_DIS
LIN {X 145.348,Y 159.083,Z 1.000,A -150.000,B 0.000,C 180.000} C_DIS
LIN {X 144.794,Y 158.776,Z 1.000,A -150.000,B 0.000,C 180.000} C_DIS
LIN {X 144.257,Y 158.435,Z 1.000,A -150.000,B 0.000,C 180.000} C_DIS
LIN {X 143.537,Y 157.898,Z 1.000,A -150.000,B 0.000,C 180.000} C_DIS
LIN {X 143.123,Y 157.539,Z 1.000,A -150.000,B 0.000,C 180.000} C_DIS
LIN {X 142.489,Y 156.906,Z 1.000,A -150.000,B 0.000,C 180.000} C_DIS
LIN {X 142.248,Y 156.636,Z 1.000,A -150.000,B 0.000,C 180.000} C_DIS
LIN {X 141.695,Y 155.930,Z 1.000,A -150.000,B 0.000,C 180.000} C_DIS
LIN {X 141.199,Y 155.167,Z 1.000,A -150.000,B 0.000,C 180.000} C_DIS
LIN {X 140.940,Y 154.696,Z 1.000,A -150.000,B 0.000,C 180.000} C_DIS
LIN {X 140.702,Y 154.205,Z 1.000,A -150.000,B 0.000,C 180.000} C_DIS
LIN {X 140.452,Y 153.606,Z 1.000,A -150.000,B 0.000,C 180.000} C_DIS
LIN {X 140.154,Y 152.682,Z 1.000,A -150.000,B 0.000,C 180.000} C_DIS
LIN {X 140.058,Y 152.304,Z 1.000,A -150.000,B 0.000,C 180.000} C_DIS
LIN {X 139.924,Y 151.615,Z 1.000,A -150.000,B 0.000,C 180.000} C_DIS
LIN {X 139.835,Y 150.901,Z 1.000,A -150.000,B 0.000,C 180.000} C_DIS
LIN {X 139.795,Y 150.002,Z 1.000,A -150.000,B 0.000,C 180.000} C_DIS
LIN {X 139.836,Y 149.097,Z 1.000,A -150.000,B 0.000,C 180.000} C_DIS
LIN {X 139.954,Y 148.207,Z 1.000,A -150.000,B 0.000,C 180.000} C_DIS
LIN {X 140.133,Y 147.391,Z 1.000,A -150.000,B 0.000,C 180.000} C_DIS
LIN {X 140.309,Y 146.805,Z 1.000,A -150.000,B 0.000,C 180.000} C_DIS
LIN {X 140.453,Y 146.392,Z 1.000,A -150.000,B 0.000,C 180.000} C_DIS
LIN {X 140.777,Y 145.633,Z 1.000,A -150.000,B 0.000,C 180.000} C_DIS
LIN {X 141.197,Y 144.835,Z 1.000,A -150.000,B 0.000,C 180.000} C_DIS
LIN {X 141.488,Y 144.374,Z 1.000,A -150.000,B 0.000,C 180.000} C_DIS
LIN {X 141.853,Y 143.854,Z 1.000,A -150.000,B 0.000,C 180.000} C_DIS
LIN {X 142.250,Y 143.362,Z 1.000,A -150.000,B 0.000,C 180.000} C_DIS
LIN {X 142.860,Y 142.709,Z 1.000,A -150.000,B 0.000,C 180.000} C_DIS
LIN {X 143.536,Y 142.103,Z 1.000,A -150.000,B 0.000,C 180.000} C_DIS
LIN {X 144.257,Y 141.565,Z 1.000,A -150.000,B 0.000,C 180.000} C_DIS
LIN {X 144.871,Y 141.178,Z 1.000,A -150.000,B 0.000,C 180.000} C_DIS
LIN {X 145.368,Y 140.906,Z 1.000,A -150.000,B 0.000,C 180.000} C_DIS
$VEL.CP=0.03
LIN {X 145.368,Y 140.906,Z 1.000,A -150.000,B 0.000,C 180.000} C_DIS
$VEL.CP=0.02
LIN {X 145.838,Y 140.682,Z 1.000,A -150.000,B 0.000,C 180.000} C_DIS
LIN {X 146.096,Y 140.574,Z 1.000,A -150.000,B 0.000,C 180.000} C_DIS
LIN {X 145.838,Y 140.682,Z 1.000,A -150.000,B 0.000,C 180.000} C_DIS
LIN {X 145.368,Y 140.906,Z 1.000,A -150.000,B 0.000,C 180.000} C_DIS
;rapid-dry
LIN {X 148.598,Y 154.590,Z 1.000,A -150.000,B 0.000,C 180.000} C_DIS
$VEL.CP=0.03
LIN {X 148.598,Y 154.590,Z 1.000,A -150.000,B 0.000,C 180.000} C_DIS
;bead-perimeter_outer
$VEL.CP=0.02
LIN {X 148.198,Y 154.447,Z 1.000,A -150.000,B 0.000,C 180.000} C_DIS
LIN {X 147.812,Y 154.272,Z 1.000,A -150.000,B 0.000,C 180.000} C_DIS
LIN {X 147.443,Y 154.061,Z 1.000,A -150.000,B 0.000,C 180.000} C_DIS
LIN {X 147.094,Y 153.820,Z 1.000,A -150.000,B 0.000,C 180.000} C_DIS
LIN {X 146.768,Y 153.548,Z 1.000,A -150.000,B 0.000,C 180.000} C_DIS
LIN {X 146.467,Y 153.248,Z 1.000,A -150.000,B 0.000,C 180.000} C_DIS
LIN {X 146.194,Y 152.923,Z 1.000,A -150.000,B 0.000,C 180.000} C_DIS
LIN {X 145.951,Y 152.576,Z 1.000,A -150.000,B 0.000,C 180.000} C_DIS
LIN {X 145.739,Y 152.208,Z 1.000,A -150.000,B 0.000,C 180.000} C_DIS
LIN {X 145.560,Y 151.821,Z 1.000,A -150.000,B 0.000,C 180.000} C_DIS
LIN {X 145.442,Y 151.503,Z 1.000,A -150.000,B 0.000,C 180.000} C_DIS
LIN {X 145.327,Y 151.095,Z 1.000,A -150.000,B 0.000,C 180.000} C_DIS
LIN {X 145.238,Y 150.592,Z 1.000,A -150.000,B 0.000,C 180.000} C_DIS
LIN {X 145.204,Y 150.170,Z 1.000,A -150.000,B 0.000,C 180.000} C_DIS
LIN {X 145.208,Y 149.746,Z 1.000,A -150.000,B 0.000,C 180.000} C_DIS
LIN {X 145.249,Y 149.323,Z 1.000,A -150.000,B 0.000,C 180.000} C_DIS
LIN {X 145.327,Y 148.906,Z 1.000,A -150.000,B 0.000,C 180.000} C_DIS
LIN {X 145.442,Y 148.498,Z 1.000,A -150.000,B 0.000,C 180.000} C_DIS
LIN {X 145.593,Y 148.100,Z 1.000,A -150.000,B 0.000,C 180.000} C_DIS
LIN {X 145.778,Y 147.718,Z 1.000,A -150.000,B 0.000,C 180.000} C_DIS
LIN {X 145.997,Y 147.354,Z 1.000,A -150.000,B 0.000,C 180.000} C_DIS
LIN {X 146.246,Y 147.010,Z 1.000,A -150.000,B 0.000,C 180.000} C_DIS
LIN {X 146.467,Y 146.753,Z 1.000,A -150.000,B 0.000,C 180.000} C_DIS
LIN {X 146.768,Y 146.452,Z 1.000,A -150.000,B 0.000,C 180.000} C_DIS
LIN {X 147.094,Y 146.180,Z 1.000,A -150.000,B 0.000,C 180.000} C_DIS
LIN {X 147.443,Y 145.938,Z 1.000,A -150.000,B 0.000,C 180.000} C_DIS
LIN {X 147.811,Y 145.729,Z 1.000,A -150.000,B 0.000,C 180.000} C_DIS
LIN {X 148.277,Y 145.521,Z 1.000,A -150.000,B 0.000,C 180.000} C_DIS
LIN {X 148.679,Y 145.386,Z 1.000,A -150.000,B 0.000,C 180.000} C_DIS
LIN {X 149.092,Y 145.288,Z 1.000,A -150.000,B 0.000,C 180.000} C_DIS
LIN {X 149.513,Y 145.226,Z 1.000,A -150.000,B 0.000,C 180.000} C_DIS
LIN {X 149.850,Y 145.203,Z 1.000,A -150.000,B 0.000,C 180.000} C_DIS
LIN {X 150.276,Y 145.209,Z 1.000,A -150.000,B 0.000,C 180.000} C_DIS
LIN {X 150.698,Y 145.252,Z 1.000,A -150.000,B 0.000,C 180.000} C_DIS
LIN {X 151.198,Y 145.352,Z 1.000,A -150.000,B 0.000,C 180.000} C_DIS
LIN {X 151.603,Y 145.477,Z 1.000,A -150.000,B 0.000,C 180.000} C_DIS
LIN {X 151.997,Y 145.636,Z 1.000,A -150.000,B 0.000,C 180.000} C_DIS
LIN {X 152.375,Y 145.829,Z 1.000,A -150.000,B 0.000,C 180.000} C_DIS
LIN {X 152.734,Y 146.055,Z 1.000,A -150.000,B 0.000,C 180.000} C_DIS
LIN {X 153.072,Y 146.313,Z 1.000,A -150.000,B 0.000,C 180.000} C_DIS
LIN {X 153.386,Y 146.599,Z 1.000,A -150.000,B 0.000,C 180.000} C_DIS
LIN {X 153.618,Y 146.847,Z 1.000,A -150.000,B 0.000,C 180.000} C_DIS
LIN {X 153.883,Y 147.179,Z 1.000,A -150.000,B 0.000,C 180.000} C_DIS
LIN {X 154.160,Y 147.607,Z 1.000,A -150.000,B 0.000,C 180.000} C_DIS
LIN {X 154.354,Y 147.983,Z 1.000,A -150.000,B 0.000,C 180.000} C_DIS
LIN {X 154.516,Y 148.376,Z 1.000,A -150.000,B 0.000,C 180.000} C_DIS
LIN {X 154.641,Y 148.782,Z 1.000,A -150.000,B 0.000,C 180.000} C_DIS
LIN {X 154.732,Y 149.197,Z 1.000,A -150.000,B 0.000,C 180.000} C_DIS
LIN {X 154.784,Y 149.619,Z 1.000,A -150.000,B 0.000,C 180.000} C_DIS
LIN {X 154.799,Y 149.957,Z 1.000,A -150.000,B 0.000,C 180.000} C_DIS
LIN {X 154.783,Y 150.382,Z 1.000,A -150.000,B 0.000,C 180.000} C_DIS
LIN {X 154.732,Y 150.803,Z 1.000,A -150.000,B 0.000,C 180.000} C_DIS
LIN {X 154.620,Y 151.301,Z 1.000,A -150.000,B 0.000,C 180.000} C_DIS
LIN {X 154.487,Y 151.703,Z 1.000,A -150.000,B 0.000,C 180.000} C_DIS
LIN {X 154.318,Y 152.093,Z 1.000,A -150.000,B 0.000,C 180.000} C_DIS
LIN {X 154.117,Y 152.466,Z 1.000,A -150.000,B 0.000,C 180.000} C_DIS
LIN {X 153.883,Y 152.820,Z 1.000,A -150.000,B 0.000,C 180.000} C_DIS
LIN {X 153.618,Y 153.153,Z 1.000,A -150.000,B 0.000,C 180.000} C_DIS
LIN {X 153.386,Y 153.401,Z 1.000,A -150.000,B 0.000,C 180.000} C_DIS
LIN {X 153.072,Y 153.687,Z 1.000,A -150.000,B 0.000,C 180.000} C_DIS
LIN {X 152.734,Y 153.945,Z 1.000,A -150.000,B 0.000,C 180.000} C_DIS
LIN {X 152.376,Y 154.171,Z 1.000,A -150.000,B 0.000,C 180.000} C_DIS
LIN {X 151.919,Y 154.399,Z 1.000,A -150.000,B 0.000,C 180.000} C_DIS
LIN {X 151.524,Y 154.550,Z 1.000,A -150.000,B 0.000,C 180.000} C_DIS
LIN {X 151.115,Y 154.667,Z 1.000,A -150.000,B 0.000,C 180.000} C_DIS
LIN {X 150.699,Y 154.748,Z 1.000,A -150.000,B 0.000,C 180.000} C_DIS
LIN {X 150.276,Y 154.791,Z 1.000,A -150.000,B 0.000,C 180.000} C_DIS
LIN {X 149.937,Y 154.799,Z 1.000,A -150.000,B 0.000,C 180.000} C_DIS
LIN {X 149.512,Y 154.774,Z 1.000,A -150.000,B 0.000,C 180.000} C_DIS
LIN {X 149.093,Y 154.713,Z 1.000,A -150.000,B 0.000,C 180.000} C_DIS
LIN {X 148.598,Y 154.590,Z 1.000,A -150.000,B 0.000,C 180.000} C_DIS
$VEL.CP=0.03
LIN {X 148.598,Y 154.590,Z 1.000,A -150.000,B 0.000,C 180.000} C_DIS
$VEL.CP=0.02
LIN {X 148.198,Y 154.447,Z 1.000,A -150.000,B 0.000,C 180.000} C_DIS
LIN {X 147.856,Y 154.292,Z 1.000,A -150.000,B 0.000,C 180.000} C_DIS
LIN {X 148.198,Y 154.447,Z 1.000,A -150.000,B 0.000,C 180.000} C_DIS
LIN {X 148.598,Y 154.590,Z 1.000,A -150.000,B 0.000,C 180.000} C_DIS
;rapid-leaky
LIN {X 148.702,Y 154.245,Z 1.000,A -150.000,B 0.000,C 180.000} C_DIS
$VEL.CP=0.03
LIN {X 148.702,Y 154.245,Z 1.000,A -150.000,B 0.000,C 180.000} C_DIS
;bead-perimeter_inner
$VEL.CP=0.02
LIN {X 148.334,Y 154.114,Z 1.000,A -150.000,B 0.000,C 180.000} C_DIS
LIN {X 147.976,Y 153.951,Z 1.000,A -150.000,B 0.000,C 180.000} C_DIS
LIN {X 147.635,Y 153.756,Z 1.000,A -150.000,B 0.000,C 180.000} C_DIS
LIN {X 147.312,Y 153.533,Z 1.000,A -150.000,B 0.000,C 180.000} C_DIS
LIN {X 147.011,Y 153.282,Z 1.000,A -150.000,B 0.000,C 180.000} C_DIS
LIN {X 146.733,Y 153.004,Z 1.000,A -150.000,B 0.000,C 180.000} C_DIS
LIN {X 146.479,Y 152.703,Z 1.000,A -150.000,B 0.000,C 180.000} C_DIS
LIN {X 146.255,Y 152.382,Z 1.000,A -150.000,B 0.000,C 180.000} C_DIS
LIN {X 146.059,Y 152.042,Z 1.000,A -150.000,B 0.000,C 180.000} C_DIS
LIN {X 145.893,Y 151.683,Z 1.000,A -150.000,B 0.000,C 180.000} C_DIS
LIN {X 145.785,Y 151.392,Z 1.000,A -150.000,B 0.000,C 180.000} C_DIS
LIN {X 145.678,Y 151.014,Z 1.000,A -150.000,B 0.000,C 180.000} C_DIS
LIN {X 145.595,Y 150.547,Z 1.000,A -150.000,B 0.000,C 180.000} C_DIS
LIN {X 145.564,Y 150.157,Z 1.000,A -150.000,B 0.000,C 180.000} C_DIS
LIN {X 145.568,Y 149.765,Z 1.000,A -150.000,B 0.000,C 180.000} C_DIS
LIN {X 145.606,Y 149.374,Z 1.000,A -150.000,B 0.000,C 180.000} C_DIS
LIN {X 145.678,Y 148.988,Z 1.000,A -150.000,B 0.000,C 180.000} C_DIS
LIN {X 145.784,Y 148.611,Z 1.000,A -150.000,B 0.000,C 180.000} C_DIS
LIN {X 145.924,Y 148.243,Z 1.000,A -150.000,B 0.000,C 180.000} C_DIS
LIN {X 146.095,Y 147.890,Z 1.000,A -150.000,B 0.000,C 180.000} C_DIS
LIN {X 146.298,Y 147.553,Z 1.000,A -150.000,B 0.000,C 180.000} C_DIS
LIN {X 146.529,Y 147.233,Z 1.000,A -150.000,B 0.000,C 180.000} C_DIS
LIN {X 146.731,Y 146.998,Z 1.000,A -150.000,B 0.000,C 180.000} C_DIS
LIN {X 147.011,Y 146.718,Z 1.000,A -150.000,B 0.000,C 180.000} C_DIS
LIN {X 147.312,Y 146.467,Z 1.000,A -150.000,B 0.000,C 180.000} C_DIS
LIN {X 147.635,Y 146.243,Z 1.000,A -150.000,B 0.000,C 180.000} C_DIS
LIN {X 147.974,Y 146.050,Z 1.000,A -150.000,B 0.000,C 180.000} C_DIS
LIN {X 148.407,Y 145.857,Z 1.000,A -150.000,B 0.000,C 180.000} C_DIS
LIN {X 148.778,Y 145.733,Z 1.000,A -150.000,B 0.000,C 180.000} C_DIS
LIN {X 149.160,Y 145.641,Z 1.000,A -150.000,B 0.000,C 180.000} C_DIS
LIN {X 149.552,Y 145.584,Z 1.000,A -150.000,B 0.000,C 180.000} C_DIS
LIN {X 149.860,Y 145.563,Z 1.000,A -150.000,B 0.000,C 180.000} C_DIS
LIN {X 150.256,Y 145.569,Z 1.000,A -150.000,B 0.000,C 180.000} C_DIS
LIN {X 150.644,Y 145.608,Z 1.000,A -150.000,B 0.000,C 180.000} C_DIS
LIN {X 151.109,Y 145.702,Z 1.000,A -150.000,B 0.000,C 180.000} C_DIS
LIN {X 151.482,Y 145.816,Z 1.000,A -150.000,B 0.000,C 180.000} C_DIS
LIN {X 151.847,Y 145.964,Z 1.000,A -150.000,B 0.000,C 180.000} C_DIS
LIN {X 152.197,Y 146.142,Z 1.000,A -150.000,B 0.000,C 180.000} C_DIS
LIN {X 152.528,Y 146.351,Z 1.000,A -150.000,B 0.000,C 180.000} C_DIS
LIN {X 152.841,Y 146.590,Z 1.000,A -150.000,B 0.000,C 180.000} C_DIS
LIN {X 153.133,Y 146.856,Z 1.000,A -150.000,B 0.000,C 180.000} C_DIS
LIN {X 153.345,Y 147.082,Z 1.000,A -150.000,B 0.000,C 180.000} C_DIS
LIN {X 153.590,Y 147.390,Z 1.000,A -150.000,B 0.000,C 180.000} C_DIS
LIN {X 153.848,Y 147.788,Z 1.000,A -150.000,B 0.000,C 180.000} C_DIS
LIN {X 154.027,Y 148.134,Z 1.000,A -150.000,B 0.000,C 180.000} C_DIS
LIN {X 154.176,Y 148.498,Z 1.000,A -150.000,B 0.000,C 180.000} C_DIS
LIN {X 154.293,Y 148.874,Z 1.000,A -150.000,B 0.000,C 180.000} C_DIS
LIN {X 154.376,Y 149.257,Z 1.000,A -150.000,B 0.000,C 180.000} C_DIS
LIN {X 154.425,Y 149.649,Z 1.000,A -150.000,B 0.000,C 180.000} C_DIS
LIN {X 154.439,Y 149.959,Z 1.000,A -150.000,B 0.000,C 180.000} C_DIS
LIN {X 154.424,Y 150.354,Z 1.000,A -150.000,B 0.000,C 180.000} C_DIS
LIN {X 154.377,Y 150.741,Z 1.000,A -150.000,B 0.000,C 180.000} C_DIS
LIN {X 154.273,Y 151.204,Z 1.000,A -150.000,B 0.000,C 180.000} C_DIS
LIN {X 154.150,Y 151.574,Z 1.000,A -150.000,B 0.000,C 180.000} C_DIS
LIN {X 153.994,Y 151.936,Z 1.000,A -150.000,B 0.000,C 180.000} C_DIS
LIN {X 153.808,Y 152.281,Z 1.000,A -150.000,B 0.000,C 180.000} C_DIS
LIN {X 153.592,Y 152.608,Z 1.000,A -150.000,B 0.000,C 180.000} C_DIS
LIN {X 153.345,Y 152.918,Z 1.000,A -150.000,B 0.000,C 180.000} C_DIS
LIN {X 153.133,Y 153.144,Z 1.000,A -150.000,B 0.000,C 180.000} C_DIS
LIN {X 152.841,Y 153.410,Z 1.000,A -150.000,B 0.000,C 180.000} C_DIS
LIN {X 152.528,Y 153.649,Z 1.000,A -150.000,B 0.000,C 180.000} C_DIS
LIN {X 152.199,Y 153.857,Z 1.000,A -150.000,B 0.000,C 180.000} C_DIS
LIN {X 151.774,Y 154.069,Z 1.000,A -150.000,B 0.000,C 180.000} C_DIS
LIN {X 151.409,Y 154.208,Z 1.000,A -150.000,B 0.000,C 180.000} C_DIS
LIN {X 151.031,Y 154.317,Z 1.000,A -150.000,B 0.000,C 180.000} C_DIS
LIN {X 150.646,Y 154.391,Z 1.000,A -150.000,B 0.000,C 180.000} C_DIS
LIN {X 150.253,Y 154.432,Z 1.000,A -150.000,B 0.000,C 180.000} C_DIS
LIN {X 149.943,Y 154.439,Z 1.000,A -150.000,B 0.000,C 180.000} C_DIS
LIN {X 149.549,Y 154.415,Z 1.000,A -150.000,B 0.000,C 180.000} C_DIS
LIN {X 149.162,Y 154.359,Z 1.000,A -150.000,B 0.000,C 180.000} C_DIS
LIN {X 148.702,Y 154.245,Z 1.000,A -150.000,B 0.000,C 180.000} C_DIS
$VEL.CP=0.03
LIN {X 148.702,Y 154.245,Z 1.000,A -150.000,B 0.000,C 180.000} C_DIS
$VEL.CP=0.02
LIN {X 148.334,Y 154.114,Z 1.000,A -150.000,B 0.000,C 180.000} C_DIS
LIN {X 147.976,Y 153.951,Z 1.000,A -150.000,B 0.000,C 180.000} C_DIS
LIN {X 147.962,Y 153.943,Z 1.000,A -150.000,B 0.000,C 180.000} C_DIS
LIN {X 147.976,Y 153.951,Z 1.000,A -150.000,B 0.000,C 180.000} C_DIS
LIN {X 148.334,Y 154.114,Z 1.000,A -150.000,B 0.000,C 180.000} C_DIS
LIN {X 148.702,Y 154.245,Z 1.000,A -150.000,B 0.000,C 180.000} C_DIS
;rapid-leaky
LIN {X 148.806,Y 153.900,Z 1.000,A -150.000,B 0.000,C 180.000} C_DIS
$VEL.CP=0.03
LIN {X 148.806,Y 153.900,Z 1.000,A -150.000,B 0.000,C 180.000} C_DIS
;bead-perimeter_inner
$VEL.CP=0.02
LIN {X 148.469,Y 153.780,Z 1.000,A -150.000,B 0.000,C 180.000} C_DIS
LIN {X 148.141,Y 153.630,Z 1.000,A -150.000,B 0.000,C 180.000} C_DIS
LIN {X 147.827,Y 153.451,Z 1.000,A -150.000,B 0.000,C 180.000} C_DIS
LIN {X 147.530,Y 153.246,Z 1.000,A -150.000,B 0.000,C 180.000} C_DIS
LIN {X 147.254,Y 153.016,Z 1.000,A -150.000,B 0.000,C 180.000} C_DIS
LIN {X 146.998,Y 152.760,Z 1.000,A -150.000,B 0.000,C 180.000} C_DIS
LIN {X 146.765,Y 152.484,Z 1.000,A -150.000,B 0.000,C 180.000} C_DIS
LIN {X 146.559,Y 152.189,Z 1.000,A -150.000,B 0.000,C 180.000} C_DIS
LIN {X 146.379,Y 151.876,Z 1.000,A -150.000,B 0.000,C 180.000} C_DIS
LIN {X 146.225,Y 151.545,Z 1.000,A -150.000,B 0.000,C 180.000} C_DIS
LIN {X 146.128,Y 151.280,Z 1.000,A -150.000,B 0.000,C 180.000} C_DIS
LIN {X 146.030,Y 150.934,Z 1.000,A -150.000,B 0.000,C 180.000} C_DIS
LIN {X 145.953,Y 150.501,Z 1.000,A -150.000,B 0.000,C 180.000} C_DIS
LIN {X 145.924,Y 150.145,Z 1.000,A -150.000,B 0.000,C 180.000} C_DIS
LIN {X 145.928,Y 149.784,Z 1.000,A -150.000,B 0.000,C 180.000} C_DIS
LIN {X 145.963,Y 149.424,Z 1.000,A -150.000,B 0.000,C 180.000} C_DIS
LIN {X 146.029,Y 149.070,Z 1.000,A -150.000,B 0.000,C 180.000} C_DIS
LIN {X 146.126,Y 148.724,Z 1.000,A -150.000,B 0.000,C 180.000} C_DIS
LIN {X 146.255,Y 148.386,Z 1.000,A -150.000,B 0.000,C 180.000} C_DIS
LIN {X 146.412,Y 148.062,Z 1.000,A -150.000,B 0.000,C 180.000} C_DIS
LIN {X 146.598,Y 147.752,Z 1.000,A -150.000,B 0.000,C 180.000} C_DIS
LIN {X 146.812,Y 147.456,Z 1.000,A -150.000,B 0.000,C 180.000} C_DIS
LIN {X 146.995,Y 147.243,Z 1.000,A -150.000,B 0.000,C 180.000} C_DIS
LIN {X 147.254,Y 146.984,Z 1.000,A -150.000,B 0.000,C 180.000} C_DIS
LIN {X 147.531,Y 146.754,Z 1.000,A -150.000,B 0.000,C 180.000} C_DIS
LIN {X 147.827,Y 146.548,Z 1.000,A -150.000,B 0.000,C 180.000} C_DIS
LIN {X 148.137,Y 146.372,Z 1.000,A -150.000,B 0.000,C 180.000} C_DIS
LIN {X 148.538,Y 146.192,Z 1.000,A -150.000,B 0.000,C 180.000} C_DIS
LIN {X 148.877,Y 146.079,Z 1.000,A -150.000,B 0.000,C 180.000} C_DIS
LIN {X 149.228,Y 145.995,Z 1.000,A -150.000,B 0.000,C 180.000} C_DIS
LIN {X 149.590,Y 145.942,Z 1.000,A -150.000,B 0.000,C 180.000} C_DIS
LIN {X 149.870,Y 145.923,Z 1.000,A -150.000,B 0.000,C 180.000} C_DIS
LIN {X 150.235,Y 145.928,Z 1.000,A -150.000,B 0.000,C 180.000} C_DIS
LIN {X 150.590,Y 145.965,Z 1.000,A -150.000,B 0.000,C 180.000} C_DIS
LIN {X 151.021,Y 146.051,Z 1.000,A -150.000,B 0.000,C 180.000} C_DIS
LIN {X 151.362,Y 146.156,Z 1.000,A -150.000,B 0.000,C 180.000} C_DIS
LIN {X 151.698,Y 146.292,Z 1.000,A -150.000,B 0.000,C 180.000} C_DIS
LIN {X 152.019,Y 146.455,Z 1.000,A -150.000,B 0.000,C 180.000} C_DIS
LIN {X 152.323,Y 146.647,Z 1.000,A -150.000,B 0.000,C 180.000} C_DIS
LIN {X 152.610,Y 146.866,Z 1.000,A -150.000,B 0.000,C 180.000} C_DIS
LIN {X 152.880,Y 147.112,Z 1.000,A -150.000,B 0.000,C 180.000} C_DIS
LIN {X 153.072,Y 147.318,Z 1.000,A -150.000,B 0.000,C 180.000} C_DIS
LIN {X 153.298,Y 147.600,Z 1.000,A -150.000,B 0.000,C 180.000} C_DIS
LIN {X 153.536,Y 147.969,Z 1.000,A -150.000,B 0.000,C 180.000} C_DIS
LIN {X 153.700,Y 148.286,Z 1.000,A -150.000,B 0.000,C 180.000} C_DIS
LIN {X 153.837,Y 148.619,Z 1.000,A -150.000,B 0.000,C 180.000} C_DIS
LIN {X 153.944,Y 148.965,Z 1.000,A -150.000,B 0.000,C 180.000} C_DIS
LIN {X 154.021,Y 149.317,Z 1.000,A -150.000,B 0.000,C 180.000} C_DIS
LIN {X 154.066,Y 149.679,Z 1.000,A -150.000,B 0.000,C 180.000} C_DIS
LIN {X 154.078,Y 149.960,Z 1.000,A -150.000,B 0.000,C 180.000} C_DIS
LIN {X 154.065,Y 150.325,Z 1.000,A -150.000,B 0.000,C 180.000} C_DIS
LIN {X 154.021,Y 150.680,Z 1.000,A -150.000,B 0.000,C 180.000} C_DIS
LIN {X 153.925,Y 151.108,Z 1.000,A -150.000,B 0.000,C 180.000} C_DIS
LIN {X 153.814,Y 151.446,Z 1.000,A -150.000,B 0.000,C 180.000} C_DIS
LIN {X 153.669,Y 151.779,Z 1.000,A -150.000,B 0.000,C 180.000} C_DIS
LIN {X 153.498,Y 152.097,Z 1.000,A -150.000,B 0.000,C 180.000} C_DIS
LIN {X 153.300,Y 152.396,Z 1.000,A -150.000,B 0.000,C 180.000} C_DIS
LIN {X 153.072,Y 152.682,Z 1.000,A -150.000,B 0.000,C 180.000} C_DIS
LIN {X 152.880,Y 152.888,Z 1.000,A -150.000,B 0.000,C 180.000} C_DIS
LIN {X 152.610,Y 153.134,Z 1.000,A -150.000,B 0.000,C 180.000} C_DIS
LIN {X 152.323,Y 153.353,Z 1.000,A -150.000,B 0.000,C 180.000} C_DIS
LIN {X 152.022,Y 153.543,Z 1.000,A -150.000,B 0.000,C 180.000} C_DIS
LIN {X 151.629,Y 153.739,Z 1.000,A -150.000,B 0.000,C 180.000} C_DIS
LIN {X 151.295,Y 153.867,Z 1.000,A -150.000,B 0.000,C 180.000} C_DIS
LIN {X 150.947,Y 153.966,Z 1.000,A -150.000,B 0.000,C 180.000} C_DIS
LIN {X 150.594,Y 154.035,Z 1.000,A -150.000,B 0.000,C 180.000} C_DIS
LIN {X 150.231,Y 154.072,Z 1.000,A -150.000,B 0.000,C 180.000} C_DIS
LIN {X 149.950,Y 154.078,Z 1.000,A -150.000,B 0.000,C 180.000} C_DIS
LIN {X 149.586,Y 154.057,Z 1.000,A -150.000,B 0.000,C 180.000} C_DIS
LIN {X 149.231,Y 154.005,Z 1.000,A -150.000,B 0.000,C 180.000} C_DIS
LIN {X 148.806,Y 153.900,Z 1.000,A -150.000,B 0.000,C 180.000} C_DIS
$VEL.CP=0.03
LIN {X 148.806,Y 153.900,Z 1.000,A -150.000,B 0.000,C 180.000} C_DIS
$VEL.CP=0.02
LIN {X 148.469,Y 153.780,Z 1.000,A -150.000,B 0.000,C 180.000} C_DIS
LIN {X 148.141,Y 153.630,Z 1.000,A -150.000,B 0.000,C 180.000} C_DIS
LIN {X 148.070,Y 153.590,Z 1.000,A -150.000,B 0.000,C 180.000} C_DIS
LIN {X 148.141,Y 153.630,Z 1.000,A -150.000,B 0.000,C 180.000} C_DIS
LIN {X 148.469,Y 153.780,Z 1.000,A -150.000,B 0.000,C 180.000} C_DIS
LIN {X 148.806,Y 153.900,Z 1.000,A -150.000,B 0.000,C 180.000} C_DIS
;rapid-leaky
LIN {X 148.910,Y 153.555,Z 1.000,A -150.000,B 0.000,C 180.000} C_DIS
$VEL.CP=0.03
LIN {X 148.910,Y 153.555,Z 1.000,A -150.000,B 0.000,C 180.000} C_DIS
;bead-perimeter_inner
$VEL.CP=0.02
LIN {X 148.604,Y 153.446,Z 1.000,A -150.000,B 0.000,C 180.000} C_DIS
LIN {X 148.305,Y 153.309,Z 1.000,A -150.000,B 0.000,C 180.000} C_DIS
LIN {X 148.019,Y 153.146,Z 1.000,A -150.000,B 0.000,C 180.000} C_DIS
LIN {X 147.748,Y 152.959,Z 1.000,A -150.000,B 0.000,C 180.000} C_DIS
LIN {X 147.497,Y 152.750,Z 1.000,A -150.000,B 0.000,C 180.000} C_DIS
LIN {X 147.264,Y 152.516,Z 1.000,A -150.000,B 0.000,C 180.000} C_DIS
LIN {X 147.051,Y 152.264,Z 1.000,A -150.000,B 0.000,C 180.000} C_DIS
LIN {X 146.863,Y 151.995,Z 1.000,A -150.000,B 0.000,C 180.000} C_DIS
LIN {X 146.698,Y 151.710,Z 1.000,A -150.000,B 0.000,C 180.000} C_DIS
LIN {X 146.558,Y 151.407,Z 1.000,A -150.000,B 0.000,C 180.000} C_DIS
LIN {X 146.470,Y 151.169,Z 1.000,A -150.000,B 0.000,C 180.000} C_DIS
LIN {X 146.381,Y 150.853,Z 1.000,A -150.000,B 0.000,C 180.000} C_DIS
LIN {X 146.310,Y 150.455,Z 1.000,A -150.000,B 0.000,C 180.000} C_DIS
LIN {X 146.284,Y 150.132,Z 1.000,A -150.000,B 0.000,C 180.000} C_DIS
LIN {X 146.287,Y 149.803,Z 1.000,A -150.000,B 0.000,C 180.000} C_DIS
LIN {X 146.320,Y 149.475,Z 1.000,A -150.000,B 0.000,C 180.000} C_DIS
LIN {X 146.380,Y 149.152,Z 1.000,A -150.000,B 0.000,C 180.000} C_DIS
LIN {X 146.469,Y 148.837,Z 1.000,A -150.000,B 0.000,C 180.000} C_DIS
LIN {X 146.586,Y 148.528,Z 1.000,A -150.000,B 0.000,C 180.000} C_DIS
LIN {X 146.729,Y 148.233,Z 1.000,A -150.000,B 0.000,C 180.000} C_DIS
LIN {X 146.899,Y 147.950,Z 1.000,A -150.000,B 0.000,C 180.000} C_DIS
LIN {X 147.095,Y 147.679,Z 1.000,A -150.000,B 0.000,C 180.000} C_DIS
LIN {X 147.259,Y 147.488,Z 1.000,A -150.000,B 0.000,C 180.000} C_DIS
LIN {X 147.497,Y 147.250,Z 1.000,A -150.000,B 0.000,C 180.000} C_DIS
LIN {X 147.749,Y 147.041,Z 1.000,A -150.000,B 0.000,C 180.000} C_DIS
LIN {X 148.019,Y 146.853,Z 1.000,A -150.000,B 0.000,C 180.000} C_DIS
LIN {X 148.300,Y 146.693,Z 1.000,A -150.000,B 0.000,C 180.000} C_DIS
LIN {X 148.669,Y 146.528,Z 1.000,A -150.000,B 0.000,C 180.000} C_DIS
LIN {X 148.976,Y 146.426,Z 1.000,A -150.000,B 0.000,C 180.000} C_DIS
LIN {X 149.296,Y 146.349,Z 1.000,A -150.000,B 0.000,C 180.000} C_DIS
LIN {X 149.628,Y 146.301,Z 1.000,A -150.000,B 0.000,C 180.000} C_DIS
LIN {X 149.880,Y 146.284,Z 1.000,A -150.000,B 0.000,C 180.000} C_DIS
LIN {X 150.214,Y 146.288,Z 1.000,A -150.000,B 0.000,C 180.000} C_DIS
LIN {X 150.537,Y 146.321,Z 1.000,A -150.000,B 0.000,C 180.000} C_DIS
LIN {X 150.932,Y 146.400,Z 1.000,A -150.000,B 0.000,C 180.000} C_DIS
LIN {X 151.241,Y 146.495,Z 1.000,A -150.000,B 0.000,C 180.000} C_DIS
LIN {X 151.548,Y 146.620,Z 1.000,A -150.000,B 0.000,C 180.000} C_DIS
LIN {X 151.840,Y 146.769,Z 1.000,A -150.000,B 0.000,C 180.000} C_DIS
LIN {X 152.117,Y 146.943,Z 1.000,A -150.000,B 0.000,C 180.000} C_DIS
LIN {X 152.380,Y 147.143,Z 1.000,A -150.000,B 0.000,C 180.000} C_DIS
LIN {X 152.627,Y 147.368,Z 1.000,A -150.000,B 0.000,C 180.000} C_DIS
LIN {X 152.800,Y 147.553,Z 1.000,A -150.000,B 0.000,C 180.000} C_DIS
LIN {X 153.005,Y 147.811,Z 1.000,A -150.000,B 0.000,C 180.000} C_DIS
LIN {X 153.225,Y 148.150,Z 1.000,A -150.000,B 0.000,C 180.000} C_DIS
LIN {X 153.373,Y 148.437,Z 1.000,A -150.000,B 0.000,C 180.000} C_DIS
LIN {X 153.498,Y 148.741,Z 1.000,A -150.000,B 0.000,C 180.000} C_DIS
LIN {X 153.596,Y 149.057,Z 1.000,A -150.000,B 0.000,C 180.000} C_DIS
LIN {X 153.666,Y 149.378,Z 1.000,A -150.000,B 0.000,C 180.000} C_DIS
LIN {X 153.707,Y 149.709,Z 1.000,A -150.000,B 0.000,C 180.000} C_DIS
LIN {X 153.718,Y 149.962,Z 1.000,A -150.000,B 0.000,C 180.000} C_DIS
LIN {X 153.706,Y 150.297,Z 1.000,A -150.000,B 0.000,C 180.000} C_DIS
LIN {X 153.666,Y 150.618,Z 1.000,A -150.000,B 0.000,C 180.000} C_DIS
LIN {X 153.578,Y 151.012,Z 1.000,A -150.000,B 0.000,C 180.000} C_DIS
LIN {X 153.477,Y 151.317,Z 1.000,A -150.000,B 0.000,C 180.000} C_DIS
LIN {X 153.345,Y 151.622,Z 1.000,A -150.000,B 0.000,C 180.000} C_DIS
LIN {X 153.189,Y 151.912,Z 1.000,A -150.000,B 0.000,C 180.000} C_DIS
LIN {X 153.009,Y 152.184,Z 1.000,A -150.000,B 0.000,C 180.000} C_DIS
LIN {X 152.800,Y 152.447,Z 1.000,A -150.000,B 0.000,C 180.000} C_DIS
LIN {X 152.627,Y 152.632,Z 1.000,A -150.000,B 0.000,C 180.000} C_DIS
LIN {X 152.380,Y 152.857,Z 1.000,A -150.000,B 0.000,C 180.000} C_DIS
LIN {X 152.117,Y 153.057,Z 1.000,A -150.000,B 0.000,C 180.000} C_DIS
LIN {X 151.845,Y 153.229,Z 1.000,A -150.000,B 0.000,C 180.000} C_DIS
LIN {X 151.484,Y 153.409,Z 1.000,A -150.000,B 0.000,C 180.000} C_DIS
LIN {X 151.181,Y 153.525,Z 1.000,A -150.000,B 0.000,C 180.000} C_DIS
LIN {X 150.863,Y 153.616,Z 1.000,A -150.000,B 0.000,C 180.000} C_DIS
LIN {X 150.541,Y 153.678,Z 1.000,A -150.000,B 0.000,C 180.000} C_DIS
LIN {X 150.208,Y 153.712,Z 1.000,A -150.000,B 0.000,C 180.000} C_DIS
LIN {X 149.956,Y 153.718,Z 1.000,A -150.000,B 0.000,C 180.000} C_DIS
LIN {X 149.622,Y 153.698,Z 1.000,A -150.000,B 0.000,C 180.000} C_DIS
LIN {X 149.301,Y 153.651,Z 1.000,A -150.000,B 0.000,C 180.000} C_DIS
LIN {X 148.910,Y 153.555,Z 1.000,A -150.000,B 0.000,C 180.000} C_DIS
$VEL.CP=0.03
LIN {X 148.910,Y 153.555,Z 1.000,A -150.000,B 0.000,C 180.000} C_DIS
$VEL.CP=0.02
LIN {X 148.604,Y 153.446,Z 1.000,A -150.000,B 0.000,C 180.000} C_DIS
LIN {X 148.305,Y 153.309,Z 1.000,A -150.000,B 0.000,C 180.000} C_DIS
LIN {X 148.178,Y 153.237,Z 1.000,A -150.000,B 0.000,C 180.000} C_DIS
LIN {X 148.305,Y 153.309,Z 1.000,A -150.000,B 0.000,C 180.000} C_DIS
LIN {X 148.604,Y 153.446,Z 1.000,A -150.000,B 0.000,C 180.000} C_DIS
LIN {X 148.910,Y 153.555,Z 1.000,A -150.000,B 0.000,C 180.000} C_DIS
;rapid-leaky
LIN {X 149.014,Y 153.210,Z 1.000,A -150.000,B 0.000,C 180.000} C_DIS
$VEL.CP=0.03
LIN {X 149.014,Y 153.210,Z 1.000,A -150.000,B 0.000,C 180.000} C_DIS
;bead-perimeter_inner
$VEL.CP=0.02
LIN {X 148.740,Y 153.112,Z 1.000,A -150.000,B 0.000,C 180.000} C_DIS
LIN {X 148.469,Y 152.989,Z 1.000,A -150.000,B 0.000,C 180.000} C_DIS
LIN {X 148.211,Y 152.841,Z 1.000,A -150.000,B 0.000,C 180.000} C_DIS
LIN {X 147.966,Y 152.672,Z 1.000,A -150.000,B 0.000,C 180.000} C_DIS
LIN {X 147.740,Y 152.483,Z 1.000,A -150.000,B 0.000,C 180.000} C_DIS
LIN {X 147.529,Y 152.273,Z 1.000,A -150.000,B 0.000,C 180.000} C_DIS
LIN {X 147.337,Y 152.045,Z 1.000,A -150.000,B 0.000,C 180.000} C_DIS
LIN {X 147.167,Y 151.802,Z 1.000,A -150.000,B 0.000,C 180.000} C_DIS
LIN {X 147.018,Y 151.544,Z 1.000,A -150.000,B 0.000,C 180.000} C_DIS
LIN {X 146.891,Y 151.269,Z 1.000,A -150.000,B 0.000,C 180.000} C_DIS
LIN {X 146.813,Y 151.057,Z 1.000,A -150.000,B 0.000,C 180.000} C_DIS
LIN {X 146.732,Y 150.772,Z 1.000,A -150.000,B 0.000,C 180.000} C_DIS
LIN {X 146.668,Y 150.409,Z 1.000,A -150.000,B 0.000,C 180.000} C_DIS
LIN {X 146.645,Y 150.119,Z 1.000,A -150.000,B 0.000,C 180.000} C_DIS
LIN {X 146.647,Y 149.822,Z 1.000,A -150.000,B 0.000,C 180.000} C_DIS
LIN {X 146.676,Y 149.525,Z 1.000,A -150.000,B 0.000,C 180.000} C_DIS
LIN {X 146.731,Y 149.234,Z 1.000,A -150.000,B 0.000,C 180.000} C_DIS
LIN {X 146.811,Y 148.950,Z 1.000,A -150.000,B 0.000,C 180.000} C_DIS
LIN {X 146.917,Y 148.671,Z 1.000,A -150.000,B 0.000,C 180.000} C_DIS
LIN {X 147.045,Y 148.405,Z 1.000,A -150.000,B 0.000,C 180.000} C_DIS
LIN {X 147.200,Y 148.149,Z 1.000,A -150.000,B 0.000,C 180.000} C_DIS
LIN {X 147.378,Y 147.903,Z 1.000,A -150.000,B 0.000,C 180.000} C_DIS
LIN {X 147.740,Y 147.517,Z 1.000,A -150.000,B 0.000,C 180.000} C_DIS
LIN {X 147.967,Y 147.327,Z 1.000,A -150.000,B 0.000,C 180.000} C_DIS
LIN {X 148.211,Y 147.158,Z 1.000,A -150.000,B 0.000,C 180.000} C_DIS
LIN {X 148.463,Y 147.015,Z 1.000,A -150.000,B 0.000,C 180.000} C_DIS
LIN {X 148.800,Y 146.864,Z 1.000,A -150.000,B 0.000,C 180.000} C_DIS
LIN {X 149.075,Y 146.772,Z 1.000,A -150.000,B 0.000,C 180.000} C_DIS
LIN {X 149.364,Y 146.703,Z 1.000,A -150.000,B 0.000,C 180.000} C_DIS
LIN {X 149.666,Y 146.659,Z 1.000,A -150.000,B 0.000,C 180.000} C_DIS
LIN {X 149.890,Y 146.644,Z 1.000,A -150.000,B 0.000,C 180.000} C_DIS
LIN {X 150.193,Y 146.648,Z 1.000,A -150.000,B 0.000,C 180.000} C_DIS
LIN {X 150.483,Y 146.677,Z 1.000,A -150.000,B 0.000,C 180.000} C_DIS
LIN {X 150.844,Y 146.750,Z 1.000,A -150.000,B 0.000,C 180.000} C_DIS
LIN {X 151.120,Y 146.835,Z 1.000,A -150.000,B 0.000,C 180.000} C_DIS
LIN {X 151.398,Y 146.947,Z 1.000,A -150.000,B 0.000,C 180.000} C_DIS
LIN {X 151.662,Y 147.082,Z 1.000,A -150.000,B 0.000,C 180.000} C_DIS
LIN {X 151.912,Y 147.240,Z 1.000,A -150.000,B 0.000,C 180.000} C_DIS
LIN {X 152.149,Y 147.420,Z 1.000,A -150.000,B 0.000,C 180.000} C_DIS
LIN {X 152.374,Y 147.625,Z 1.000,A -150.000,B 0.000,C 180.000} C_DIS
LIN {X 152.527,Y 147.789,Z 1.000,A -150.000,B 0.000,C 180.000} C_DIS
LIN {X 152.713,Y 148.022,Z 1.000,A -150.000,B 0.000,C 180.000} C_DIS
LIN {X 152.913,Y 148.331,Z 1.000,A -150.000,B 0.000,C 180.000} C_DIS
LIN {X 153.046,Y 148.588,Z 1.000,A -150.000,B 0.000,C 180.000} C_DIS
LIN {X 153.159,Y 148.863,Z 1.000,A -150.000,B 0.000,C 180.000} C_DIS
LIN {X 153.248,Y 149.149,Z 1.000,A -150.000,B 0.000,C 180.000} C_DIS
LIN {X 153.310,Y 149.438,Z 1.000,A -150.000,B 0.000,C 180.000} C_DIS
LIN {X 153.348,Y 149.739,Z 1.000,A -150.000,B 0.000,C 180.000} C_DIS
LIN {X 153.358,Y 149.963,Z 1.000,A -150.000,B 0.000,C 180.000} C_DIS
LIN {X 153.347,Y 150.268,Z 1.000,A -150.000,B 0.000,C 180.000} C_DIS
LIN {X 153.311,Y 150.557,Z 1.000,A -150.000,B 0.000,C 180.000} C_DIS
LIN {X 153.231,Y 150.916,Z 1.000,A -150.000,B 0.000,C 180.000} C_DIS
LIN {X 153.140,Y 151.189,Z 1.000,A -150.000,B 0.000,C 180.000} C_DIS
LIN {X 153.021,Y 151.464,Z 1.000,A -150.000,B 0.000,C 180.000} C_DIS
LIN {X 152.880,Y 151.727,Z 1.000,A -150.000,B 0.000,C 180.000} C_DIS
LIN {X 152.717,Y 151.972,Z 1.000,A -150.000,B 0.000,C 180.000} C_DIS
LIN {X 152.527,Y 152.211,Z 1.000,A -150.000,B 0.000,C 180.000} C_DIS
LIN {X 152.374,Y 152.375,Z 1.000,A -150.000,B 0.000,C 180.000} C_DIS
LIN {X 152.149,Y 152.580,Z 1.000,A -150.000,B 0.000,C 180.000} C_DIS
LIN {X 151.912,Y 152.760,Z 1.000,A -150.000,B 0.000,C 180.000} C_DIS
LIN {X 151.668,Y 152.915,Z 1.000,A -150.000,B 0.000,C 180.000} C_DIS
LIN {X 151.339,Y 153.079,Z 1.000,A -150.000,B 0.000,C 180.000} C_DIS
LIN {X 151.067,Y 153.183,Z 1.000,A -150.000,B 0.000,C 180.000} C_DIS
LIN {X 150.779,Y 153.266,Z 1.000,A -150.000,B 0.000,C 180.000} C_DIS
LIN {X 150.488,Y 153.322,Z 1.000,A -150.000,B 0.000,C 180.000} C_DIS
LIN {X 150.186,Y 153.353,Z 1.000,A -150.000,B 0.000,C 180.000} C_DIS
LIN {X 149.963,Y 153.358,Z 1.000,A -150.000,B 0.000,C 180.000} C_DIS
LIN {X 149.659,Y 153.340,Z 1.000,A -150.000,B 0.000,C 180.000} C_DIS
LIN {X 149.370,Y 153.298,Z 1.000,A -150.000,B 0.000,C 180.000} C_DIS
LIN {X 149.014,Y 153.210,Z 1.000,A -150.000,B 0.000,C 180.000} C_DIS
$VEL.CP=0.03
LIN {X 149.014,Y 153.210,Z 1.000,A -150.000,B 0.000,C 180.000} C_DIS
$VEL.CP=0.02
LIN {X 148.740,Y 153.112,Z 1.000,A -150.000,B 0.000,C 180.000} C_DIS
LIN {X 148.469,Y 152.989,Z 1.000,A -150.000,B 0.000,C 180.000} C_DIS
LIN {X 148.285,Y 152.884,Z 1.000,A -150.000,B 0.000,C 180.000} C_DIS
LIN {X 148.469,Y 152.989,Z 1.000,A -150.000,B 0.000,C 180.000} C_DIS
LIN {X 148.740,Y 153.112,Z 1.000,A -150.000,B 0.000,C 180.000} C_DIS
LIN {X 149.014,Y 153.210,Z 1.000,A -150.000,B 0.000,C 180.000} C_DIS
;rapid-leaky
LIN {X 149.118,Y 152.865,Z 1.000,A -150.000,B 0.000,C 180.000} C_DIS
$VEL.CP=0.03
LIN {X 149.118,Y 152.865,Z 1.000,A -150.000,B 0.000,C 180.000} C_DIS
;bead-perimeter_inner
$VEL.CP=0.02
LIN {X 148.875,Y 152.778,Z 1.000,A -150.000,B 0.000,C 180.000} C_DIS
LIN {X 148.633,Y 152.668,Z 1.000,A -150.000,B 0.000,C 180.000} C_DIS
LIN {X 148.403,Y 152.536,Z 1.000,A -150.000,B 0.000,C 180.000} C_DIS
LIN {X 148.184,Y 152.385,Z 1.000,A -150.000,B 0.000,C 180.000} C_DIS
LIN {X 147.983,Y 152.217,Z 1.000,A -150.000,B 0.000,C 180.000} C_DIS
LIN {X 147.794,Y 152.029,Z 1.000,A -150.000,B 0.000,C 180.000} C_DIS
LIN {X 147.622,Y 151.825,Z 1.000,A -150.000,B 0.000,C 180.000} C_DIS
LIN {X 147.471,Y 151.608,Z 1.000,A -150.000,B 0.000,C 180.000} C_DIS
LIN {X 147.338,Y 151.378,Z 1.000,A -150.000,B 0.000,C 180.000} C_DIS
LIN {X 147.224,Y 151.130,Z 1.000,A -150.000,B 0.000,C 180.000} C_DIS
LIN {X 147.084,Y 150.692,Z 1.000,A -150.000,B 0.000,C 180.000} C_DIS
LIN {X 147.025,Y 150.363,Z 1.000,A -150.000,B 0.000,C 180.000} C_DIS
LIN {X 147.005,Y 150.107,Z 1.000,A -150.000,B 0.000,C 180.000} C_DIS
LIN {X 147.007,Y 149.842,Z 1.000,A -150.000,B 0.000,C 180.000} C_DIS
LIN {X 147.033,Y 149.576,Z 1.000,A -150.000,B 0.000,C 180.000} C_DIS
LIN {X 147.081,Y 149.316,Z 1.000,A -150.000,B 0.000,C 180.000} C_DIS
LIN {X 147.153,Y 149.063,Z 1.000,A -150.000,B 0.000,C 180.000} C_DIS
LIN {X 147.247,Y 148.814,Z 1.000,A -150.000,B 0.000,C 180.000} C_DIS
LIN {X 147.362,Y 148.577,Z 1.000,A -150.000,B 0.000,C 180.000} C_DIS
LIN {X 147.500,Y 148.348,Z 1.000,A -150.000,B 0.000,C 180.000} C_DIS
LIN {X 147.788,Y 147.978,Z 1.000,A -150.000,B 0.000,C 180.000} C_DIS
LIN {X 147.983,Y 147.783,Z 1.000,A -150.000,B 0.000,C 180.000} C_DIS
LIN {X 148.185,Y 147.614,Z 1.000,A -150.000,B 0.000,C 180.000} C_DIS
LIN {X 148.403,Y 147.463,Z 1.000,A -150.000,B 0.000,C 180.000} C_DIS
LIN {X 148.626,Y 147.336,Z 1.000,A -150.000,B 0.000,C 180.000} C_DIS
LIN {X 148.930,Y 147.200,Z 1.000,A -150.000,B 0.000,C 180.000} C_DIS
LIN {X 149.174,Y 147.119,Z 1.000,A -150.000,B 0.000,C 180.000} C_DIS
LIN {X 149.432,Y 147.057,Z 1.000,A -150.000,B 0.000,C 180.000} C_DIS
LIN {X 149.899,Y 147.004,Z 1.000,A -150.000,B 0.000,C 180.000} C_DIS
LIN {X 150.172,Y 147.008,Z 1.000,A -150.000,B 0.000,C 180.000} C_DIS
LIN {X 150.429,Y 147.034,Z 1.000,A -150.000,B 0.000,C 180.000} C_DIS
LIN {X 150.756,Y 147.099,Z 1.000,A -150.000,B 0.000,C 180.000} C_DIS
LIN {X 151.000,Y 147.174,Z 1.000,A -150.000,B 0.000,C 180.000} C_DIS
LIN {X 151.249,Y 147.275,Z 1.000,A -150.000,B 0.000,C 180.000} C_DIS
LIN {X 151.484,Y 147.395,Z 1.000,A -150.000,B 0.000,C 180.000} C_DIS
LIN {X 151.706,Y 147.536,Z 1.000,A -150.000,B 0.000,C 180.000} C_DIS
LIN {X 151.918,Y 147.697,Z 1.000,A -150.000,B 0.000,C 180.000} C_DIS
LIN {X 152.120,Y 147.881,Z 1.000,A -150.000,B 0.000,C 180.000} C_DIS
LIN {X 152.420,Y 148.233,Z 1.000,A -150.000,B 0.000,C 180.000} C_DIS
LIN {X 152.601,Y 148.512,Z 1.000,A -150.000,B 0.000,C 180.000} C_DIS
LIN {X 152.719,Y 148.740,Z 1.000,A -150.000,B 0.000,C 180.000} C_DIS
LIN {X 152.820,Y 148.985,Z 1.000,A -150.000,B 0.000,C 180.000} C_DIS
LIN {X 152.899,Y 149.240,Z 1.000,A -150.000,B 0.000,C 180.000} C_DIS
LIN {X 152.955,Y 149.498,Z 1.000,A -150.000,B 0.000,C 180.000} C_DIS
LIN {X 152.989,Y 149.770,Z 1.000,A -150.000,B 0.000,C 180.000} C_DIS
LIN {X 152.987,Y 150.239,Z 1.000,A -150.000,B 0.000,C 180.000} C_DIS
LIN {X 152.956,Y 150.495,Z 1.000,A -150.000,B 0.000,C 180.000} C_DIS
LIN {X 152.883,Y 150.820,Z 1.000,A -150.000,B 0.000,C 180.000} C_DIS
LIN {X 152.803,Y 151.061,Z 1.000,A -150.000,B 0.000,C 180.000} C_DIS
LIN {X 152.696,Y 151.307,Z 1.000,A -150.000,B 0.000,C 180.000} C_DIS
LIN {X 152.570,Y 151.542,Z 1.000,A -150.000,B 0.000,C 180.000} C_DIS
LIN {X 152.426,Y 151.761,Z 1.000,A -150.000,B 0.000,C 180.000} C_DIS
LIN {X 152.254,Y 151.976,Z 1.000,A -150.000,B 0.000,C 180.000} C_DIS
LIN {X 151.918,Y 152.303,Z 1.000,A -150.000,B 0.000,C 180.000} C_DIS
LIN {X 151.706,Y 152.464,Z 1.000,A -150.000,B 0.000,C 180.000} C_DIS
LIN {X 151.491,Y 152.601,Z 1.000,A -150.000,B 0.000,C 180.000} C_DIS
LIN {X 151.194,Y 152.749,Z 1.000,A -150.000,B 0.000,C 180.000} C_DIS
LIN {X 150.953,Y 152.841,Z 1.000,A -150.000,B 0.000,C 180.000} C_DIS
LIN {X 150.695,Y 152.915,Z 1.000,A -150.000,B 0.000,C 180.000} C_DIS
LIN {X 150.436,Y 152.965,Z 1.000,A -150.000,B 0.000,C 180.000} C_DIS
LIN {X 150.164,Y 152.993,Z 1.000,A -150.000,B 0.000,C 180.000} C_DIS
LIN {X 149.696,Y 152.982,Z 1.000,A -150.000,B 0.000,C 180.000} C_DIS
LIN {X 149.439,Y 152.944,Z 1.000,A -150.000,B 0.000,C 180.000} C_DIS
LIN {X 149.118,Y 152.865,Z 1.000,A -150.000,B 0.000,C 180.000} C_DIS
$VEL.CP=0.03
LIN {X 149.118,Y 152.865,Z 1.000,A -150.000,B 0.000,C 180.000} C_DIS
$VEL.CP=0.02
LIN {X 148.875,Y 152.778,Z 1.000,A -150.000,B 0.000,C 180.000} C_DIS
LIN {X 148.633,Y 152.668,Z 1.000,A -150.000,B 0.000,C 180.000} C_DIS
LIN {X 148.403,Y 152.536,Z 1.000,A -150.000,B 0.000,C 180.000} C_DIS
LIN {X 148.394,Y 152.530,Z 1.000,A -150.000,B 0.000,C 180.000} C_DIS
LIN {X 148.403,Y 152.536,Z 1.000,A -150.000,B 0.000,C 180.000} C_DIS
LIN {X 148.633,Y 152.668,Z 1.000,A -150.000,B 0.000,C 180.000} C_DIS
LIN {X 148.875,Y 152.778,Z 1.000,A -150.000,B 0.000,C 180.000} C_DIS
LIN {X 149.118,Y 152.865,Z 1.000,A -150.000,B 0.000,C 180.000} C_DIS
;rapid-leaky
LIN {X 149.222,Y 152.520,Z 1.000,A -150.000,B 0.000,C 180.000} C_DIS
$VEL.CP=0.03
LIN {X 149.222,Y 152.520,Z 1.000,A -150.000,B 0.000,C 180.000} C_DIS
;bead-perimeter_inner
$VEL.CP=0.02
LIN {X 148.798,Y 152.347,Z 1.000,A -150.000,B 0.000,C 180.000} C_DIS
LIN {X 148.595,Y 152.231,Z 1.000,A -150.000,B 0.000,C 180.000} C_DIS
LIN {X 148.402,Y 152.098,Z 1.000,A -150.000,B 0.000,C 180.000} C_DIS
LIN {X 148.226,Y 151.951,Z 1.000,A -150.000,B 0.000,C 180.000} C_DIS
LIN {X 148.060,Y 151.785,Z 1.000,A -150.000,B 0.000,C 180.000} C_DIS
LIN {X 147.908,Y 151.605,Z 1.000,A -150.000,B 0.000,C 180.000} C_DIS
LIN {X 147.775,Y 151.415,Z 1.000,A -150.000,B 0.000,C 180.000} C_DIS
LIN {X 147.658,Y 151.213,Z 1.000,A -150.000,B 0.000,C 180.000} C_DIS
LIN {X 147.556,Y 150.992,Z 1.000,A -150.000,B 0.000,C 180.000} C_DIS
LIN {X 147.435,Y 150.611,Z 1.000,A -150.000,B 0.000,C 180.000} C_DIS
LIN {X 147.383,Y 150.317,Z 1.000,A -150.000,B 0.000,C 180.000} C_DIS
LIN {X 147.365,Y 150.094,Z 1.000,A -150.000,B 0.000,C 180.000} C_DIS
LIN {X 147.367,Y 149.861,Z 1.000,A -150.000,B 0.000,C 180.000} C_DIS
LIN {X 147.390,Y 149.626,Z 1.000,A -150.000,B 0.000,C 180.000} C_DIS
LIN {X 147.432,Y 149.398,Z 1.000,A -150.000,B 0.000,C 180.000} C_DIS
LIN {X 147.495,Y 149.176,Z 1.000,A -150.000,B 0.000,C 180.000} C_DIS
LIN {X 147.578,Y 148.956,Z 1.000,A -150.000,B 0.000,C 180.000} C_DIS
LIN {X 147.679,Y 148.748,Z 1.000,A -150.000,B 0.000,C 180.000} C_DIS
LIN {X 147.801,Y 148.546,Z 1.000,A -150.000,B 0.000,C 180.000} C_DIS
LIN {X 148.052,Y 148.222,Z 1.000,A -150.000,B 0.000,C 180.000} C_DIS
LIN {X 148.226,Y 148.049,Z 1.000,A -150.000,B 0.000,C 180.000} C_DIS
LIN {X 148.404,Y 147.901,Z 1.000,A -150.000,B 0.000,C 180.000} C_DIS
LIN {X 148.595,Y 147.768,Z 1.000,A -150.000,B 0.000,C 180.000} C_DIS
LIN {X 148.789,Y 147.658,Z 1.000,A -150.000,B 0.000,C 180.000} C_DIS
LIN {X 149.061,Y 147.536,Z 1.000,A -150.000,B 0.000,C 180.000} C_DIS
LIN {X 149.500,Y 147.411,Z 1.000,A -150.000,B 0.000,C 180.000} C_DIS
LIN {X 149.909,Y 147.364,Z 1.000,A -150.000,B 0.000,C 180.000} C_DIS
LIN {X 150.152,Y 147.367,Z 1.000,A -150.000,B 0.000,C 180.000} C_DIS
LIN {X 150.375,Y 147.390,Z 1.000,A -150.000,B 0.000,C 180.000} C_DIS
LIN {X 150.667,Y 147.449,Z 1.000,A -150.000,B 0.000,C 180.000} C_DIS
LIN {X 151.099,Y 147.603,Z 1.000,A -150.000,B 0.000,C 180.000} C_DIS
LIN {X 151.306,Y 147.708,Z 1.000,A -150.000,B 0.000,C 180.000} C_DIS
LIN {X 151.501,Y 147.832,Z 1.000,A -150.000,B 0.000,C 180.000} C_DIS
LIN {X 151.687,Y 147.974,Z 1.000,A -150.000,B 0.000,C 180.000} C_DIS
LIN {X 151.867,Y 148.137,Z 1.000,A -150.000,B 0.000,C 180.000} C_DIS
LIN {X 152.128,Y 148.443,Z 1.000,A -150.000,B 0.000,C 180.000} C_DIS
LIN {X 152.290,Y 148.693,Z 1.000,A -150.000,B 0.000,C 180.000} C_DIS
LIN {X 152.392,Y 148.891,Z 1.000,A -150.000,B 0.000,C 180.000} C_DIS
LIN {X 152.481,Y 149.107,Z 1.000,A -150.000,B 0.000,C 180.000} C_DIS
LIN {X 152.551,Y 149.332,Z 1.000,A -150.000,B 0.000,C 180.000} C_DIS
LIN {X 152.600,Y 149.559,Z 1.000,A -150.000,B 0.000,C 180.000} C_DIS
LIN {X 152.630,Y 149.800,Z 1.000,A -150.000,B 0.000,C 180.000} C_DIS
LIN {X 152.628,Y 150.211,Z 1.000,A -150.000,B 0.000,C 180.000} C_DIS
LIN {X 152.601,Y 150.434,Z 1.000,A -150.000,B 0.000,C 180.000} C_DIS
LIN {X 152.536,Y 150.723,Z 1.000,A -150.000,B 0.000,C 180.000} C_DIS
LIN {X 152.467,Y 150.932,Z 1.000,A -150.000,B 0.000,C 180.000} C_DIS
LIN {X 152.261,Y 151.357,Z 1.000,A -150.000,B 0.000,C 180.000} C_DIS
LIN {X 152.134,Y 151.549,Z 1.000,A -150.000,B 0.000,C 180.000} C_DIS
LIN {X 151.982,Y 151.740,Z 1.000,A -150.000,B 0.000,C 180.000} C_DIS
LIN {X 151.687,Y 152.026,Z 1.000,A -150.000,B 0.000,C 180.000} C_DIS
LIN {X 151.314,Y 152.287,Z 1.000,A -150.000,B 0.000,C 180.000} C_DIS
LIN {X 151.048,Y 152.419,Z 1.000,A -150.000,B 0.000,C 180.000} C_DIS
LIN {X 150.838,Y 152.500,Z 1.000,A -150.000,B 0.000,C 180.000} C_DIS
LIN {X 150.611,Y 152.565,Z 1.000,A -150.000,B 0.000,C 180.000} C_DIS
LIN {X 150.383,Y 152.609,Z 1.000,A -150.000,B 0.000,C 180.000} C_DIS
LIN {X 149.976,Y 152.637,Z 1.000,A -150.000,B 0.000,C 180.000} C_DIS
LIN {X 149.733,Y 152.623,Z 1.000,A -150.000,B 0.000,C 180.000} C_DIS
LIN {X 149.509,Y 152.590,Z 1.000,A -150.000,B 0.000,C 180.000} C_DIS
LIN {X 149.222,Y 152.520,Z 1.000,A -150.000,B 0.000,C 180.000} C_DIS
$VEL.CP=0.03
LIN {X 149.222,Y 152.520,Z 1.000,A -150.000,B 0.000,C 180.000} C_DIS
$VEL.CP=0.02
LIN {X 148.798,Y 152.347,Z 1.000,A -150.000,B 0.000,C 180.000} C_DIS
LIN {X 148.595,Y 152.231,Z 1.000,A -150.000,B 0.000,C 180.000} C_DIS
LIN {X 148.506,Y 152.169,Z 1.000,A -150.000,B 0.000,C 180.000} C_DIS
LIN {X 148.595,Y 152.231,Z 1.000,A -150.000,B 0.000,C 180.000} C_DIS
LIN {X 148.798,Y 152.347,Z 1.000,A -150.000,B 0.000,C 180.000} C_DIS
LIN {X 149.222,Y 152.520,Z 1.000,A -150.000,B 0.000,C 180.000} C_DIS
;rapid-leaky
LIN {X 149.326,Y 152.174,Z 1.000,A -150.000,B 0.000,C 180.000} C_DIS
$VEL.CP=0.03
LIN {X 149.326,Y 152.174,Z 1.000,A -150.000,B 0.000,C 180.000} C_DIS
;bead-perimeter_inner
$VEL.CP=0.02
LIN {X 148.962,Y 152.026,Z 1.000,A -150.000,B 0.000,C 180.000} C_DIS
LIN {X 148.620,Y 151.811,Z 1.000,A -150.000,B 0.000,C 180.000} C_DIS
LIN {X 148.469,Y 151.685,Z 1.000,A -150.000,B 0.000,C 180.000} C_DIS
LIN {X 148.194,Y 151.386,Z 1.000,A -150.000,B 0.000,C 180.000} C_DIS
LIN {X 147.978,Y 151.047,Z 1.000,A -150.000,B 0.000,C 180.000} C_DIS
LIN {X 147.889,Y 150.854,Z 1.000,A -150.000,B 0.000,C 180.000} C_DIS
LIN {X 147.786,Y 150.530,Z 1.000,A -150.000,B 0.000,C 180.000} C_DIS
LIN {X 147.740,Y 150.271,Z 1.000,A -150.000,B 0.000,C 180.000} C_DIS
LIN {X 147.727,Y 149.880,Z 1.000,A -150.000,B 0.000,C 180.000} C_DIS
LIN {X 147.783,Y 149.480,Z 1.000,A -150.000,B 0.000,C 180.000} C_DIS
LIN {X 147.909,Y 149.099,Z 1.000,A -150.000,B 0.000,C 180.000} C_DIS
LIN {X 148.101,Y 148.745,Z 1.000,A -150.000,B 0.000,C 180.000} C_DIS
LIN {X 148.316,Y 148.467,Z 1.000,A -150.000,B 0.000,C 180.000} C_DIS
LIN {X 148.622,Y 148.188,Z 1.000,A -150.000,B 0.000,C 180.000} C_DIS
LIN {X 148.951,Y 147.979,Z 1.000,A -150.000,B 0.000,C 180.000} C_DIS
LIN {X 149.192,Y 147.872,Z 1.000,A -150.000,B 0.000,C 180.000} C_DIS
LIN {X 149.372,Y 147.812,Z 1.000,A -150.000,B 0.000,C 180.000} C_DIS
LIN {X 149.781,Y 147.734,Z 1.000,A -150.000,B 0.000,C 180.000} C_DIS
LIN {X 150.131,Y 147.727,Z 1.000,A -150.000,B 0.000,C 180.000} C_DIS
LIN {X 150.321,Y 147.747,Z 1.000,A -150.000,B 0.000,C 180.000} C_DIS
LIN {X 150.579,Y 147.798,Z 1.000,A -150.000,B 0.000,C 180.000} C_DIS
LIN {X 150.949,Y 147.931,Z 1.000,A -150.000,B 0.000,C 180.000} C_DIS
LIN {X 151.295,Y 148.128,Z 1.000,A -150.000,B 0.000,C 180.000} C_DIS
LIN {X 151.614,Y 148.394,Z 1.000,A -150.000,B 0.000,C 180.000} C_DIS
LIN {X 151.836,Y 148.654,Z 1.000,A -150.000,B 0.000,C 180.000} C_DIS
LIN {X 151.978,Y 148.874,Z 1.000,A -150.000,B 0.000,C 180.000} C_DIS
LIN {X 152.065,Y 149.042,Z 1.000,A -150.000,B 0.000,C 180.000} C_DIS
LIN {X 152.142,Y 149.229,Z 1.000,A -150.000,B 0.000,C 180.000} C_DIS
LIN {X 152.245,Y 149.619,Z 1.000,A -150.000,B 0.000,C 180.000} C_DIS
LIN {X 152.277,Y 149.968,Z 1.000,A -150.000,B 0.000,C 180.000} C_DIS
LIN {X 152.269,Y 150.182,Z 1.000,A -150.000,B 0.000,C 180.000} C_DIS
LIN {X 152.246,Y 150.372,Z 1.000,A -150.000,B 0.000,C 180.000} C_DIS
LIN {X 152.188,Y 150.627,Z 1.000,A -150.000,B 0.000,C 180.000} C_DIS
LIN {X 152.048,Y 150.993,Z 1.000,A -150.000,B 0.000,C 180.000} C_DIS
LIN {X 151.952,Y 151.172,Z 1.000,A -150.000,B 0.000,C 180.000} C_DIS
LIN {X 151.709,Y 151.505,Z 1.000,A -150.000,B 0.000,C 180.000} C_DIS
LIN {X 151.457,Y 151.750,Z 1.000,A -150.000,B 0.000,C 180.000} C_DIS
LIN {X 151.295,Y 151.872,Z 1.000,A -150.000,B 0.000,C 180.000} C_DIS
LIN {X 151.137,Y 151.973,Z 1.000,A -150.000,B 0.000,C 180.000} C_DIS
LIN {X 150.903,Y 152.089,Z 1.000,A -150.000,B 0.000,C 180.000} C_DIS
LIN {X 150.527,Y 152.214,Z 1.000,A -150.000,B 0.000,C 180.000} C_DIS
LIN {X 150.330,Y 152.252,Z 1.000,A -150.000,B 0.000,C 180.000} C_DIS
LIN {X 149.982,Y 152.277,Z 1.000,A -150.000,B 0.000,C 180.000} C_DIS
LIN {X 149.578,Y 152.237,Z 1.000,A -150.000,B 0.000,C 180.000} C_DIS
LIN {X 149.326,Y 152.174,Z 1.000,A -150.000,B 0.000,C 180.000} C_DIS
$VEL.CP=0.03
LIN {X 149.326,Y 152.174,Z 1.000,A -150.000,B 0.000,C 180.000} C_DIS
$VEL.CP=0.02
LIN {X 148.962,Y 152.026,Z 1.000,A -150.000,B 0.000,C 180.000} C_DIS
LIN {X 148.620,Y 151.811,Z 1.000,A -150.000,B 0.000,C 180.000} C_DIS
LIN {X 148.618,Y 151.809,Z 1.000,A -150.000,B 0.000,C 180.000} C_DIS
LIN {X 148.620,Y 151.811,Z 1.000,A -150.000,B 0.000,C 180.000} C_DIS
LIN {X 148.962,Y 152.026,Z 1.000,A -150.000,B 0.000,C 180.000} C_DIS
LIN {X 149.326,Y 152.174,Z 1.000,A -150.000,B 0.000,C 180.000} C_DIS
;rapid-leaky
LIN {X 149.281,Y 151.776,Z 1.000,A -150.000,B 0.000,C 180.000} C_DIS
$VEL.CP=0.03
LIN {X 149.281,Y 151.776,Z 1.000,A -150.000,B 0.000,C 180.000} C_DIS
;bead-perimeter_inner
$VEL.CP=0.02
LIN {X 148.979,Y 151.621,Z 1.000,A -150.000,B 0.000,C 180.000} C_DIS
LIN {X 148.711,Y 151.419,Z 1.000,A -150.000,B 0.000,C 180.000} C_DIS
LIN {X 148.480,Y 151.166,Z 1.000,A -150.000,B 0.000,C 180.000} C_DIS
LIN {X 148.298,Y 150.881,Z 1.000,A -150.000,B 0.000,C 180.000} C_DIS
LIN {X 148.222,Y 150.716,Z 1.000,A -150.000,B 0.000,C 180.000} C_DIS
LIN {X 148.137,Y 150.450,Z 1.000,A -150.000,B 0.000,C 180.000} C_DIS
LIN {X 148.085,Y 150.069,Z 1.000,A -150.000,B 0.000,C 180.000} C_DIS
LIN {X 148.103,Y 149.727,Z 1.000,A -150.000,B 0.000,C 180.000} C_DIS
LIN {X 148.134,Y 149.562,Z 1.000,A -150.000,B 0.000,C 180.000} C_DIS
LIN {X 148.240,Y 149.241,Z 1.000,A -150.000,B 0.000,C 180.000} C_DIS
LIN {X 148.402,Y 148.943,Z 1.000,A -150.000,B 0.000,C 180.000} C_DIS
LIN {X 148.509,Y 148.795,Z 1.000,A -150.000,B 0.000,C 180.000} C_DIS
LIN {X 148.711,Y 148.581,Z 1.000,A -150.000,B 0.000,C 180.000} C_DIS
LIN {X 148.979,Y 148.378,Z 1.000,A -150.000,B 0.000,C 180.000} C_DIS
LIN {X 149.322,Y 148.208,Z 1.000,A -150.000,B 0.000,C 180.000} C_DIS
LIN {X 149.637,Y 148.119,Z 1.000,A -150.000,B 0.000,C 180.000} C_DIS
LIN {X 149.929,Y 148.084,Z 1.000,A -150.000,B 0.000,C 180.000} C_DIS
LIN {X 150.110,Y 148.087,Z 1.000,A -150.000,B 0.000,C 180.000} C_DIS
LIN {X 150.490,Y 148.148,Z 1.000,A -150.000,B 0.000,C 180.000} C_DIS
LIN {X 150.800,Y 148.259,Z 1.000,A -150.000,B 0.000,C 180.000} C_DIS
LIN {X 150.949,Y 148.335,Z 1.000,A -150.000,B 0.000,C 180.000} C_DIS
LIN {X 151.226,Y 148.527,Z 1.000,A -150.000,B 0.000,C 180.000} C_DIS
LIN {X 151.361,Y 148.650,Z 1.000,A -150.000,B 0.000,C 180.000} C_DIS
LIN {X 151.543,Y 148.865,Z 1.000,A -150.000,B 0.000,C 180.000} C_DIS
LIN {X 151.738,Y 149.193,Z 1.000,A -150.000,B 0.000,C 180.000} C_DIS
LIN {X 151.854,Y 149.515,Z 1.000,A -150.000,B 0.000,C 180.000} C_DIS
LIN {X 151.912,Y 149.860,Z 1.000,A -150.000,B 0.000,C 180.000} C_DIS
LIN {X 151.910,Y 150.154,Z 1.000,A -150.000,B 0.000,C 180.000} C_DIS
LIN {X 151.891,Y 150.311,Z 1.000,A -150.000,B 0.000,C 180.000} C_DIS
LIN {X 151.793,Y 150.676,Z 1.000,A -150.000,B 0.000,C 180.000} C_DIS
LIN {X 151.642,Y 150.987,Z 1.000,A -150.000,B 0.000,C 180.000} C_DIS
LIN {X 151.436,Y 151.269,Z 1.000,A -150.000,B 0.000,C 180.000} C_DIS
LIN {X 151.226,Y 151.473,Z 1.000,A -150.000,B 0.000,C 180.000} C_DIS
LIN {X 150.960,Y 151.659,Z 1.000,A -150.000,B 0.000,C 180.000} C_DIS
LIN {X 150.610,Y 151.816,Z 1.000,A -150.000,B 0.000,C 180.000} C_DIS
LIN {X 150.278,Y 151.896,Z 1.000,A -150.000,B 0.000,C 180.000} C_DIS
LIN {X 149.989,Y 151.917,Z 1.000,A -150.000,B 0.000,C 180.000} C_DIS
LIN {X 149.647,Y 151.883,Z 1.000,A -150.000,B 0.000,C 180.000} C_DIS
LIN {X 149.281,Y 151.776,Z 1.000,A -150.000,B 0.000,C 180.000} C_DIS
$VEL.CP=0.03
LIN {X 149.281,Y 151.776,Z 1.000,A -150.000,B 0.000,C 180.000} C_DIS
$VEL.CP=0.02
LIN {X 148.979,Y 151.621,Z 1.000,A -150.000,B 0.000,C 180.000} C_DIS
LIN {X 148.711,Y 151.419,Z 1.000,A -150.000,B 0.000,C 180.000} C_DIS
LIN {X 148.627,Y 151.327,Z 1.000,A -150.000,B 0.000,C 180.000} C_DIS
LIN {X 148.711,Y 151.419,Z 1.000,A -150.000,B 0.000,C 180.000} C_DIS
LIN {X 148.979,Y 151.621,Z 1.000,A -150.000,B 0.000,C 180.000} C_DIS
LIN {X 149.281,Y 151.776,Z 1.000,A -150.000,B 0.000,C 180.000} C_DIS
;rapid-leaky
LIN {X 149.534,Y 151.484,Z 1.000,A -150.000,B 0.000,C 180.000} C_DIS
$VEL.CP=0.03
LIN {X 149.534,Y 151.484,Z 1.000,A -150.000,B 0.000,C 180.000} C_DIS
;bead-perimeter_inner
$VEL.CP=0.02
LIN {X 149.290,Y 151.385,Z 1.000,A -150.000,B 0.000,C 180.000} C_DIS
LIN {X 149.056,Y 151.237,Z 1.000,A -150.000,B 0.000,C 180.000} C_DIS
LIN {X 148.856,Y 151.054,Z 1.000,A -150.000,B 0.000,C 180.000} C_DIS
LIN {X 148.687,Y 150.835,Z 1.000,A -150.000,B 0.000,C 180.000} C_DIS
LIN {X 148.555,Y 150.578,Z 1.000,A -150.000,B 0.000,C 180.000} C_DIS
LIN {X 148.489,Y 150.369,Z 1.000,A -150.000,B 0.000,C 180.000} C_DIS
LIN {X 148.445,Y 150.056,Z 1.000,A -150.000,B 0.000,C 180.000} C_DIS
LIN {X 148.460,Y 149.778,Z 1.000,A -150.000,B 0.000,C 180.000} C_DIS
LIN {X 148.522,Y 149.514,Z 1.000,A -150.000,B 0.000,C 180.000} C_DIS
LIN {X 148.630,Y 149.263,Z 1.000,A -150.000,B 0.000,C 180.000} C_DIS
LIN {X 148.792,Y 149.018,Z 1.000,A -150.000,B 0.000,C 180.000} C_DIS
LIN {X 148.954,Y 148.848,Z 1.000,A -150.000,B 0.000,C 180.000} C_DIS
LIN {X 149.058,Y 148.761,Z 1.000,A -150.000,B 0.000,C 180.000} C_DIS
LIN {X 149.277,Y 148.622,Z 1.000,A -150.000,B 0.000,C 180.000} C_DIS
LIN {X 149.570,Y 148.505,Z 1.000,A -150.000,B 0.000,C 180.000} C_DIS
LIN {X 149.858,Y 148.450,Z 1.000,A -150.000,B 0.000,C 180.000} C_DIS
LIN {X 150.089,Y 148.447,Z 1.000,A -150.000,B 0.000,C 180.000} C_DIS
LIN {X 150.402,Y 148.497,Z 1.000,A -150.000,B 0.000,C 180.000} C_DIS
LIN {X 150.650,Y 148.586,Z 1.000,A -150.000,B 0.000,C 180.000} C_DIS
LIN {X 150.885,Y 148.720,Z 1.000,A -150.000,B 0.000,C 180.000} C_DIS
LIN {X 151.108,Y 148.906,Z 1.000,A -150.000,B 0.000,C 180.000} C_DIS
LIN {X 151.251,Y 149.075,Z 1.000,A -150.000,B 0.000,C 180.000} C_DIS
LIN {X 151.355,Y 149.236,Z 1.000,A -150.000,B 0.000,C 180.000} C_DIS
LIN {X 151.464,Y 149.473,Z 1.000,A -150.000,B 0.000,C 180.000} C_DIS
LIN {X 151.534,Y 149.740,Z 1.000,A -150.000,B 0.000,C 180.000} C_DIS
LIN {X 151.553,Y 149.890,Z 1.000,A -150.000,B 0.000,C 180.000} C_DIS
LIN {X 151.551,Y 150.125,Z 1.000,A -150.000,B 0.000,C 180.000} C_DIS
LIN {X 151.494,Y 150.435,Z 1.000,A -150.000,B 0.000,C 180.000} C_DIS
LIN {X 151.399,Y 150.679,Z 1.000,A -150.000,B 0.000,C 180.000} C_DIS
LIN {X 151.260,Y 150.913,Z 1.000,A -150.000,B 0.000,C 180.000} C_DIS
LIN {X 151.108,Y 151.093,Z 1.000,A -150.000,B 0.000,C 180.000} C_DIS
LIN {X 150.884,Y 151.280,Z 1.000,A -150.000,B 0.000,C 180.000} C_DIS
LIN {X 150.613,Y 151.430,Z 1.000,A -150.000,B 0.000,C 180.000} C_DIS
LIN {X 150.359,Y 151.514,Z 1.000,A -150.000,B 0.000,C 180.000} C_DIS
LIN {X 150.074,Y 151.555,Z 1.000,A -150.000,B 0.000,C 180.000} C_DIS
LIN {X 149.843,Y 151.548,Z 1.000,A -150.000,B 0.000,C 180.000} C_DIS
LIN {X 149.534,Y 151.484,Z 1.000,A -150.000,B 0.000,C 180.000} C_DIS
$VEL.CP=0.03
LIN {X 149.534,Y 151.484,Z 1.000,A -150.000,B 0.000,C 180.000} C_DIS
$VEL.CP=0.02
LIN {X 149.290,Y 151.385,Z 1.000,A -150.000,B 0.000,C 180.000} C_DIS
LIN {X 149.056,Y 151.237,Z 1.000,A -150.000,B 0.000,C 180.000} C_DIS
LIN {X 148.864,Y 151.062,Z 1.000,A -150.000,B 0.000,C 180.000} C_DIS
LIN {X 149.056,Y 151.237,Z 1.000,A -150.000,B 0.000,C 180.000} C_DIS
LIN {X 149.290,Y 151.385,Z 1.000,A -150.000,B 0.000,C 180.000} C_DIS
LIN {X 149.534,Y 151.484,Z 1.000,A -150.000,B 0.000,C 180.000} C_DIS
;rapid-leaky
LIN {X 149.638,Y 151.139,Z 1.000,A -150.000,B 0.000,C 180.000} C_DIS
$VEL.CP=0.03
LIN {X 149.638,Y 151.139,Z 1.000,A -150.000,B 0.000,C 180.000} C_DIS
;bead-perimeter_inner
$VEL.CP=0.02
LIN {X 149.455,Y 151.064,Z 1.000,A -150.000,B 0.000,C 180.000} C_DIS
LIN {X 149.274,Y 150.950,Z 1.000,A -150.000,B 0.000,C 180.000} C_DIS
LIN {X 149.121,Y 150.810,Z 1.000,A -150.000,B 0.000,C 180.000} C_DIS
LIN {X 148.991,Y 150.641,Z 1.000,A -150.000,B 0.000,C 180.000} C_DIS
LIN {X 148.887,Y 150.440,Z 1.000,A -150.000,B 0.000,C 180.000} C_DIS
LIN {X 148.840,Y 150.288,Z 1.000,A -150.000,B 0.000,C 180.000} C_DIS
LIN {X 148.805,Y 150.044,Z 1.000,A -150.000,B 0.000,C 180.000} C_DIS
LIN {X 148.817,Y 149.829,Z 1.000,A -150.000,B 0.000,C 180.000} C_DIS
LIN {X 148.864,Y 149.627,Z 1.000,A -150.000,B 0.000,C 180.000} C_DIS
LIN {X 148.947,Y 149.435,Z 1.000,A -150.000,B 0.000,C 180.000} C_DIS
LIN {X 149.075,Y 149.242,Z 1.000,A -150.000,B 0.000,C 180.000} C_DIS
LIN {X 149.276,Y 149.048,Z 1.000,A -150.000,B 0.000,C 180.000} C_DIS
LIN {X 149.440,Y 148.944,Z 1.000,A -150.000,B 0.000,C 180.000} C_DIS
LIN {X 149.669,Y 148.851,Z 1.000,A -150.000,B 0.000,C 180.000} C_DIS
LIN {X 149.896,Y 148.808,Z 1.000,A -150.000,B 0.000,C 180.000} C_DIS
LIN {X 150.069,Y 148.806,Z 1.000,A -150.000,B 0.000,C 180.000} C_DIS
LIN {X 150.313,Y 148.846,Z 1.000,A -150.000,B 0.000,C 180.000} C_DIS
LIN {X 150.501,Y 148.914,Z 1.000,A -150.000,B 0.000,C 180.000} C_DIS
LIN {X 150.679,Y 149.016,Z 1.000,A -150.000,B 0.000,C 180.000} C_DIS
LIN {X 150.855,Y 149.163,Z 1.000,A -150.000,B 0.000,C 180.000} C_DIS
LIN {X 150.958,Y 149.286,Z 1.000,A -150.000,B 0.000,C 180.000} C_DIS
LIN {X 151.043,Y 149.417,Z 1.000,A -150.000,B 0.000,C 180.000} C_DIS
LIN {X 151.124,Y 149.594,Z 1.000,A -150.000,B 0.000,C 180.000} C_DIS
LIN {X 151.179,Y 149.800,Z 1.000,A -150.000,B 0.000,C 180.000} C_DIS
LIN {X 151.194,Y 149.920,Z 1.000,A -150.000,B 0.000,C 180.000} C_DIS
LIN {X 151.191,Y 150.097,Z 1.000,A -150.000,B 0.000,C 180.000} C_DIS
LIN {X 151.146,Y 150.339,Z 1.000,A -150.000,B 0.000,C 180.000} C_DIS
LIN {X 151.075,Y 150.522,Z 1.000,A -150.000,B 0.000,C 180.000} C_DIS
LIN {X 150.969,Y 150.701,Z 1.000,A -150.000,B 0.000,C 180.000} C_DIS
LIN {X 150.855,Y 150.837,Z 1.000,A -150.000,B 0.000,C 180.000} C_DIS
LIN {X 150.679,Y 150.984,Z 1.000,A -150.000,B 0.000,C 180.000} C_DIS
LIN {X 150.468,Y 151.100,Z 1.000,A -150.000,B 0.000,C 180.000} C_DIS
LIN {X 150.275,Y 151.163,Z 1.000,A -150.000,B 0.000,C 180.000} C_DIS
LIN {X 150.051,Y 151.195,Z 1.000,A -150.000,B 0.000,C 180.000} C_DIS
LIN {X 149.879,Y 151.189,Z 1.000,A -150.000,B 0.000,C 180.000} C_DIS
LIN {X 149.638,Y 151.139,Z 1.000,A -150.000,B 0.000,C 180.000} C_DIS
$VEL.CP=0.03
LIN {X 149.638,Y 151.139,Z 1.000,A -150.000,B 0.000,C 180.000} C_DIS
$VEL.CP=0.02
LIN {X 149.455,Y 151.064,Z 1.000,A -150.000,B 0.000,C 180.000} C_DIS
LIN {X 149.274,Y 150.950,Z 1.000,A -150.000,B 0.000,C 180.000} C_DIS
LIN {X 149.121,Y 150.810,Z 1.000,A -150.000,B 0.000,C 180.000} C_DIS
LIN {X 149.011,Y 150.667,Z 1.000,A -150.000,B 0.000,C 180.000} C_DIS
LIN {X 149.121,Y 150.810,Z 1.000,A -150.000,B 0.000,C 180.000} C_DIS
LIN {X 149.274,Y 150.950,Z 1.000,A -150.000,B 0.000,C 180.000} C_DIS
LIN {X 149.455,Y 151.064,Z 1.000,A -150.000,B 0.000,C 180.000} C_DIS
LIN {X 149.638,Y 151.139,Z 1.000,A -150.000,B 0.000,C 180.000} C_DIS
;rapid-leaky
LIN {X 149.742,Y 150.794,Z 1.000,A -150.000,B 0.000,C 180.000} C_DIS
$VEL.CP=0.03
LIN {X 149.742,Y 150.794,Z 1.000,A -150.000,B 0.000,C 180.000} C_DIS
;bead-perimeter_inner
$VEL.CP=0.02
LIN {X 149.619,Y 150.743,Z 1.000,A -150.000,B 0.000,C 180.000} C_DIS
LIN {X 149.492,Y 150.663,Z 1.000,A -150.000,B 0.000,C 180.000} C_DIS
LIN {X 149.386,Y 150.566,Z 1.000,A -150.000,B 0.000,C 180.000} C_DIS
LIN {X 149.295,Y 150.448,Z 1.000,A -150.000,B 0.000,C 180.000} C_DIS
LIN {X 149.220,Y 150.301,Z 1.000,A -150.000,B 0.000,C 180.000} C_DIS
LIN {X 149.166,Y 150.031,Z 1.000,A -150.000,B 0.000,C 180.000} C_DIS
LIN {X 149.174,Y 149.879,Z 1.000,A -150.000,B 0.000,C 180.000} C_DIS
LIN {X 149.206,Y 149.740,Z 1.000,A -150.000,B 0.000,C 180.000} C_DIS
LIN {X 149.263,Y 149.607,Z 1.000,A -150.000,B 0.000,C 180.000} C_DIS
LIN {X 149.358,Y 149.465,Z 1.000,A -150.000,B 0.000,C 180.000} C_DIS
LIN {X 149.495,Y 149.335,Z 1.000,A -150.000,B 0.000,C 180.000} C_DIS
LIN {X 149.603,Y 149.265,Z 1.000,A -150.000,B 0.000,C 180.000} C_DIS
LIN {X 149.768,Y 149.198,Z 1.000,A -150.000,B 0.000,C 180.000} C_DIS
LIN {X 149.934,Y 149.167,Z 1.000,A -150.000,B 0.000,C 180.000} C_DIS
LIN {X 150.048,Y 149.166,Z 1.000,A -150.000,B 0.000,C 180.000} C_DIS
LIN {X 150.225,Y 149.196,Z 1.000,A -150.000,B 0.000,C 180.000} C_DIS
LIN {X 150.351,Y 149.242,Z 1.000,A -150.000,B 0.000,C 180.000} C_DIS
LIN {X 150.474,Y 149.312,Z 1.000,A -150.000,B 0.000,C 180.000} C_DIS
LIN {X 150.601,Y 149.419,Z 1.000,A -150.000,B 0.000,C 180.000} C_DIS
LIN {X 150.666,Y 149.497,Z 1.000,A -150.000,B 0.000,C 180.000} C_DIS
LIN {X 150.785,Y 149.716,Z 1.000,A -150.000,B 0.000,C 180.000} C_DIS
LIN {X 150.835,Y 149.951,Z 1.000,A -150.000,B 0.000,C 180.000} C_DIS
LIN {X 150.832,Y 150.068,Z 1.000,A -150.000,B 0.000,C 180.000} C_DIS
LIN {X 150.799,Y 150.242,Z 1.000,A -150.000,B 0.000,C 180.000} C_DIS
LIN {X 150.751,Y 150.365,Z 1.000,A -150.000,B 0.000,C 180.000} C_DIS
LIN {X 150.677,Y 150.489,Z 1.000,A -150.000,B 0.000,C 180.000} C_DIS
LIN {X 150.601,Y 150.581,Z 1.000,A -150.000,B 0.000,C 180.000} C_DIS
LIN {X 150.473,Y 150.688,Z 1.000,A -150.000,B 0.000,C 180.000} C_DIS
LIN {X 150.323,Y 150.770,Z 1.000,A -150.000,B 0.000,C 180.000} C_DIS
LIN {X 150.191,Y 150.813,Z 1.000,A -150.000,B 0.000,C 180.000} C_DIS
LIN {X 150.029,Y 150.836,Z 1.000,A -150.000,B 0.000,C 180.000} C_DIS
LIN {X 149.916,Y 150.831,Z 1.000,A -150.000,B 0.000,C 180.000} C_DIS
LIN {X 149.742,Y 150.794,Z 1.000,A -150.000,B 0.000,C 180.000} C_DIS
$VEL.CP=0.03
LIN {X 149.742,Y 150.794,Z 1.000,A -150.000,B 0.000,C 180.000} C_DIS
$VEL.CP=0.02
LIN {X 149.619,Y 150.743,Z 1.000,A -150.000,B 0.000,C 180.000} C_DIS
LIN {X 149.492,Y 150.663,Z 1.000,A -150.000,B 0.000,C 180.000} C_DIS
LIN {X 149.386,Y 150.566,Z 1.000,A -150.000,B 0.000,C 180.000} C_DIS
LIN {X 149.295,Y 150.448,Z 1.000,A -150.000,B 0.000,C 180.000} C_DIS
LIN {X 149.220,Y 150.301,Z 1.000,A -150.000,B 0.000,C 180.000} C_DIS
LIN {X 149.208,Y 150.243,Z 1.000,A -150.000,B 0.000,C 180.000} C_DIS
LIN {X 149.220,Y 150.301,Z 1.000,A -150.000,B 0.000,C 180.000} C_DIS
LIN {X 149.295,Y 150.448,Z 1.000,A -150.000,B 0.000,C 180.000} C_DIS
LIN {X 149.386,Y 150.566,Z 1.000,A -150.000,B 0.000,C 180.000} C_DIS
LIN {X 149.492,Y 150.663,Z 1.000,A -150.000,B 0.000,C 180.000} C_DIS
LIN {X 149.619,Y 150.743,Z 1.000,A -150.000,B 0.000,C 180.000} C_DIS
LIN {X 149.742,Y 150.794,Z 1.000,A -150.000,B 0.000,C 180.000} C_DIS
;rapid-leaky
LIN {X 149.846,Y 150.449,Z 1.000,A -150.000,B 0.000,C 180.000} C_DIS
$VEL.CP=0.03
LIN {X 149.846,Y 150.449,Z 1.000,A -150.000,B 0.000,C 180.000} C_DIS
;bead-perimeter_inner
$VEL.CP=0.02
LIN {X 149.747,Y 150.402,Z 1.000,A -150.000,B 0.000,C 180.000} C_DIS
LIN {X 149.652,Y 150.323,Z 1.000,A -150.000,B 0.000,C 180.000} C_DIS
LIN {X 149.578,Y 150.217,Z 1.000,A -150.000,B 0.000,C 180.000} C_DIS
LIN {X 149.543,Y 150.127,Z 1.000,A -150.000,B 0.000,C 180.000} C_DIS
LIN {X 149.526,Y 150.018,Z 1.000,A -150.000,B 0.000,C 180.000} C_DIS
LIN {X 149.538,Y 149.890,Z 1.000,A -150.000,B 0.000,C 180.000} C_DIS
LIN {X 149.580,Y 149.778,Z 1.000,A -150.000,B 0.000,C 180.000} C_DIS
LIN {X 149.639,Y 149.690,Z 1.000,A -150.000,B 0.000,C 180.000} C_DIS
LIN {X 149.747,Y 149.598,Z 1.000,A -150.000,B 0.000,C 180.000} C_DIS
LIN {X 149.868,Y 149.544,Z 1.000,A -150.000,B 0.000,C 180.000} C_DIS
LIN {X 150.027,Y 149.526,Z 1.000,A -150.000,B 0.000,C 180.000} C_DIS
LIN {X 150.155,Y 149.551,Z 1.000,A -150.000,B 0.000,C 180.000} C_DIS
LIN {X 150.268,Y 149.608,Z 1.000,A -150.000,B 0.000,C 180.000} C_DIS
LIN {X 150.373,Y 149.708,Z 1.000,A -150.000,B 0.000,C 180.000} C_DIS
LIN {X 150.446,Y 149.838,Z 1.000,A -150.000,B 0.000,C 180.000} C_DIS
LIN {X 150.475,Y 149.978,Z 1.000,A -150.000,B 0.000,C 180.000} C_DIS
LIN {X 150.470,Y 150.064,Z 1.000,A -150.000,B 0.000,C 180.000} C_DIS
LIN {X 150.426,Y 150.208,Z 1.000,A -150.000,B 0.000,C 180.000} C_DIS
LIN {X 150.347,Y 150.326,Z 1.000,A -150.000,B 0.000,C 180.000} C_DIS
LIN {X 150.268,Y 150.392,Z 1.000,A -150.000,B 0.000,C 180.000} C_DIS
LIN {X 150.177,Y 150.440,Z 1.000,A -150.000,B 0.000,C 180.000} C_DIS
LIN {X 150.067,Y 150.470,Z 1.000,A -150.000,B 0.000,C 180.000} C_DIS
LIN {X 149.953,Y 150.472,Z 1.000,A -150.000,B 0.000,C 180.000} C_DIS
LIN {X 149.846,Y 150.449,Z 1.000,A -150.000,B 0.000,C 180.000} C_DIS
$VEL.CP=0.03
LIN {X 149.846,Y 150.449,Z 1.000,A -150.000,B 0.000,C 180.000} C_DIS
$VEL.CP=0.02
LIN {X 149.747,Y 150.402,Z 1.000,A -150.000,B 0.000,C 180.000} C_DIS
LIN {X 149.652,Y 150.323,Z 1.000,A -150.000,B 0.000,C 180.000} C_DIS
LIN {X 149.578,Y 150.217,Z 1.000,A -150.000,B 0.000,C 180.000} C_DIS
LIN {X 149.543,Y 150.127,Z 1.000,A -150.000,B 0.000,C 180.000} C_DIS
LIN {X 149.526,Y 150.018,Z 1.000,A -150.000,B 0.000,C 180.000} C_DIS
LIN {X 149.538,Y 149.890,Z 1.000,A -150.000,B 0.000,C 180.000} C_DIS
LIN {X 149.574,Y 149.794,Z 1.000,A -150.000,B 0.000,C 180.000} C_DIS
LIN {X 149.538,Y 149.890,Z 1.000,A -150.000,B 0.000,C 180.000} C_DIS
LIN {X 149.526,Y 150.018,Z 1.000,A -150.000,B 0.000,C 180.000} C_DIS
LIN {X 149.543,Y 150.127,Z 1.000,A -150.000,B 0.000,C 180.000} C_DIS
LIN {X 149.578,Y 150.217,Z 1.000,A -150.000,B 0.000,C 180.000} C_DIS
LIN {X 149.652,Y 150.323,Z 1.000,A -150.000,B 0.000,C 180.000} C_DIS
LIN {X 149.747,Y 150.402,Z 1.000,A -150.000,B 0.000,C 180.000} C_DIS
LIN {X 149.846,Y 150.449,Z 1.000,A -150.000,B 0.000,C 180.000} C_DIS
;rapid-leaky
LIN {X 149.947,Y 150.102,Z 1.000,A -150.000,B 0.000,C 180.000} C_DIS
$VEL.CP=0.03
LIN {X 149.947,Y 150.102,Z 1.000,A -150.000,B 0.000,C 180.000} C_DIS
;bead-perimeter_inner
$VEL.CP=0.02
LIN {X 149.893,Y 150.042,Z 1.000,A -150.000,B 0.000,C 180.000} C_DIS
LIN {X 149.890,Y 149.966,Z 1.000,A -150.000,B 0.000,C 180.000} C_DIS
LIN {X 149.934,Y 149.906,Z 1.000,A -150.000,B 0.000,C 180.000} C_DIS
LIN {X 150.002,Y 149.886,Z 1.000,A -150.000,B 0.000,C 180.000} C_DIS
LIN {X 150.082,Y 149.920,Z 1.000,A -150.000,B 0.000,C 180.000} C_DIS
LIN {X 150.114,Y 149.994,Z 1.000,A -150.000,B 0.000,C 180.000} C_DIS
LIN {X 150.094,Y 150.065,Z 1.000,A -150.000,B 0.000,C 180.000} C_DIS
LIN {X 150.023,Y 150.112,Z 1.000,A -150.000,B 0.000,C 180.000} C_DIS
LIN {X 149.947,Y 150.102,Z 1.000,A -150.000,B 0.000,C 180.000} C_DIS
$VEL.CP=0.03
LIN {X 149.947,Y 150.102,Z 1.000,A -150.000,B 0.000,C 180.000} C_DIS
$VEL.CP=0.02
LIN {X 149.893,Y 150.042,Z 1.000,A -150.000,B 0.000,C 180.000} C_DIS
LIN {X 149.890,Y 149.966,Z 1.000,A -150.000,B 0.000,C 180.000} C_DIS
LIN {X 149.934,Y 149.906,Z 1.000,A -150.000,B 0.000,C 180.000} C_DIS
LIN {X 150.002,Y 149.886,Z 1.000,A -150.000,B 0.000,C 180.000} C_DIS
LIN {X 150.082,Y 149.920,Z 1.000,A -150.000,B 0.000,C 180.000} C_DIS
LIN {X 150.114,Y 149.994,Z 1.000,A -150.000,B 0.000,C 180.000} C_DIS
LIN {X 150.094,Y 150.065,Z 1.000,A -150.000,B 0.000,C 180.000} C_DIS
LIN {X 150.023,Y 150.112,Z 1.000,A -150.000,B 0.000,C 180.000} C_DIS
LIN {X 149.947,Y 150.102,Z 1.000,A -150.000,B 0.000,C 180.000} C_DIS
LIN {X 150.023,Y 150.112,Z 1.000,A -150.000,B 0.000,C 180.000} C_DIS
LIN {X 150.094,Y 150.065,Z 1.000,A -150.000,B 0.000,C 180.000} C_DIS
LIN {X 150.114,Y 149.994,Z 1.000,A -150.000,B 0.000,C 180.000} C_DIS
LIN {X 150.082,Y 149.920,Z 1.000,A -150.000,B 0.000,C 180.000} C_DIS
LIN {X 150.002,Y 149.886,Z 1.000,A -150.000,B 0.000,C 180.000} C_DIS
LIN {X 149.934,Y 149.906,Z 1.000,A -150.000,B 0.000,C 180.000} C_DIS
LIN {X 149.890,Y 149.966,Z 1.000,A -150.000,B 0.000,C 180.000} C_DIS
LIN {X 149.893,Y 150.042,Z 1.000,A -150.000,B 0.000,C 180.000} C_DIS
LIN {X 149.947,Y 150.102,Z 1.000,A -150.000,B 0.000,C 180.000} C_DIS
;rapid-dry
LIN {X 154.798,Y 149.914,Z 2.000,A -150.000,B 0.000,C 180.000} C_DIS
$VEL.CP=0.03
LIN {X 154.798,Y 149.914,Z 2.000,A -150.000,B 0.000,C 180.000} C_DIS
;bead-perimeter_outer
$VEL.CP=0.02
LIN {X 154.786,Y 150.340,Z 2.000,A -150.000,B 0.000,C 180.000} C_DIS
LIN {X 154.738,Y 150.761,Z 2.000,A -150.000,B 0.000,C 180.000} C_DIS
LIN {X 154.609,Y 151.338,Z 2.000,A -150.000,B 0.000,C 180.000} C_DIS
LIN {X 154.471,Y 151.742,Z 2.000,A -150.000,B 0.000,C 180.000} C_DIS
LIN {X 154.299,Y 152.133,Z 2.000,A -150.000,B 0.000,C 180.000} C_DIS
LIN {X 154.096,Y 152.500,Z 2.000,A -150.000,B 0.000,C 180.000} C_DIS
LIN {X 153.857,Y 152.854,Z 2.000,A -150.000,B 0.000,C 180.000} C_DIS
LIN {X 153.589,Y 153.186,Z 2.000,A -150.000,B 0.000,C 180.000} C_DIS
LIN {X 153.417,Y 153.369,Z 2.000,A -150.000,B 0.000,C 180.000} C_DIS
LIN {X 153.104,Y 153.659,Z 2.000,A -150.000,B 0.000,C 180.000} C_DIS
LIN {X 152.769,Y 153.919,Z 2.000,A -150.000,B 0.000,C 180.000} C_DIS
LIN {X 152.266,Y 154.230,Z 2.000,A -150.000,B 0.000,C 180.000} C_DIS
LIN {X 151.881,Y 154.415,Z 2.000,A -150.000,B 0.000,C 180.000} C_DIS
LIN {X 151.481,Y 154.564,Z 2.000,A -150.000,B 0.000,C 180.000} C_DIS
LIN {X 151.077,Y 154.676,Z 2.000,A -150.000,B 0.000,C 180.000} C_DIS
LIN {X 150.657,Y 154.754,Z 2.000,A -150.000,B 0.000,C 180.000} C_DIS
LIN {X 150.232,Y 154.793,Z 2.000,A -150.000,B 0.000,C 180.000} C_DIS
LIN {X 149.980,Y 154.799,Z 2.000,A -150.000,B 0.000,C 180.000} C_DIS
LIN {X 149.555,Y 154.778,Z 2.000,A -150.000,B 0.000,C 180.000} C_DIS
LIN {X 149.134,Y 154.720,Z 2.000,A -150.000,B 0.000,C 180.000} C_DIS
LIN {X 148.720,Y 154.625,Z 2.000,A -150.000,B 0.000,C 180.000} C_DIS
LIN {X 148.316,Y 154.494,Z 2.000,A -150.000,B 0.000,C 180.000} C_DIS
LIN {X 147.927,Y 154.327,Z 2.000,A -150.000,B 0.000,C 180.000} C_DIS
LIN {X 147.551,Y 154.127,Z 2.000,A -150.000,B 0.000,C 180.000} C_DIS
LIN {X 147.197,Y 153.895,Z 2.000,A -150.000,B 0.000,C 180.000} C_DIS
LIN {X 146.739,Y 153.521,Z 2.000,A -150.000,B 0.000,C 180.000} C_DIS
LIN {X 146.439,Y 153.216,Z 2.000,A -150.000,B 0.000,C 180.000} C_DIS
LIN {X 146.168,Y 152.889,Z 2.000,A -150.000,B 0.000,C 180.000} C_DIS
LIN {X 145.927,Y 152.538,Z 2.000,A -150.000,B 0.000,C 180.000} C_DIS
LIN {X 145.800,Y 152.321,Z 2.000,A -150.000,B 0.000,C 180.000} C_DIS
LIN {X 145.610,Y 151.938,Z 2.000,A -150.000,B 0.000,C 180.000} C_DIS
LIN {X 145.457,Y 151.543,Z 2.000,A -150.000,B 0.000,C 180.000} C_DIS
LIN {X 145.300,Y 150.973,Z 2.000,A -150.000,B 0.000,C 180.000} C_DIS
LIN {X 145.233,Y 150.551,Z 2.000,A -150.000,B 0.000,C 180.000} C_DIS
LIN {X 145.203,Y 150.128,Z 2.000,A -150.000,B 0.000,C 180.000} C_DIS
LIN {X 145.211,Y 149.701,Z 2.000,A -150.000,B 0.000,C 180.000} C_DIS
LIN {X 145.233,Y 149.448,Z 2.000,A -150.000,B 0.000,C 180.000} C_DIS
LIN {X 145.300,Y 149.028,Z 2.000,A -150.000,B 0.000,C 180.000} C_DIS
LIN {X 145.404,Y 148.619,Z 2.000,A -150.000,B 0.000,C 180.000} C_DIS
LIN {X 145.546,Y 148.215,Z 2.000,A -150.000,B 0.000,C 180.000} C_DIS
LIN {X 145.720,Y 147.832,Z 2.000,A -150.000,B 0.000,C 180.000} C_DIS
LIN {X 145.928,Y 147.461,Z 2.000,A -150.000,B 0.000,C 180.000} C_DIS
LIN {X 146.168,Y 147.111,Z 2.000,A -150.000,B 0.000,C 180.000} C_DIS
LIN {X 146.439,Y 146.784,Z 2.000,A -150.000,B 0.000,C 180.000} C_DIS
LIN {X 146.737,Y 146.481,Z 2.000,A -150.000,B 0.000,C 180.000} C_DIS
LIN {X 147.061,Y 146.207,Z 2.000,A -150.000,B 0.000,C 180.000} C_DIS
LIN {X 147.410,Y 145.960,Z 2.000,A -150.000,B 0.000,C 180.000} C_DIS
LIN {X 147.773,Y 145.749,Z 2.000,A -150.000,B 0.000,C 180.000} C_DIS
LIN {X 148.159,Y 145.568,Z 2.000,A -150.000,B 0.000,C 180.000} C_DIS
LIN {X 148.561,Y 145.422,Z 2.000,A -150.000,B 0.000,C 180.000} C_DIS
LIN {X 149.134,Y 145.280,Z 2.000,A -150.000,B 0.000,C 180.000} C_DIS
LIN {X 149.556,Y 145.222,Z 2.000,A -150.000,B 0.000,C 180.000} C_DIS
LIN {X 149.807,Y 145.205,Z 2.000,A -150.000,B 0.000,C 180.000} C_DIS
LIN {X 150.234,Y 145.207,Z 2.000,A -150.000,B 0.000,C 180.000} C_DIS
LIN {X 150.657,Y 145.246,Z 2.000,A -150.000,B 0.000,C 180.000} C_DIS
LIN {X 151.077,Y 145.324,Z 2.000,A -150.000,B 0.000,C 180.000} C_DIS
LIN {X 151.642,Y 145.491,Z 2.000,A -150.000,B 0.000,C 180.000} C_DIS
LIN {X 152.035,Y 145.654,Z 2.000,A -150.000,B 0.000,C 180.000} C_DIS
LIN {X 152.411,Y 145.851,Z 2.000,A -150.000,B 0.000,C 180.000} C_DIS
LIN {X 152.768,Y 146.081,Z 2.000,A -150.000,B 0.000,C 180.000} C_DIS
LIN {X 153.104,Y 146.341,Z 2.000,A -150.000,B 0.000,C 180.000} C_DIS
LIN {X 153.417,Y 146.631,Z 2.000,A -150.000,B 0.000,C 180.000} C_DIS
LIN {X 153.589,Y 146.814,Z 2.000,A -150.000,B 0.000,C 180.000} C_DIS
LIN {X 153.857,Y 147.146,Z 2.000,A -150.000,B 0.000,C 180.000} C_DIS
LIN {X 154.180,Y 147.643,Z 2.000,A -150.000,B 0.000,C 180.000} C_DIS
LIN {X 154.299,Y 147.867,Z 2.000,A -150.000,B 0.000,C 180.000} C_DIS
LIN {X 154.529,Y 148.413,Z 2.000,A -150.000,B 0.000,C 180.000} C_DIS
LIN {X 154.652,Y 148.823,Z 2.000,A -150.000,B 0.000,C 180.000} C_DIS
LIN {X 154.738,Y 149.239,Z 2.000,A -150.000,B 0.000,C 180.000} C_DIS
LIN {X 154.787,Y 149.662,Z 2.000,A -150.000,B 0.000,C 180.000} C_DIS
LIN {X 154.798,Y 149.914,Z 2.000,A -150.000,B 0.000,C 180.000} C_DIS
$VEL.CP=0.03
LIN {X 154.798,Y 149.914,Z 2.000,A -150.000,B 0.000,C 180.000} C_DIS
$VEL.CP=0.02
LIN {X 154.786,Y 150.340,Z 2.000,A -150.000,B 0.000,C 180.000} C_DIS
LIN {X 154.744,Y 150.711,Z 2.000,A -150.000,B 0.000,C 180.000} C_DIS
LIN {X 154.786,Y 150.340,Z 2.000,A -150.000,B 0.000,C 180.000} C_DIS
LIN {X 154.798,Y 149.914,Z 2.000,A -150.000,B 0.000,C 180.000} C_DIS
;rapid-leaky
LIN {X 154.438,Y 149.917,Z 2.000,A -150.000,B 0.000,C 180.000} C_DIS
$VEL.CP=0.03
LIN {X 154.438,Y 149.917,Z 2.000,A -150.000,B 0.000,C 180.000} C_DIS
;bead-perimeter_inner
$VEL.CP=0.02
LIN {X 154.427,Y 150.315,Z 2.000,A -150.000,B 0.000,C 180.000} C_DIS
LIN {X 154.382,Y 150.704,Z 2.000,A -150.000,B 0.000,C 180.000} C_DIS
LIN {X 154.264,Y 151.233,Z 2.000,A -150.000,B 0.000,C 180.000} C_DIS
LIN {X 154.136,Y 151.612,Z 2.000,A -150.000,B 0.000,C 180.000} C_DIS
LIN {X 153.975,Y 151.976,Z 2.000,A -150.000,B 0.000,C 180.000} C_DIS
LIN {X 153.866,Y 152.182,Z 2.000,A -150.000,B 0.000,C 180.000} C_DIS
LIN {X 153.567,Y 152.640,Z 2.000,A -150.000,B 0.000,C 180.000} C_DIS
LIN {X 153.317,Y 152.949,Z 2.000,A -150.000,B 0.000,C 180.000} C_DIS
LIN {X 153.163,Y 153.114,Z 2.000,A -150.000,B 0.000,C 180.000} C_DIS
LIN {X 152.871,Y 153.385,Z 2.000,A -150.000,B 0.000,C 180.000} C_DIS
LIN {X 152.561,Y 153.625,Z 2.000,A -150.000,B 0.000,C 180.000} C_DIS
LIN {X 152.224,Y 153.842,Z 2.000,A -150.000,B 0.000,C 180.000} C_DIS
LIN {X 151.739,Y 154.083,Z 2.000,A -150.000,B 0.000,C 180.000} C_DIS
LIN {X 151.367,Y 154.223,Z 2.000,A -150.000,B 0.000,C 180.000} C_DIS
LIN {X 151.001,Y 154.324,Z 2.000,A -150.000,B 0.000,C 180.000} C_DIS
LIN {X 150.607,Y 154.397,Z 2.000,A -150.000,B 0.000,C 180.000} C_DIS
LIN {X 150.212,Y 154.434,Z 2.000,A -150.000,B 0.000,C 180.000} C_DIS
LIN {X 149.985,Y 154.439,Z 2.000,A -150.000,B 0.000,C 180.000} C_DIS
LIN {X 149.588,Y 154.419,Z 2.000,A -150.000,B 0.000,C 180.000} C_DIS
LIN {X 149.199,Y 154.366,Z 2.000,A -150.000,B 0.000,C 180.000} C_DIS
LIN {X 148.817,Y 154.278,Z 2.000,A -150.000,B 0.000,C 180.000} C_DIS
LIN {X 148.443,Y 154.156,Z 2.000,A -150.000,B 0.000,C 180.000} C_DIS
LIN {X 148.082,Y 154.003,Z 2.000,A -150.000,B 0.000,C 180.000} C_DIS
LIN {X 147.735,Y 153.817,Z 2.000,A -150.000,B 0.000,C 180.000} C_DIS
LIN {X 147.407,Y 153.602,Z 2.000,A -150.000,B 0.000,C 180.000} C_DIS
LIN {X 146.987,Y 153.260,Z 2.000,A -150.000,B 0.000,C 180.000} C_DIS
LIN {X 146.706,Y 152.974,Z 2.000,A -150.000,B 0.000,C 180.000} C_DIS
LIN {X 146.455,Y 152.672,Z 2.000,A -150.000,B 0.000,C 180.000} C_DIS
LIN {X 146.231,Y 152.345,Z 2.000,A -150.000,B 0.000,C 180.000} C_DIS
LIN {X 145.940,Y 151.793,Z 2.000,A -150.000,B 0.000,C 180.000} C_DIS
LIN {X 145.798,Y 151.427,Z 2.000,A -150.000,B 0.000,C 180.000} C_DIS
LIN {X 145.654,Y 150.905,Z 2.000,A -150.000,B 0.000,C 180.000} C_DIS
LIN {X 145.591,Y 150.510,Z 2.000,A -150.000,B 0.000,C 180.000} C_DIS
LIN {X 145.563,Y 150.118,Z 2.000,A -150.000,B 0.000,C 180.000} C_DIS
LIN {X 145.571,Y 149.720,Z 2.000,A -150.000,B 0.000,C 180.000} C_DIS
LIN {X 145.591,Y 149.488,Z 2.000,A -150.000,B 0.000,C 180.000} C_DIS
LIN {X 145.686,Y 148.953,Z 2.000,A -150.000,B 0.000,C 180.000} C_DIS
LIN {X 145.748,Y 148.726,Z 2.000,A -150.000,B 0.000,C 180.000} C_DIS
LIN {X 145.882,Y 148.344,Z 2.000,A -150.000,B 0.000,C 180.000} C_DIS
LIN {X 146.039,Y 147.998,Z 2.000,A -150.000,B 0.000,C 180.000} C_DIS
LIN {X 146.234,Y 147.651,Z 2.000,A -150.000,B 0.000,C 180.000} C_DIS
LIN {X 146.455,Y 147.328,Z 2.000,A -150.000,B 0.000,C 180.000} C_DIS
LIN {X 146.706,Y 147.026,Z 2.000,A -150.000,B 0.000,C 180.000} C_DIS
LIN {X 146.982,Y 146.745,Z 2.000,A -150.000,B 0.000,C 180.000} C_DIS
LIN {X 147.281,Y 146.492,Z 2.000,A -150.000,B 0.000,C 180.000} C_DIS
LIN {X 147.609,Y 146.260,Z 2.000,A -150.000,B 0.000,C 180.000} C_DIS
LIN {X 147.937,Y 146.070,Z 2.000,A -150.000,B 0.000,C 180.000} C_DIS
LIN {X 148.297,Y 145.901,Z 2.000,A -150.000,B 0.000,C 180.000} C_DIS
LIN {X 148.809,Y 145.724,Z 2.000,A -150.000,B 0.000,C 180.000} C_DIS
LIN {X 149.199,Y 145.634,Z 2.000,A -150.000,B 0.000,C 180.000} C_DIS
LIN {X 149.593,Y 145.580,Z 2.000,A -150.000,B 0.000,C 180.000} C_DIS
LIN {X 149.819,Y 145.565,Z 2.000,A -150.000,B 0.000,C 180.000} C_DIS
LIN {X 150.217,Y 145.567,Z 2.000,A -150.000,B 0.000,C 180.000} C_DIS
LIN {X 150.607,Y 145.603,Z 2.000,A -150.000,B 0.000,C 180.000} C_DIS
LIN {X 151.139,Y 145.709,Z 2.000,A -150.000,B 0.000,C 180.000} C_DIS
LIN {X 151.519,Y 145.830,Z 2.000,A -150.000,B 0.000,C 180.000} C_DIS
LIN {X 151.882,Y 145.981,Z 2.000,A -150.000,B 0.000,C 180.000} C_DIS
LIN {X 152.230,Y 146.163,Z 2.000,A -150.000,B 0.000,C 180.000} C_DIS
LIN {X 152.561,Y 146.375,Z 2.000,A -150.000,B 0.000,C 180.000} C_DIS
LIN {X 152.871,Y 146.615,Z 2.000,A -150.000,B 0.000,C 180.000} C_DIS
LIN {X 153.317,Y 147.051,Z 2.000,A -150.000,B 0.000,C 180.000} C_DIS
LIN {X 153.567,Y 147.360,Z 2.000,A -150.000,B 0.000,C 180.000} C_DIS
LIN {X 153.866,Y 147.818,Z 2.000,A -150.000,B 0.000,C 180.000} C_DIS
LIN {X 153.975,Y 148.024,Z 2.000,A -150.000,B 0.000,C 180.000} C_DIS
LIN {X 154.188,Y 148.528,Z 2.000,A -150.000,B 0.000,C 180.000} C_DIS
LIN {X 154.303,Y 148.912,Z 2.000,A -150.000,B 0.000,C 180.000} C_DIS
LIN {X 154.382,Y 149.296,Z 2.000,A -150.000,B 0.000,C 180.000} C_DIS
LIN {X 154.438,Y 149.917,Z 2.000,A -150.000,B 0.000,C 180.000} C_DIS
$VEL.CP=0.03
LIN {X 154.438,Y 149.917,Z 2.000,A -150.000,B 0.000,C 180.000} C_DIS
$VEL.CP=0.02
LIN {X 154.427,Y 150.315,Z 2.000,A -150.000,B 0.000,C 180.000} C_DIS
LIN {X 154.382,Y 150.704,Z 2.000,A -150.000,B 0.000,C 180.000} C_DIS
LIN {X 154.380,Y 150.714,Z 2.000,A -150.000,B 0.000,C 180.000} C_DIS
LIN {X 154.382,Y 150.704,Z 2.000,A -150.000,B 0.000,C 180.000} C_DIS
LIN {X 154.427,Y 150.315,Z 2.000,A -150.000,B 0.000,C 180.000} C_DIS
LIN {X 154.438,Y 149.917,Z 2.000,A -150.000,B 0.000,C 180.000} C_DIS
;rapid-leaky
LIN {X 154.068,Y 149.719,Z 2.000,A -150.000,B 0.000,C 180.000} C_DIS
$VEL.CP=0.03
LIN {X 154.068,Y 149.719,Z 2.000,A -150.000,B 0.000,C 180.000} C_DIS
;bead-perimeter_inner
$VEL.CP=0.02
LIN {X 154.067,Y 150.289,Z 2.000,A -150.000,B 0.000,C 180.000} C_DIS
LIN {X 154.027,Y 150.647,Z 2.000,A -150.000,B 0.000,C 180.000} C_DIS
LIN {X 153.919,Y 151.128,Z 2.000,A -150.000,B 0.000,C 180.000} C_DIS
LIN {X 153.800,Y 151.481,Z 2.000,A -150.000,B 0.000,C 180.000} C_DIS
LIN {X 153.650,Y 151.819,Z 2.000,A -150.000,B 0.000,C 180.000} C_DIS
LIN {X 153.487,Y 152.115,Z 2.000,A -150.000,B 0.000,C 180.000} C_DIS
LIN {X 153.278,Y 152.426,Z 2.000,A -150.000,B 0.000,C 180.000} C_DIS
LIN {X 153.046,Y 152.712,Z 2.000,A -150.000,B 0.000,C 180.000} C_DIS
LIN {X 152.638,Y 153.110,Z 2.000,A -150.000,B 0.000,C 180.000} C_DIS
LIN {X 152.353,Y 153.331,Z 2.000,A -150.000,B 0.000,C 180.000} C_DIS
LIN {X 151.935,Y 153.591,Z 2.000,A -150.000,B 0.000,C 180.000} C_DIS
LIN {X 151.598,Y 153.752,Z 2.000,A -150.000,B 0.000,C 180.000} C_DIS
LIN {X 151.252,Y 153.881,Z 2.000,A -150.000,B 0.000,C 180.000} C_DIS
LIN {X 150.926,Y 153.972,Z 2.000,A -150.000,B 0.000,C 180.000} C_DIS
LIN {X 150.558,Y 154.040,Z 2.000,A -150.000,B 0.000,C 180.000} C_DIS
LIN {X 150.191,Y 154.074,Z 2.000,A -150.000,B 0.000,C 180.000} C_DIS
LIN {X 149.622,Y 154.060,Z 2.000,A -150.000,B 0.000,C 180.000} C_DIS
LIN {X 149.264,Y 154.011,Z 2.000,A -150.000,B 0.000,C 180.000} C_DIS
LIN {X 148.913,Y 153.931,Z 2.000,A -150.000,B 0.000,C 180.000} C_DIS
LIN {X 148.569,Y 153.819,Z 2.000,A -150.000,B 0.000,C 180.000} C_DIS
LIN {X 148.238,Y 153.678,Z 2.000,A -150.000,B 0.000,C 180.000} C_DIS
LIN {X 147.919,Y 153.507,Z 2.000,A -150.000,B 0.000,C 180.000} C_DIS
LIN {X 147.618,Y 153.310,Z 2.000,A -150.000,B 0.000,C 180.000} C_DIS
LIN {X 147.324,Y 153.078,Z 2.000,A -150.000,B 0.000,C 180.000} C_DIS
LIN {X 146.973,Y 152.733,Z 2.000,A -150.000,B 0.000,C 180.000} C_DIS
LIN {X 146.743,Y 152.455,Z 2.000,A -150.000,B 0.000,C 180.000} C_DIS
LIN {X 146.536,Y 152.152,Z 2.000,A -150.000,B 0.000,C 180.000} C_DIS
LIN {X 146.270,Y 151.647,Z 2.000,A -150.000,B 0.000,C 180.000} C_DIS
LIN {X 146.139,Y 151.311,Z 2.000,A -150.000,B 0.000,C 180.000} C_DIS
LIN {X 146.008,Y 150.836,Z 2.000,A -150.000,B 0.000,C 180.000} C_DIS
LIN {X 145.949,Y 150.469,Z 2.000,A -150.000,B 0.000,C 180.000} C_DIS
LIN {X 145.924,Y 150.109,Z 2.000,A -150.000,B 0.000,C 180.000} C_DIS
LIN {X 145.930,Y 149.739,Z 2.000,A -150.000,B 0.000,C 180.000} C_DIS
LIN {X 145.967,Y 149.393,Z 2.000,A -150.000,B 0.000,C 180.000} C_DIS
LIN {X 146.006,Y 149.170,Z 2.000,A -150.000,B 0.000,C 180.000} C_DIS
LIN {X 146.092,Y 148.833,Z 2.000,A -150.000,B 0.000,C 180.000} C_DIS
LIN {X 146.267,Y 148.357,Z 2.000,A -150.000,B 0.000,C 180.000} C_DIS
LIN {X 146.540,Y 147.841,Z 2.000,A -150.000,B 0.000,C 180.000} C_DIS
LIN {X 146.743,Y 147.545,Z 2.000,A -150.000,B 0.000,C 180.000} C_DIS
LIN {X 146.973,Y 147.267,Z 2.000,A -150.000,B 0.000,C 180.000} C_DIS
LIN {X 147.227,Y 147.009,Z 2.000,A -150.000,B 0.000,C 180.000} C_DIS
LIN {X 147.502,Y 146.777,Z 2.000,A -150.000,B 0.000,C 180.000} C_DIS
LIN {X 147.914,Y 146.494,Z 2.000,A -150.000,B 0.000,C 180.000} C_DIS
LIN {X 148.435,Y 146.233,Z 2.000,A -150.000,B 0.000,C 180.000} C_DIS
LIN {X 148.901,Y 146.072,Z 2.000,A -150.000,B 0.000,C 180.000} C_DIS
LIN {X 149.264,Y 145.989,Z 2.000,A -150.000,B 0.000,C 180.000} C_DIS
LIN {X 149.630,Y 145.939,Z 2.000,A -150.000,B 0.000,C 180.000} C_DIS
LIN {X 150.199,Y 145.927,Z 2.000,A -150.000,B 0.000,C 180.000} C_DIS
LIN {X 150.558,Y 145.960,Z 2.000,A -150.000,B 0.000,C 180.000} C_DIS
LIN {X 151.041,Y 146.056,Z 2.000,A -150.000,B 0.000,C 180.000} C_DIS
LIN {X 151.395,Y 146.168,Z 2.000,A -150.000,B 0.000,C 180.000} C_DIS
LIN {X 151.730,Y 146.307,Z 2.000,A -150.000,B 0.000,C 180.000} C_DIS
LIN {X 152.049,Y 146.474,Z 2.000,A -150.000,B 0.000,C 180.000} C_DIS
LIN {X 152.353,Y 146.669,Z 2.000,A -150.000,B 0.000,C 180.000} C_DIS
LIN {X 152.638,Y 146.890,Z 2.000,A -150.000,B 0.000,C 180.000} C_DIS
LIN {X 153.046,Y 147.288,Z 2.000,A -150.000,B 0.000,C 180.000} C_DIS
LIN {X 153.278,Y 147.574,Z 2.000,A -150.000,B 0.000,C 180.000} C_DIS
LIN {X 153.552,Y 147.994,Z 2.000,A -150.000,B 0.000,C 180.000} C_DIS
LIN {X 153.650,Y 148.181,Z 2.000,A -150.000,B 0.000,C 180.000} C_DIS
LIN {X 153.846,Y 148.642,Z 2.000,A -150.000,B 0.000,C 180.000} C_DIS
LIN {X 153.953,Y 149.000,Z 2.000,A -150.000,B 0.000,C 180.000} C_DIS
LIN {X 154.027,Y 149.353,Z 2.000,A -150.000,B 0.000,C 180.000} C_DIS
LIN {X 154.068,Y 149.719,Z 2.000,A -150.000,B 0.000,C 180.000} C_DIS
$VEL.CP=0.03
LIN {X 154.068,Y 149.719,Z 2.000,A -150.000,B 0.000,C 180.000} C_DIS
$VEL.CP=0.02
LIN {X 154.067,Y 150.289,Z 2.000,A -150.000,B 0.000,C 180.000} C_DIS
LIN {X 154.041,Y 150.517,Z 2.000,A -150.000,B 0.000,C 180.000} C_DIS
LIN {X 154.067,Y 150.289,Z 2.000,A -150.000,B 0.000,C 180.000} C_DIS
LIN {X 154.068,Y 149.719,Z 2.000,A -150.000,B 0.000,C 180.000} C_DIS
;rapid-leaky
LIN {X 153.709,Y 149.747,Z 2.000,A -150.000,B 0.000,C 180.000} C_DIS
$VEL.CP=0.03
LIN {X 153.709,Y 149.747,Z 2.000,A -150.000,B 0.000,C 180.000} C_DIS
;bead-perimeter_inner
$VEL.CP=0.02
LIN {X 153.708,Y 150.264,Z 2.000,A -150.000,B 0.000,C 180.000} C_DIS
LIN {X 153.671,Y 150.590,Z 2.000,A -150.000,B 0.000,C 180.000} C_DIS
LIN {X 153.575,Y 151.023,Z 2.000,A -150.000,B 0.000,C 180.000} C_DIS
LIN {X 153.464,Y 151.350,Z 2.000,A -150.000,B 0.000,C 180.000} C_DIS
LIN {X 153.326,Y 151.662,Z 2.000,A -150.000,B 0.000,C 180.000} C_DIS
LIN {X 153.183,Y 151.922,Z 2.000,A -150.000,B 0.000,C 180.000} C_DIS
LIN {X 152.988,Y 152.211,Z 2.000,A -150.000,B 0.000,C 180.000} C_DIS
LIN {X 152.774,Y 152.476,Z 2.000,A -150.000,B 0.000,C 180.000} C_DIS
LIN {X 152.405,Y 152.835,Z 2.000,A -150.000,B 0.000,C 180.000} C_DIS
LIN {X 152.145,Y 153.036,Z 2.000,A -150.000,B 0.000,C 180.000} C_DIS
LIN {X 151.769,Y 153.271,Z 2.000,A -150.000,B 0.000,C 180.000} C_DIS
LIN {X 151.457,Y 153.420,Z 2.000,A -150.000,B 0.000,C 180.000} C_DIS
LIN {X 151.137,Y 153.540,Z 2.000,A -150.000,B 0.000,C 180.000} C_DIS
LIN {X 150.850,Y 153.620,Z 2.000,A -150.000,B 0.000,C 180.000} C_DIS
LIN {X 150.509,Y 153.683,Z 2.000,A -150.000,B 0.000,C 180.000} C_DIS
LIN {X 150.170,Y 153.714,Z 2.000,A -150.000,B 0.000,C 180.000} C_DIS
LIN {X 149.655,Y 153.701,Z 2.000,A -150.000,B 0.000,C 180.000} C_DIS
LIN {X 149.329,Y 153.657,Z 2.000,A -150.000,B 0.000,C 180.000} C_DIS
LIN {X 149.009,Y 153.583,Z 2.000,A -150.000,B 0.000,C 180.000} C_DIS
LIN {X 148.696,Y 153.481,Z 2.000,A -150.000,B 0.000,C 180.000} C_DIS
LIN {X 148.394,Y 153.353,Z 2.000,A -150.000,B 0.000,C 180.000} C_DIS
LIN {X 148.103,Y 153.197,Z 2.000,A -150.000,B 0.000,C 180.000} C_DIS
LIN {X 147.828,Y 153.017,Z 2.000,A -150.000,B 0.000,C 180.000} C_DIS
LIN {X 147.555,Y 152.802,Z 2.000,A -150.000,B 0.000,C 180.000} C_DIS
LIN {X 147.240,Y 152.491,Z 2.000,A -150.000,B 0.000,C 180.000} C_DIS
LIN {X 147.031,Y 152.238,Z 2.000,A -150.000,B 0.000,C 180.000} C_DIS
LIN {X 146.840,Y 151.959,Z 2.000,A -150.000,B 0.000,C 180.000} C_DIS
LIN {X 146.599,Y 151.502,Z 2.000,A -150.000,B 0.000,C 180.000} C_DIS
LIN {X 146.480,Y 151.195,Z 2.000,A -150.000,B 0.000,C 180.000} C_DIS
LIN {X 146.361,Y 150.768,Z 2.000,A -150.000,B 0.000,C 180.000} C_DIS
LIN {X 146.307,Y 150.428,Z 2.000,A -150.000,B 0.000,C 180.000} C_DIS
LIN {X 146.284,Y 150.100,Z 2.000,A -150.000,B 0.000,C 180.000} C_DIS
LIN {X 146.290,Y 149.758,Z 2.000,A -150.000,B 0.000,C 180.000} C_DIS
LIN {X 146.323,Y 149.449,Z 2.000,A -150.000,B 0.000,C 180.000} C_DIS
LIN {X 146.436,Y 148.940,Z 2.000,A -150.000,B 0.000,C 180.000} C_DIS
LIN {X 146.554,Y 148.603,Z 2.000,A -150.000,B 0.000,C 180.000} C_DIS
LIN {X 146.679,Y 148.329,Z 2.000,A -150.000,B 0.000,C 180.000} C_DIS
LIN {X 146.846,Y 148.031,Z 2.000,A -150.000,B 0.000,C 180.000} C_DIS
LIN {X 147.031,Y 147.762,Z 2.000,A -150.000,B 0.000,C 180.000} C_DIS
LIN {X 147.240,Y 147.509,Z 2.000,A -150.000,B 0.000,C 180.000} C_DIS
LIN {X 147.472,Y 147.274,Z 2.000,A -150.000,B 0.000,C 180.000} C_DIS
LIN {X 147.723,Y 147.062,Z 2.000,A -150.000,B 0.000,C 180.000} C_DIS
LIN {X 148.097,Y 146.805,Z 2.000,A -150.000,B 0.000,C 180.000} C_DIS
LIN {X 148.574,Y 146.566,Z 2.000,A -150.000,B 0.000,C 180.000} C_DIS
LIN {X 148.992,Y 146.421,Z 2.000,A -150.000,B 0.000,C 180.000} C_DIS
LIN {X 149.329,Y 146.343,Z 2.000,A -150.000,B 0.000,C 180.000} C_DIS
LIN {X 149.666,Y 146.297,Z 2.000,A -150.000,B 0.000,C 180.000} C_DIS
LIN {X 150.182,Y 146.287,Z 2.000,A -150.000,B 0.000,C 180.000} C_DIS
LIN {X 150.508,Y 146.317,Z 2.000,A -150.000,B 0.000,C 180.000} C_DIS
LIN {X 150.944,Y 146.403,Z 2.000,A -150.000,B 0.000,C 180.000} C_DIS
LIN {X 151.272,Y 146.507,Z 2.000,A -150.000,B 0.000,C 180.000} C_DIS
LIN {X 151.577,Y 146.633,Z 2.000,A -150.000,B 0.000,C 180.000} C_DIS
LIN {X 151.868,Y 146.786,Z 2.000,A -150.000,B 0.000,C 180.000} C_DIS
LIN {X 152.145,Y 146.964,Z 2.000,A -150.000,B 0.000,C 180.000} C_DIS
LIN {X 152.405,Y 147.165,Z 2.000,A -150.000,B 0.000,C 180.000} C_DIS
LIN {X 152.774,Y 147.524,Z 2.000,A -150.000,B 0.000,C 180.000} C_DIS
LIN {X 152.988,Y 147.789,Z 2.000,A -150.000,B 0.000,C 180.000} C_DIS
LIN {X 153.238,Y 148.170,Z 2.000,A -150.000,B 0.000,C 180.000} C_DIS
LIN {X 153.326,Y 148.338,Z 2.000,A -150.000,B 0.000,C 180.000} C_DIS
LIN {X 153.504,Y 148.756,Z 2.000,A -150.000,B 0.000,C 180.000} C_DIS
LIN {X 153.604,Y 149.088,Z 2.000,A -150.000,B 0.000,C 180.000} C_DIS
LIN {X 153.671,Y 149.410,Z 2.000,A -150.000,B 0.000,C 180.000} C_DIS
LIN {X 153.709,Y 149.747,Z 2.000,A -150.000,B 0.000,C 180.000} C_DIS
$VEL.CP=0.03
LIN {X 153.709,Y 149.747,Z 2.000,A -150.000,B 0.000,C 180.000} C_DIS
$VEL.CP=0.02
LIN {X 153.708,Y 150.264,Z 2.000,A -150.000,B 0.000,C 180.000} C_DIS
LIN {X 153.676,Y 150.546,Z 2.000,A -150.000,B 0.000,C 180.000} C_DIS
LIN {X 153.708,Y 150.264,Z 2.000,A -150.000,B 0.000,C 180.000} C_DIS
LIN {X 153.709,Y 149.747,Z 2.000,A -150.000,B 0.000,C 180.000} C_DIS
;rapid-leaky
LIN {X 153.357,Y 149.927,Z 2.000,A -150.000,B 0.000,C 180.000} C_DIS
$VEL.CP=0.03
LIN {X 153.357,Y 149.927,Z 2.000,A -150.000,B 0.000,C 180.000} C_DIS
;bead-perimeter_inner
$VEL.CP=0.02
LIN {X 153.349,Y 150.239,Z 2.000,A -150.000,B 0.000,C 180.000} C_DIS
LIN {X 153.315,Y 150.533,Z 2.000,A -150.000,B 0.000,C 180.000} C_DIS
LIN {X 153.230,Y 150.918,Z 2.000,A -150.000,B 0.000,C 180.000} C_DIS
LIN {X 153.128,Y 151.219,Z 2.000,A -150.000,B 0.000,C 180.000} C_DIS
LIN {X 152.923,Y 151.654,Z 2.000,A -150.000,B 0.000,C 180.000} C_DIS
LIN {X 152.698,Y 151.997,Z 2.000,A -150.000,B 0.000,C 180.000} C_DIS
LIN {X 152.503,Y 152.239,Z 2.000,A -150.000,B 0.000,C 180.000} C_DIS
LIN {X 152.172,Y 152.560,Z 2.000,A -150.000,B 0.000,C 180.000} C_DIS
LIN {X 151.937,Y 152.742,Z 2.000,A -150.000,B 0.000,C 180.000} C_DIS
LIN {X 151.603,Y 152.951,Z 2.000,A -150.000,B 0.000,C 180.000} C_DIS
LIN {X 151.316,Y 153.089,Z 2.000,A -150.000,B 0.000,C 180.000} C_DIS
LIN {X 150.860,Y 153.247,Z 2.000,A -150.000,B 0.000,C 180.000} C_DIS
LIN {X 150.459,Y 153.326,Z 2.000,A -150.000,B 0.000,C 180.000} C_DIS
LIN {X 150.149,Y 153.355,Z 2.000,A -150.000,B 0.000,C 180.000} C_DIS
LIN {X 149.688,Y 153.343,Z 2.000,A -150.000,B 0.000,C 180.000} C_DIS
LIN {X 149.393,Y 153.302,Z 2.000,A -150.000,B 0.000,C 180.000} C_DIS
LIN {X 149.105,Y 153.236,Z 2.000,A -150.000,B 0.000,C 180.000} C_DIS
LIN {X 148.822,Y 153.144,Z 2.000,A -150.000,B 0.000,C 180.000} C_DIS
LIN {X 148.549,Y 153.028,Z 2.000,A -150.000,B 0.000,C 180.000} C_DIS
LIN {X 148.287,Y 152.887,Z 2.000,A -150.000,B 0.000,C 180.000} C_DIS
LIN {X 148.039,Y 152.725,Z 2.000,A -150.000,B 0.000,C 180.000} C_DIS
LIN {X 147.733,Y 152.478,Z 2.000,A -150.000,B 0.000,C 180.000} C_DIS
LIN {X 147.508,Y 152.249,Z 2.000,A -150.000,B 0.000,C 180.000} C_DIS
LIN {X 147.318,Y 152.021,Z 2.000,A -150.000,B 0.000,C 180.000} C_DIS
LIN {X 147.068,Y 151.636,Z 2.000,A -150.000,B 0.000,C 180.000} C_DIS
LIN {X 146.929,Y 151.356,Z 2.000,A -150.000,B 0.000,C 180.000} C_DIS
LIN {X 146.821,Y 151.079,Z 2.000,A -150.000,B 0.000,C 180.000} C_DIS
LIN {X 146.715,Y 150.700,Z 2.000,A -150.000,B 0.000,C 180.000} C_DIS
LIN {X 146.665,Y 150.386,Z 2.000,A -150.000,B 0.000,C 180.000} C_DIS
LIN {X 146.644,Y 150.090,Z 2.000,A -150.000,B 0.000,C 180.000} C_DIS
LIN {X 146.650,Y 149.777,Z 2.000,A -150.000,B 0.000,C 180.000} C_DIS
LIN {X 146.679,Y 149.504,Z 2.000,A -150.000,B 0.000,C 180.000} C_DIS
LIN {X 146.735,Y 149.214,Z 2.000,A -150.000,B 0.000,C 180.000} C_DIS
LIN {X 146.780,Y 149.047,Z 2.000,A -150.000,B 0.000,C 180.000} C_DIS
LIN {X 146.924,Y 148.652,Z 2.000,A -150.000,B 0.000,C 180.000} C_DIS
LIN {X 147.152,Y 148.221,Z 2.000,A -150.000,B 0.000,C 180.000} C_DIS
LIN {X 147.318,Y 147.979,Z 2.000,A -150.000,B 0.000,C 180.000} C_DIS
LIN {X 147.508,Y 147.751,Z 2.000,A -150.000,B 0.000,C 180.000} C_DIS
LIN {X 147.717,Y 147.538,Z 2.000,A -150.000,B 0.000,C 180.000} C_DIS
LIN {X 147.944,Y 147.346,Z 2.000,A -150.000,B 0.000,C 180.000} C_DIS
LIN {X 148.206,Y 147.160,Z 2.000,A -150.000,B 0.000,C 180.000} C_DIS
LIN {X 148.429,Y 147.032,Z 2.000,A -150.000,B 0.000,C 180.000} C_DIS
LIN {X 148.712,Y 146.899,Z 2.000,A -150.000,B 0.000,C 180.000} C_DIS
LIN {X 149.084,Y 146.769,Z 2.000,A -150.000,B 0.000,C 180.000} C_DIS
LIN {X 149.393,Y 146.698,Z 2.000,A -150.000,B 0.000,C 180.000} C_DIS
LIN {X 149.853,Y 146.645,Z 2.000,A -150.000,B 0.000,C 180.000} C_DIS
LIN {X 150.164,Y 146.647,Z 2.000,A -150.000,B 0.000,C 180.000} C_DIS
LIN {X 150.459,Y 146.674,Z 2.000,A -150.000,B 0.000,C 180.000} C_DIS
LIN {X 150.847,Y 146.750,Z 2.000,A -150.000,B 0.000,C 180.000} C_DIS
LIN {X 151.148,Y 146.845,Z 2.000,A -150.000,B 0.000,C 180.000} C_DIS
LIN {X 151.424,Y 146.960,Z 2.000,A -150.000,B 0.000,C 180.000} C_DIS
