&ACCESS RVO
DEF s1001_1()
; Generated by AUTODESK Fusion 360 CAM 2.0.15293
; Creation date: Monday, February 06, 2023 16:13:04
;FOLD s1001_1
; Start position (joint) = {A1 5,A2 -80,A3 100,A4 75,A5 -60,A6 -65}
; Tool Number            = 0
; Base Number            = 1
; Spindle Speed          = 0 RPM
; Program file name      = s1001_1.src

PTP {X 10.000,Y 10.000,Z 10.000,A -150.000,B 0.000,C 180.000,E1 0,E2 0,E3 0,E4 0,E5 0,E6 0,S'B110',T'B110010'}
;--------------------------------
;Part 1
;rapid-leaky
$VEL.CP=0.02
LIN {X 20.000,Y 20.750,Z 1.000} C_DIS
$VEL.CP=0.03
LIN {X 0.000,Y 0.000,Z 0.000} C_DIS
;bead-prime
$VEL.CP=0.01
LIN {X -60.000,Y 0.000,Z 0.000} C_DIS
$VEL.CP=0.03
LIN {X 0.000,Y 0.000,Z 0.000} C_DIS
$VEL.CP=0.02
LIN {X 0.800,Y 0.000,Z 0.000} C_DIS
LIN {X -0.800,Y 0.000,Z 0.000} C_DIS
;rapid-dry
LIN {X -65.186,Y -119.800,Z 0.000} C_DIS
$VEL.CP=0.03
LIN {X 0.000,Y 0.000,Z 0.000} C_DIS
;bead-skirt/brim
$VEL.CP=0.02
LIN {X -0.489,Y 0.233,Z 0.000} C_DIS
LIN {X -0.502,Y 0.210,Z 0.000} C_DIS
LIN {X -0.899,Y 0.300,Z 0.000} C_DIS
LIN {X -0.445,Y 0.119,Z 0.000} C_DIS
LIN {X -0.843,Y 0.166,Z 0.000} C_DIS
LIN {X -0.537,Y 0.068,Z 0.000} C_DIS
LIN {X -0.786,Y 0.053,Z 0.000} C_DIS
LIN {X -0.554,Y 0.004,Z 0.000} C_DIS
LIN {X -0.743,Y -0.045,Z 0.000} C_DIS
LIN {X -0.579,Y -0.069,Z 0.000} C_DIS
LIN {X -0.531,Y -0.093,Z 0.000} C_DIS
LIN {X -0.529,Y -0.119,Z 0.000} C_DIS
LIN {X -0.387,Y -0.108,Z 0.000} C_DIS
LIN {X -0.709,Y -0.237,Z 0.000} C_DIS
LIN {X -0.683,Y -0.285,Z 0.000} C_DIS
LIN {X -0.353,Y -0.168,Z 0.000} C_DIS
LIN {X -0.815,Y -0.453,Z 0.000} C_DIS
LIN {X -0.700,Y -0.474,Z 0.000} C_DIS
LIN {X -0.518,Y -0.405,Z 0.000} C_DIS
LIN {X -0.425,Y -0.373,Z 0.000} C_DIS
LIN {X -0.535,Y -0.532,Z 0.000} C_DIS
LIN {X -0.602,Y -0.704,Z 0.000} C_DIS
LIN {X -0.244,Y -0.324,Z 0.000} C_DIS
LIN {X -0.306,Y -0.447,Z 0.000} C_DIS
LIN {X -0.284,Y -0.462,Z 0.000} C_DIS
LIN {X -0.336,Y -0.640,Z 0.000} C_DIS
LIN {X -0.257,Y -0.554,Z 0.000} C_DIS
LIN {X -0.323,Y -0.878,Z 0.000} C_DIS
LIN {X -0.247,Y -0.907,Z 0.000} C_DIS
LIN {X -0.108,Y -0.547,Z 0.000} C_DIS
LIN {X -0.067,Y -0.449,Z 0.000} C_DIS
LIN {X -0.072,Y -0.857,Z 0.000} C_DIS
LIN {X -0.009,Y -0.407,Z 0.000} C_DIS
LIN {X 0.014,Y -0.630,Z 0.000} C_DIS
LIN {X 0.076,Y -0.832,Z 0.000} C_DIS
LIN {X 0.060,Y -0.399,Z 0.000} C_DIS
LIN {X 0.107,Y -0.532,Z 0.000} C_DIS
LIN {X 0.130,Y -0.523,Z 0.000} C_DIS
LIN {X 0.118,Y -0.388,Z 0.000} C_DIS
LIN {X 0.322,Y -0.874,Z 0.000} C_DIS
LIN {X 0.357,Y -0.760,Z 0.000} C_DIS
LIN {X 0.316,Y -0.568,Z 0.000} C_DIS
LIN {X 0.208,Y -0.333,Z 0.000} C_DIS
LIN {X 0.538,Y -0.757,Z 0.000} C_DIS
LIN {X 0.559,Y -0.659,Z 0.000} C_DIS
LIN {X 0.334,Y -0.342,Z 0.000} C_DIS
LIN {X 0.447,Y -0.422,Z 0.000} C_DIS
LIN {X 0.674,Y -0.546,Z 0.000} C_DIS
LIN {X 0.606,Y -0.419,Z 0.000} C_DIS
LIN {X 0.509,Y -0.311,Z 0.000} C_DIS
LIN {X 0.563,Y -0.294,Z 0.000} C_DIS
LIN {X 0.769,Y -0.340,Z 0.000} C_DIS
LIN {X 0.880,Y -0.305,Z 0.000} C_DIS
LIN {X 0.546,Y -0.144,Z 0.000} C_DIS
LIN {X 0.478,Y -0.103,Z 0.000} C_DIS
LIN {X 0.814,Y -0.124,Z 0.000} C_DIS
LIN {X 0.547,Y -0.046,Z 0.000} C_DIS
LIN {X 0.794,Y -0.018,Z 0.000} C_DIS
LIN {X 0.549,Y 0.022,Z 0.000} C_DIS
LIN {X 0.921,Y 0.103,Z 0.000} C_DIS
LIN {X 0.826,Y 0.162,Z 0.000} C_DIS
LIN {X 0.620,Y 0.166,Z 0.000} C_DIS
LIN {X 0.642,Y 0.220,Z 0.000} C_DIS
LIN {X 0.601,Y 0.246,Z 0.000} C_DIS
LIN {X 0.513,Y 0.245,Z 0.000} C_DIS
LIN {X 0.576,Y 0.319,Z 0.000} C_DIS
LIN {X 0.560,Y 0.356,Z 0.000} C_DIS
LIN {X 0.742,Y 0.554,Z 0.000} C_DIS
LIN {X 0.437,Y 0.377,Z 0.000} C_DIS
LIN {X 0.652,Y 0.653,Z 0.000} C_DIS
LIN {X 0.257,Y 0.287,Z 0.000} C_DIS
LIN {X 0.572,Y 0.730,Z 0.000} C_DIS
LIN {X 0.514,Y 0.791,Z 0.000} C_DIS
LIN {X 0.271,Y 0.493,Z 0.000} C_DIS
LIN {X 0.247,Y 0.510,Z 0.000} C_DIS
LIN {X 0.260,Y 0.624,Z 0.000} C_DIS
LIN {X 0.308,Y 0.952,Z 0.000} C_DIS
LIN {X 0.102,Y 0.401,Z 0.000} C_DIS
LIN {X 0.138,Y 0.715,Z 0.000} C_DIS
LIN {X 0.092,Y 0.743,Z 0.000} C_DIS
LIN {X 0.043,Y 0.928,Z 0.000} C_DIS
LIN {X -0.044,Y 0.950,Z 0.000} C_DIS
LIN {X -0.121,Y 0.918,Z 0.000} C_DIS
LIN {X -0.187,Y 0.848,Z 0.000} C_DIS
LIN {X -0.182,Y 0.608,Z 0.000} C_DIS
LIN {X -0.152,Y 0.435,Z 0.000} C_DIS
LIN {X -0.336,Y 0.786,Z 0.000} C_DIS
LIN {X -0.435,Y 0.826,Z 0.000} C_DIS
LIN {X -0.304,Y 0.483,Z 0.000} C_DIS
LIN {X -0.379,Y 0.539,Z 0.000} C_DIS
LIN {X -0.414,Y 0.514,Z 0.000} C_DIS
LIN {X -0.628,Y 0.672,Z 0.000} C_DIS
LIN {X -0.281,Y 0.265,Z 0.000} C_DIS
LIN {X -0.429,Y 0.371,Z 0.000} C_DIS
LIN {X -0.744,Y 0.556,Z 0.000} C_DIS
LIN {X -0.638,Y 0.402,Z 0.000} C_DIS
LIN {X -0.518,Y 0.283,Z 0.000} C_DIS
$VEL.CP=0.03
LIN {X 0.000,Y 0.000,Z 0.000} C_DIS
$VEL.CP=0.02
LIN {X -0.489,Y 0.233,Z 0.000} C_DIS
LIN {X -0.239,Y 0.100,Z 0.000} C_DIS
LIN {X 0.239,Y -0.100,Z 0.000} C_DIS
LIN {X 0.489,Y -0.233,Z 0.000} C_DIS
;rapid-leaky
LIN {X -0.182,Y -0.356,Z 0.000} C_DIS
$VEL.CP=0.03
LIN {X 0.000,Y 0.000,Z 0.000} C_DIS
;bead-skirt/brim
$VEL.CP=0.02
LIN {X -0.470,Y 0.224,Z 0.000} C_DIS
LIN {X -0.480,Y 0.201,Z 0.000} C_DIS
LIN {X -0.873,Y 0.291,Z 0.000} C_DIS
LIN {X -0.421,Y 0.112,Z 0.000} C_DIS
LIN {X -0.816,Y 0.161,Z 0.000} C_DIS
LIN {X -0.512,Y 0.064,Z 0.000} C_DIS
LIN {X -0.762,Y 0.052,Z 0.000} C_DIS
LIN {X -0.528,Y 0.004,Z 0.000} C_DIS
LIN {X -0.719,Y -0.044,Z 0.000} C_DIS
LIN {X -0.556,Y -0.066,Z 0.000} C_DIS
LIN {X -0.510,Y -0.089,Z 0.000} C_DIS
LIN {X -0.510,Y -0.115,Z 0.000} C_DIS
LIN {X -0.368,Y -0.102,Z 0.000} C_DIS
LIN {X -0.685,Y -0.230,Z 0.000} C_DIS
LIN {X -0.661,Y -0.275,Z 0.000} C_DIS
LIN {X -0.333,Y -0.159,Z 0.000} C_DIS
LIN {X -0.788,Y -0.438,Z 0.000} C_DIS
LIN {X -0.675,Y -0.456,Z 0.000} C_DIS
LIN {X -0.498,Y -0.390,Z 0.000} C_DIS
LIN {X -0.407,Y -0.357,Z 0.000} C_DIS
LIN {X -0.514,Y -0.513,Z 0.000} C_DIS
LIN {X -0.584,Y -0.681,Z 0.000} C_DIS
LIN {X -0.231,Y -0.307,Z 0.000} C_DIS
LIN {X -0.295,Y -0.432,Z 0.000} C_DIS
LIN {X -0.272,Y -0.442,Z 0.000} C_DIS
LIN {X -0.326,Y -0.619,Z 0.000} C_DIS
LIN {X -0.245,Y -0.530,Z 0.000} C_DIS
LIN {X -0.313,Y -0.850,Z 0.000} C_DIS
LIN {X -0.236,Y -0.869,Z 0.000} C_DIS
LIN {X -0.104,Y -0.528,Z 0.000} C_DIS
LIN {X -0.065,Y -0.428,Z 0.000} C_DIS
LIN {X -0.070,Y -0.831,Z 0.000} C_DIS
LIN {X -0.008,Y -0.386,Z 0.000} C_DIS
LIN {X 0.013,Y -0.607,Z 0.000} C_DIS
LIN {X 0.074,Y -0.807,Z 0.000} C_DIS
LIN {X 0.057,Y -0.378,Z 0.000} C_DIS
LIN {X 0.103,Y -0.513,Z 0.000} C_DIS
LIN {X 0.126,Y -0.505,Z 0.000} C_DIS
LIN {X 0.111,Y -0.367,Z 0.000} C_DIS
LIN {X 0.312,Y -0.846,Z 0.000} C_DIS
LIN {X 0.344,Y -0.732,Z 0.000} C_DIS
LIN {X 0.305,Y -0.548,Z 0.000} C_DIS
LIN {X 0.196,Y -0.314,Z 0.000} C_DIS
LIN {X 0.521,Y -0.733,Z 0.000} C_DIS
LIN {X 0.539,Y -0.635,Z 0.000} C_DIS
LIN {X 0.319,Y -0.327,Z 0.000} C_DIS
LIN {X 0.429,Y -0.405,Z 0.000} C_DIS
LIN {X 0.651,Y -0.528,Z 0.000} C_DIS
LIN {X 0.584,Y -0.403,Z 0.000} C_DIS
LIN {X 0.488,Y -0.298,Z 0.000} C_DIS
LIN {X 0.540,Y -0.283,Z 0.000} C_DIS
LIN {X 0.741,Y -0.327,Z 0.000} C_DIS
LIN {X 0.851,Y -0.295,Z 0.000} C_DIS
LIN {X 0.522,Y -0.138,Z 0.000} C_DIS
LIN {X 0.457,Y -0.099,Z 0.000} C_DIS
LIN {X 0.789,Y -0.119,Z 0.000} C_DIS
LIN {X 0.521,Y -0.044,Z 0.000} C_DIS
LIN {X 0.770,Y -0.017,Z 0.000} C_DIS
LIN {X 0.522,Y 0.020,Z 0.000} C_DIS
LIN {X 0.891,Y 0.099,Z 0.000} C_DIS
LIN {X 0.795,Y 0.157,Z 0.000} C_DIS
LIN {X 0.595,Y 0.159,Z 0.000} C_DIS
LIN {X 0.618,Y 0.212,Z 0.000} C_DIS
LIN {X 0.579,Y 0.236,Z 0.000} C_DIS
LIN {X 0.492,Y 0.236,Z 0.000} C_DIS
LIN {X 0.554,Y 0.307,Z 0.000} C_DIS
LIN {X 0.537,Y 0.341,Z 0.000} C_DIS
LIN {X 0.720,Y 0.537,Z 0.000} C_DIS
LIN {X 0.414,Y 0.359,Z 0.000} C_DIS
LIN {X 0.634,Y 0.633,Z 0.000} C_DIS
LIN {X 0.241,Y 0.270,Z 0.000} C_DIS
LIN {X 0.553,Y 0.706,Z 0.000} C_DIS
LIN {X 0.496,Y 0.763,Z 0.000} C_DIS
LIN {X 0.259,Y 0.471,Z 0.000} C_DIS
LIN {X 0.238,Y 0.491,Z 0.000} C_DIS
LIN {X 0.250,Y 0.599,Z 0.000} C_DIS
LIN {X 0.298,Y 0.924,Z 0.000} C_DIS
LIN {X 0.096,Y 0.378,Z 0.000} C_DIS
LIN {X 0.134,Y 0.689,Z 0.000} C_DIS
LIN {X 0.089,Y 0.714,Z 0.000} C_DIS
LIN {X 0.040,Y 0.899,Z 0.000} C_DIS
LIN {X -0.041,Y 0.905,Z 0.000} C_DIS
LIN {X -0.118,Y 0.890,Z 0.000} C_DIS
LIN {X -0.179,Y 0.816,Z 0.000} C_DIS
LIN {X -0.176,Y 0.586,Z 0.000} C_DIS
LIN {X -0.144,Y 0.413,Z 0.000} C_DIS
LIN {X -0.324,Y 0.759,Z 0.000} C_DIS
LIN {X -0.420,Y 0.798,Z 0.000} C_DIS
LIN {X -0.291,Y 0.461,Z 0.000} C_DIS
LIN {X -0.365,Y 0.520,Z 0.000} C_DIS
LIN {X -0.397,Y 0.492,Z 0.000} C_DIS
LIN {X -0.610,Y 0.653,Z 0.000} C_DIS
LIN {X -0.676,Y 0.606,Z 0.000} C_DIS
LIN {X -0.721,Y 0.538,Z 0.000} C_DIS
LIN {X -0.614,Y 0.387,Z 0.000} C_DIS
LIN {X -0.497,Y 0.272,Z 0.000} C_DIS
$VEL.CP=0.03
LIN {X 0.000,Y 0.000,Z 0.000} C_DIS
$VEL.CP=0.02
LIN {X -0.470,Y 0.224,Z 0.000} C_DIS
LIN {X -0.258,Y 0.108,Z 0.000} C_DIS
LIN {X 0.258,Y -0.108,Z 0.000} C_DIS
LIN {X 0.470,Y -0.224,Z 0.000} C_DIS
;rapid-dry
LIN {X -3.230,Y -13.684,Z 0.000} C_DIS
$VEL.CP=0.03
LIN {X 0.000,Y 0.000,Z 0.000} C_DIS
;bead-perimeter_outer
$VEL.CP=0.02
LIN {X 0.400,Y 0.143,Z 0.000} C_DIS
LIN {X 0.386,Y 0.175,Z 0.000} C_DIS
LIN {X 0.369,Y 0.211,Z 0.000} C_DIS
LIN {X 0.349,Y 0.241,Z 0.000} C_DIS
LIN {X 0.326,Y 0.272,Z 0.000} C_DIS
LIN {X 0.301,Y 0.300,Z 0.000} C_DIS
LIN {X 0.273,Y 0.325,Z 0.000} C_DIS
LIN {X 0.243,Y 0.347,Z 0.000} C_DIS
LIN {X 0.212,Y 0.368,Z 0.000} C_DIS
LIN {X 0.179,Y 0.387,Z 0.000} C_DIS
LIN {X 0.118,Y 0.318,Z 0.000} C_DIS
LIN {X 0.115,Y 0.408,Z 0.000} C_DIS
LIN {X 0.089,Y 0.503,Z 0.000} C_DIS
LIN {X 0.034,Y 0.422,Z 0.000} C_DIS
LIN {X -0.004,Y 0.424,Z 0.000} C_DIS
LIN {X -0.041,Y 0.423,Z 0.000} C_DIS
LIN {X -0.078,Y 0.417,Z 0.000} C_DIS
LIN {X -0.115,Y 0.408,Z 0.000} C_DIS
LIN {X -0.151,Y 0.398,Z 0.000} C_DIS
LIN {X -0.185,Y 0.382,Z 0.000} C_DIS
LIN {X -0.219,Y 0.364,Z 0.000} C_DIS
LIN {X -0.249,Y 0.344,Z 0.000} C_DIS
LIN {X -0.221,Y 0.257,Z 0.000} C_DIS
LIN {X -0.301,Y 0.301,Z 0.000} C_DIS
LIN {X -0.326,Y 0.272,Z 0.000} C_DIS
LIN {X -0.349,Y 0.242,Z 0.000} C_DIS
LIN {X -0.368,Y 0.209,Z 0.000} C_DIS
LIN {X -0.466,Y 0.208,Z 0.000} C_DIS
LIN {X -0.402,Y 0.135,Z 0.000} C_DIS
LIN {X -0.413,Y 0.098,Z 0.000} C_DIS
LIN {X -0.421,Y 0.062,Z 0.000} C_DIS
LIN {X -0.337,Y 0.023,Z 0.000} C_DIS
LIN {X -0.426,Y -0.006,Z 0.000} C_DIS
LIN {X -0.422,Y -0.043,Z 0.000} C_DIS
LIN {X -0.500,Y -0.100,Z 0.000} C_DIS
LIN {X -0.405,Y -0.125,Z 0.000} C_DIS
LIN {X -0.394,Y -0.159,Z 0.000} C_DIS
LIN {X -0.378,Y -0.193,Z 0.000} C_DIS
LIN {X -0.359,Y -0.226,Z 0.000} C_DIS
LIN {X -0.338,Y -0.258,Z 0.000} C_DIS
LIN {X -0.314,Y -0.286,Z 0.000} C_DIS
LIN {X -0.232,Y -0.248,Z 0.000} C_DIS
LIN {X -0.265,Y -0.332,Z 0.000} C_DIS
LIN {X -0.277,Y -0.428,Z 0.000} C_DIS
LIN {X -0.194,Y -0.376,Z 0.000} C_DIS
LIN {X -0.162,Y -0.393,Z 0.000} C_DIS
LIN {X -0.125,Y -0.406,Z 0.000} C_DIS
LIN {X -0.091,Y -0.415,Z 0.000} C_DIS
LIN {X -0.052,Y -0.422,Z 0.000} C_DIS
LIN {X -0.015,Y -0.338,Z 0.000} C_DIS
LIN {X 0.016,Y -0.425,Z 0.000} C_DIS
LIN {X 0.051,Y -0.421,Z 0.000} C_DIS
LIN {X 0.112,Y -0.498,Z 0.000} C_DIS
LIN {X 0.133,Y -0.402,Z 0.000} C_DIS
LIN {X 0.169,Y -0.390,Z 0.000} C_DIS
LIN {X 0.201,Y -0.373,Z 0.000} C_DIS
LIN {X 0.234,Y -0.354,Z 0.000} C_DIS
LIN {X 0.265,Y -0.333,Z 0.000} C_DIS
LIN {X 0.232,Y -0.248,Z 0.000} C_DIS
LIN {X 0.314,Y -0.286,Z 0.000} C_DIS
LIN {X 0.338,Y -0.258,Z 0.000} C_DIS
LIN {X 0.358,Y -0.226,Z 0.000} C_DIS
LIN {X 0.457,Y -0.228,Z 0.000} C_DIS
LIN {X 0.395,Y -0.151,Z 0.000} C_DIS
LIN {X 0.409,Y -0.117,Z 0.000} C_DIS
LIN {X 0.416,Y -0.081,Z 0.000} C_DIS
LIN {X 0.423,Y -0.043,Z 0.000} C_DIS
LIN {X 0.339,Y -0.008,Z 0.000} C_DIS
LIN {X 0.425,Y 0.025,Z 0.000} C_DIS
LIN {X 0.419,Y 0.061,Z 0.000} C_DIS
LIN {X 0.495,Y 0.123,Z 0.000} C_DIS
$VEL.CP=0.03
LIN {X 0.000,Y 0.000,Z 0.000} C_DIS
$VEL.CP=0.02
LIN {X 0.400,Y 0.143,Z 0.000} C_DIS
LIN {X 0.342,Y 0.155,Z 0.000} C_DIS
LIN {X -0.342,Y -0.155,Z 0.000} C_DIS
LIN {X -0.400,Y -0.143,Z 0.000} C_DIS
;rapid-leaky
LIN {X -0.104,Y 0.345,Z 0.000} C_DIS
$VEL.CP=0.03
LIN {X 0.000,Y 0.000,Z 0.000} C_DIS
;bead-perimeter_inner
$VEL.CP=0.02
LIN {X 0.368,Y 0.131,Z 0.000} C_DIS
LIN {X 0.358,Y 0.163,Z 0.000} C_DIS
LIN {X 0.341,Y 0.195,Z 0.000} C_DIS
LIN {X 0.323,Y 0.223,Z 0.000} C_DIS
LIN {X 0.301,Y 0.251,Z 0.000} C_DIS
LIN {X 0.278,Y 0.278,Z 0.000} C_DIS
LIN {X 0.254,Y 0.301,Z 0.000} C_DIS
LIN {X 0.224,Y 0.321,Z 0.000} C_DIS
LIN {X 0.196,Y 0.340,Z 0.000} C_DIS
LIN {X 0.166,Y 0.359,Z 0.000} C_DIS
LIN {X 0.108,Y 0.291,Z 0.000} C_DIS
LIN {X 0.107,Y 0.378,Z 0.000} C_DIS
LIN {X 0.083,Y 0.467,Z 0.000} C_DIS
LIN {X 0.031,Y 0.390,Z 0.000} C_DIS
LIN {X -0.004,Y 0.392,Z 0.000} C_DIS
LIN {X -0.038,Y 0.391,Z 0.000} C_DIS
LIN {X -0.072,Y 0.386,Z 0.000} C_DIS
LIN {X -0.106,Y 0.377,Z 0.000} C_DIS
LIN {X -0.140,Y 0.368,Z 0.000} C_DIS
LIN {X -0.171,Y 0.353,Z 0.000} C_DIS
LIN {X -0.203,Y 0.337,Z 0.000} C_DIS
LIN {X -0.231,Y 0.320,Z 0.000} C_DIS
LIN {X -0.202,Y 0.235,Z 0.000} C_DIS
LIN {X -0.280,Y 0.280,Z 0.000} C_DIS
LIN {X -0.301,Y 0.251,Z 0.000} C_DIS
LIN {X -0.323,Y 0.224,Z 0.000} C_DIS
LIN {X -0.339,Y 0.193,Z 0.000} C_DIS
LIN {X -0.433,Y 0.193,Z 0.000} C_DIS
LIN {X -0.371,Y 0.124,Z 0.000} C_DIS
LIN {X -0.382,Y 0.092,Z 0.000} C_DIS
LIN {X -0.392,Y 0.057,Z 0.000} C_DIS
LIN {X -0.308,Y 0.021,Z 0.000} C_DIS
LIN {X -0.396,Y -0.006,Z 0.000} C_DIS
LIN {X -0.388,Y -0.039,Z 0.000} C_DIS
LIN {X -0.465,Y -0.094,Z 0.000} C_DIS
LIN {X -0.373,Y -0.114,Z 0.000} C_DIS
LIN {X -0.365,Y -0.148,Z 0.000} C_DIS
LIN {X -0.350,Y -0.178,Z 0.000} C_DIS
LIN {X -0.331,Y -0.209,Z 0.000} C_DIS
LIN {X -0.313,Y -0.239,Z 0.000} C_DIS
LIN {X -0.292,Y -0.266,Z 0.000} C_DIS
LIN {X -0.212,Y -0.226,Z 0.000} C_DIS
LIN {X -0.245,Y -0.308,Z 0.000} C_DIS
LIN {X -0.258,Y -0.398,Z 0.000} C_DIS
LIN {X -0.179,Y -0.346,Z 0.000} C_DIS
LIN {X -0.149,Y -0.364,Z 0.000} C_DIS
LIN {X -0.117,Y -0.376,Z 0.000} C_DIS
LIN {X -0.083,Y -0.383,Z 0.000} C_DIS
LIN {X -0.049,Y -0.392,Z 0.000} C_DIS
LIN {X -0.014,Y -0.310,Z 0.000} C_DIS
LIN {X 0.015,Y -0.395,Z 0.000} C_DIS
LIN {X 0.047,Y -0.387,Z 0.000} C_DIS
LIN {X 0.104,Y -0.463,Z 0.000} C_DIS
LIN {X 0.123,Y -0.370,Z 0.000} C_DIS
LIN {X 0.156,Y -0.362,Z 0.000} C_DIS
LIN {X 0.186,Y -0.345,Z 0.000} C_DIS
LIN {X 0.216,Y -0.327,Z 0.000} C_DIS
LIN {X 0.247,Y -0.310,Z 0.000} C_DIS
LIN {X 0.212,Y -0.226,Z 0.000} C_DIS
LIN {X 0.292,Y -0.266,Z 0.000} C_DIS
LIN {X 0.313,Y -0.239,Z 0.000} C_DIS
LIN {X 0.329,Y -0.208,Z 0.000} C_DIS
LIN {X 0.425,Y -0.212,Z 0.000} C_DIS
LIN {X 0.365,Y -0.139,Z 0.000} C_DIS
LIN {X 0.378,Y -0.109,Z 0.000} C_DIS
LIN {X 0.385,Y -0.074,Z 0.000} C_DIS
LIN {X 0.393,Y -0.041,Z 0.000} C_DIS
LIN {X 0.310,Y -0.007,Z 0.000} C_DIS
LIN {X 0.394,Y 0.024,Z 0.000} C_DIS
LIN {X 0.387,Y 0.056,Z 0.000} C_DIS
LIN {X 0.460,Y 0.114,Z 0.000} C_DIS
$VEL.CP=0.03
LIN {X 0.000,Y 0.000,Z 0.000} C_DIS
$VEL.CP=0.02
LIN {X 0.368,Y 0.131,Z 0.000} C_DIS
LIN {X 0.358,Y 0.163,Z 0.000} C_DIS
LIN {X 0.014,Y 0.008,Z 0.000} C_DIS
LIN {X -0.014,Y -0.008,Z 0.000} C_DIS
LIN {X -0.358,Y -0.163,Z 0.000} C_DIS
LIN {X -0.368,Y -0.131,Z 0.000} C_DIS
;rapid-leaky
LIN {X -0.104,Y 0.345,Z 0.000} C_DIS
$VEL.CP=0.03
LIN {X 0.000,Y 0.000,Z 0.000} C_DIS
;bead-perimeter_inner
$VEL.CP=0.02
LIN {X 0.337,Y 0.120,Z 0.000} C_DIS
LIN {X 0.328,Y 0.150,Z 0.000} C_DIS
LIN {X 0.314,Y 0.179,Z 0.000} C_DIS
LIN {X 0.297,Y 0.205,Z 0.000} C_DIS
LIN {X 0.276,Y 0.230,Z 0.000} C_DIS
LIN {X 0.256,Y 0.256,Z 0.000} C_DIS
LIN {X 0.233,Y 0.276,Z 0.000} C_DIS
LIN {X 0.206,Y 0.295,Z 0.000} C_DIS
LIN {X 0.180,Y 0.313,Z 0.000} C_DIS
LIN {X 0.154,Y 0.331,Z 0.000} C_DIS
LIN {X 0.097,Y 0.265,Z 0.000} C_DIS
LIN {X 0.098,Y 0.346,Z 0.000} C_DIS
LIN {X 0.077,Y 0.433,Z 0.000} C_DIS
LIN {X 0.029,Y 0.356,Z 0.000} C_DIS
LIN {X -0.004,Y 0.361,Z 0.000} C_DIS
LIN {X -0.035,Y 0.360,Z 0.000} C_DIS
LIN {X -0.066,Y 0.354,Z 0.000} C_DIS
LIN {X -0.097,Y 0.346,Z 0.000} C_DIS
LIN {X -0.129,Y 0.338,Z 0.000} C_DIS
LIN {X -0.157,Y 0.324,Z 0.000} C_DIS
LIN {X -0.186,Y 0.310,Z 0.000} C_DIS
LIN {X -0.214,Y 0.296,Z 0.000} C_DIS
LIN {X -0.183,Y 0.213,Z 0.000} C_DIS
LIN {X -0.259,Y 0.259,Z 0.000} C_DIS
LIN {X -0.277,Y 0.230,Z 0.000} C_DIS
LIN {X -0.296,Y 0.206,Z 0.000} C_DIS
LIN {X -0.310,Y 0.176,Z 0.000} C_DIS
LIN {X -0.401,Y 0.180,Z 0.000} C_DIS
LIN {X -0.339,Y 0.113,Z 0.000} C_DIS
LIN {X -0.351,Y 0.084,Z 0.000} C_DIS
LIN {X -0.362,Y 0.053,Z 0.000} C_DIS
LIN {X -0.280,Y 0.019,Z 0.000} C_DIS
LIN {X -0.365,Y -0.005,Z 0.000} C_DIS
LIN {X -0.355,Y -0.037,Z 0.000} C_DIS
LIN {X -0.431,Y -0.086,Z 0.000} C_DIS
LIN {X -0.341,Y -0.105,Z 0.000} C_DIS
LIN {X -0.336,Y -0.136,Z 0.000} C_DIS
LIN {X -0.321,Y -0.163,Z 0.000} C_DIS
LIN {X -0.304,Y -0.192,Z 0.000} C_DIS
LIN {X -0.287,Y -0.219,Z 0.000} C_DIS
LIN {X -0.270,Y -0.246,Z 0.000} C_DIS
LIN {X -0.192,Y -0.206,Z 0.000} C_DIS
LIN {X -0.226,Y -0.282,Z 0.000} C_DIS
LIN {X -0.238,Y -0.369,Z 0.000} C_DIS
LIN {X -0.164,Y -0.317,Z 0.000} C_DIS
LIN {X -0.137,Y -0.333,Z 0.000} C_DIS
LIN {X -0.107,Y -0.346,Z 0.000} C_DIS
LIN {X -0.077,Y -0.352,Z 0.000} C_DIS
LIN {X -0.045,Y -0.362,Z 0.000} C_DIS
LIN {X -0.012,Y -0.281,Z 0.000} C_DIS
LIN {X 0.013,Y -0.365,Z 0.000} C_DIS
LIN {X 0.044,Y -0.355,Z 0.000} C_DIS
LIN {X 0.096,Y -0.428,Z 0.000} C_DIS
LIN {X 0.111,Y -0.338,Z 0.000} C_DIS
LIN {X 0.145,Y -0.333,Z 0.000} C_DIS
LIN {X 0.171,Y -0.318,Z 0.000} C_DIS
LIN {X 0.198,Y -0.299,Z 0.000} C_DIS
LIN {X 0.228,Y -0.286,Z 0.000} C_DIS
LIN {X 0.192,Y -0.206,Z 0.000} C_DIS
LIN {X 0.270,Y -0.246,Z 0.000} C_DIS
LIN {X 0.287,Y -0.219,Z 0.000} C_DIS
LIN {X 0.301,Y -0.190,Z 0.000} C_DIS
LIN {X 0.393,Y -0.196,Z 0.000} C_DIS
LIN {X 0.334,Y -0.128,Z 0.000} C_DIS
LIN {X 0.348,Y -0.099,Z 0.000} C_DIS
LIN {X 0.353,Y -0.069,Z 0.000} C_DIS
LIN {X 0.363,Y -0.037,Z 0.000} C_DIS
LIN {X 0.281,Y -0.006,Z 0.000} C_DIS
LIN {X 0.364,Y 0.021,Z 0.000} C_DIS
LIN {X 0.355,Y 0.052,Z 0.000} C_DIS
LIN {X 0.425,Y 0.105,Z 0.000} C_DIS
$VEL.CP=0.03
LIN {X 0.000,Y 0.000,Z 0.000} C_DIS
$VEL.CP=0.02
LIN {X 0.337,Y 0.120,Z 0.000} C_DIS
LIN {X 0.328,Y 0.150,Z 0.000} C_DIS
LIN {X 0.071,Y 0.040,Z 0.000} C_DIS
LIN {X -0.071,Y -0.040,Z 0.000} C_DIS
LIN {X -0.328,Y -0.150,Z 0.000} C_DIS
LIN {X -0.337,Y -0.120,Z 0.000} C_DIS
;rapid-leaky
LIN {X -0.104,Y 0.345,Z 0.000} C_DIS
$VEL.CP=0.03
LIN {X 0.000,Y 0.000,Z 0.000} C_DIS
;bead-perimeter_inner
$VEL.CP=0.02
LIN {X 0.306,Y 0.109,Z 0.000} C_DIS
LIN {X 0.299,Y 0.137,Z 0.000} C_DIS
LIN {X 0.286,Y 0.163,Z 0.000} C_DIS
LIN {X 0.271,Y 0.187,Z 0.000} C_DIS
LIN {X 0.251,Y 0.209,Z 0.000} C_DIS
LIN {X 0.233,Y 0.234,Z 0.000} C_DIS
LIN {X 0.213,Y 0.252,Z 0.000} C_DIS
LIN {X 0.188,Y 0.269,Z 0.000} C_DIS
LIN {X 0.165,Y 0.285,Z 0.000} C_DIS
LIN {X 0.140,Y 0.303,Z 0.000} C_DIS
LIN {X 0.088,Y 0.238,Z 0.000} C_DIS
LIN {X 0.089,Y 0.316,Z 0.000} C_DIS
LIN {X 0.071,Y 0.398,Z 0.000} C_DIS
LIN {X 0.026,Y 0.323,Z 0.000} C_DIS
LIN {X -0.003,Y 0.329,Z 0.000} C_DIS
LIN {X -0.033,Y 0.328,Z 0.000} C_DIS
LIN {X -0.060,Y 0.323,Z 0.000} C_DIS
LIN {X -0.089,Y 0.315,Z 0.000} C_DIS
LIN {X -0.117,Y 0.309,Z 0.000} C_DIS
LIN {X -0.143,Y 0.295,Z 0.000} C_DIS
LIN {X -0.170,Y 0.283,Z 0.000} C_DIS
LIN {X -0.196,Y 0.271,Z 0.000} C_DIS
LIN {X -0.164,Y 0.191,Z 0.000} C_DIS
LIN {X -0.238,Y 0.238,Z 0.000} C_DIS
LIN {X -0.252,Y 0.209,Z 0.000} C_DIS
LIN {X -0.270,Y 0.188,Z 0.000} C_DIS
LIN {X -0.281,Y 0.160,Z 0.000} C_DIS
LIN {X -0.369,Y 0.165,Z 0.000} C_DIS
LIN {X -0.307,Y 0.102,Z 0.000} C_DIS
LIN {X -0.320,Y 0.077,Z 0.000} C_DIS
LIN {X -0.332,Y 0.048,Z 0.000} C_DIS
LIN {X -0.252,Y 0.017,Z 0.000} C_DIS
LIN {X -0.334,Y -0.004,Z 0.000} C_DIS
LIN {X -0.323,Y -0.033,Z 0.000} C_DIS
LIN {X -0.395,Y -0.079,Z 0.000} C_DIS
LIN {X -0.309,Y -0.095,Z 0.000} C_DIS
LIN {X -0.307,Y -0.125,Z 0.000} C_DIS
LIN {X -0.292,Y -0.149,Z 0.000} C_DIS
LIN {X -0.277,Y -0.174,Z 0.000} C_DIS
LIN {X -0.263,Y -0.200,Z 0.000} C_DIS
LIN {X -0.247,Y -0.225,Z 0.000} C_DIS
LIN {X -0.173,Y -0.185,Z 0.000} C_DIS
LIN {X -0.205,Y -0.258,Z 0.000} C_DIS
LIN {X -0.220,Y -0.339,Z 0.000} C_DIS
LIN {X -0.148,Y -0.287,Z 0.000} C_DIS
LIN {X -0.125,Y -0.304,Z 0.000} C_DIS
LIN {X -0.098,Y -0.316,Z 0.000} C_DIS
LIN {X -0.070,Y -0.321,Z 0.000} C_DIS
LIN {X -0.041,Y -0.331,Z 0.000} C_DIS
LIN {X -0.011,Y -0.253,Z 0.000} C_DIS
LIN {X 0.012,Y -0.335,Z 0.000} C_DIS
LIN {X 0.040,Y -0.321,Z 0.000} C_DIS
LIN {X 0.088,Y -0.394,Z 0.000} C_DIS
LIN {X 0.101,Y -0.305,Z 0.000} C_DIS
LIN {X 0.132,Y -0.305,Z 0.000} C_DIS
LIN {X 0.156,Y -0.290,Z 0.000} C_DIS
LIN {X 0.180,Y -0.272,Z 0.000} C_DIS
LIN {X 0.209,Y -0.263,Z 0.000} C_DIS
LIN {X 0.173,Y -0.185,Z 0.000} C_DIS
LIN {X 0.247,Y -0.225,Z 0.000} C_DIS
LIN {X 0.263,Y -0.200,Z 0.000} C_DIS
LIN {X 0.272,Y -0.172,Z 0.000} C_DIS
LIN {X 0.361,Y -0.180,Z 0.000} C_DIS
LIN {X 0.303,Y -0.116,Z 0.000} C_DIS
LIN {X 0.318,Y -0.091,Z 0.000} C_DIS
LIN {X 0.322,Y -0.062,Z 0.000} C_DIS
LIN {X 0.333,Y -0.034,Z 0.000} C_DIS
LIN {X 0.252,Y -0.006,Z 0.000} C_DIS
LIN {X 0.334,Y 0.020,Z 0.000} C_DIS
LIN {X 0.321,Y 0.047,Z 0.000} C_DIS
LIN {X 0.391,Y 0.096,Z 0.000} C_DIS
$VEL.CP=0.03
LIN {X 0.000,Y 0.000,Z 0.000} C_DIS
$VEL.CP=0.02
LIN {X 0.306,Y 0.109,Z 0.000} C_DIS
LIN {X 0.299,Y 0.137,Z 0.000} C_DIS
LIN {X 0.127,Y 0.072,Z 0.000} C_DIS
LIN {X -0.127,Y -0.072,Z 0.000} C_DIS
LIN {X -0.299,Y -0.137,Z 0.000} C_DIS
LIN {X -0.306,Y -0.109,Z 0.000} C_DIS
;rapid-leaky
LIN {X -0.104,Y 0.345,Z 0.000} C_DIS
$VEL.CP=0.03
LIN {X 0.000,Y 0.000,Z 0.000} C_DIS
;bead-perimeter_inner
$VEL.CP=0.02
LIN {X 0.274,Y 0.098,Z 0.000} C_DIS
LIN {X 0.271,Y 0.123,Z 0.000} C_DIS
LIN {X 0.258,Y 0.148,Z 0.000} C_DIS
LIN {X 0.245,Y 0.169,Z 0.000} C_DIS
LIN {X 0.226,Y 0.189,Z 0.000} C_DIS
LIN {X 0.211,Y 0.210,Z 0.000} C_DIS
LIN {X 0.192,Y 0.228,Z 0.000} C_DIS
LIN {X 0.170,Y 0.243,Z 0.000} C_DIS
LIN {X 0.149,Y 0.258,Z 0.000} C_DIS
LIN {X 0.127,Y 0.275,Z 0.000} C_DIS
LIN {X 0.078,Y 0.212,Z 0.000} C_DIS
LIN {X 0.081,Y 0.285,Z 0.000} C_DIS
LIN {X 0.064,Y 0.363,Z 0.000} C_DIS
LIN {X 0.023,Y 0.290,Z 0.000} C_DIS
LIN {X -0.002,Y 0.297,Z 0.000} C_DIS
LIN {X -0.029,Y 0.297,Z 0.000} C_DIS
LIN {X -0.055,Y 0.291,Z 0.000} C_DIS
LIN {X -0.080,Y 0.284,Z 0.000} C_DIS
LIN {X -0.106,Y 0.279,Z 0.000} C_DIS
LIN {X -0.128,Y 0.266,Z 0.000} C_DIS
LIN {X -0.155,Y 0.256,Z 0.000} C_DIS
LIN {X -0.178,Y 0.246,Z 0.000} C_DIS
LIN {X -0.362,Y 0.386,Z 0.000} C_DIS
LIN {X -0.227,Y 0.190,Z 0.000} C_DIS
LIN {X -0.244,Y 0.169,Z 0.000} C_DIS
LIN {X -0.252,Y 0.143,Z 0.000} C_DIS
LIN {X -0.337,Y 0.151,Z 0.000} C_DIS
LIN {X -0.275,Y 0.092,Z 0.000} C_DIS
LIN {X -0.289,Y 0.069,Z 0.000} C_DIS
LIN {X -0.302,Y 0.044,Z 0.000} C_DIS
LIN {X -0.224,Y 0.015,Z 0.000} C_DIS
LIN {X -0.303,Y -0.004,Z 0.000} C_DIS
LIN {X -0.290,Y -0.029,Z 0.000} C_DIS
LIN {X -0.361,Y -0.073,Z 0.000} C_DIS
LIN {X -0.276,Y -0.085,Z 0.000} C_DIS
LIN {X -0.278,Y -0.112,Z 0.000} C_DIS
LIN {X -0.264,Y -0.135,Z 0.000} C_DIS
LIN {X -0.250,Y -0.158,Z 0.000} C_DIS
LIN {X -0.237,Y -0.180,Z 0.000} C_DIS
LIN {X -0.225,Y -0.205,Z 0.000} C_DIS
LIN {X -0.153,Y -0.164,Z 0.000} C_DIS
LIN {X -0.186,Y -0.233,Z 0.000} C_DIS
LIN {X -0.200,Y -0.309,Z 0.000} C_DIS
LIN {X -0.133,Y -0.257,Z 0.000} C_DIS
LIN {X -0.113,Y -0.275,Z 0.000} C_DIS
LIN {X -0.089,Y -0.286,Z 0.000} C_DIS
LIN {X -0.062,Y -0.289,Z 0.000} C_DIS
LIN {X -0.038,Y -0.301,Z 0.000} C_DIS
LIN {X -0.010,Y -0.224,Z 0.000} C_DIS
LIN {X 0.011,Y -0.305,Z 0.000} C_DIS
LIN {X 0.036,Y -0.289,Z 0.000} C_DIS
LIN {X 0.080,Y -0.359,Z 0.000} C_DIS
LIN {X 0.091,Y -0.273,Z 0.000} C_DIS
LIN {X 0.119,Y -0.275,Z 0.000} C_DIS
LIN {X 0.141,Y -0.263,Z 0.000} C_DIS
LIN {X 0.163,Y -0.245,Z 0.000} C_DIS
LIN {X 0.190,Y -0.239,Z 0.000} C_DIS
LIN {X 0.153,Y -0.164,Z 0.000} C_DIS
LIN {X 0.225,Y -0.205,Z 0.000} C_DIS
LIN {X 0.237,Y -0.180,Z 0.000} C_DIS
LIN {X 0.244,Y -0.155,Z 0.000} C_DIS
LIN {X 0.329,Y -0.164,Z 0.000} C_DIS
LIN {X 0.272,Y -0.104,Z 0.000} C_DIS
LIN {X 0.288,Y -0.083,Z 0.000} C_DIS
LIN {X 0.291,Y -0.056,Z 0.000} C_DIS
LIN {X 0.302,Y -0.031,Z 0.000} C_DIS
LIN {X 0.223,Y -0.005,Z 0.000} C_DIS
LIN {X 0.304,Y 0.018,Z 0.000} C_DIS
LIN {X 0.289,Y 0.042,Z 0.000} C_DIS
LIN {X 0.356,Y 0.088,Z 0.000} C_DIS
$VEL.CP=0.03
LIN {X 0.000,Y 0.000,Z 0.000} C_DIS
$VEL.CP=0.02
LIN {X 0.274,Y 0.098,Z 0.000} C_DIS
LIN {X 0.271,Y 0.123,Z 0.000} C_DIS
LIN {X 0.184,Y 0.105,Z 0.000} C_DIS
LIN {X -0.184,Y -0.105,Z 0.000} C_DIS
LIN {X -0.271,Y -0.123,Z 0.000} C_DIS
LIN {X -0.274,Y -0.098,Z 0.000} C_DIS
;rapid-leaky
LIN {X -0.104,Y 0.345,Z 0.000} C_DIS
$VEL.CP=0.03
LIN {X 0.000,Y 0.000,Z 0.000} C_DIS
;bead-perimeter_inner
$VEL.CP=0.02
LIN {X 0.243,Y 0.087,Z 0.000} C_DIS
LIN {X 0.242,Y 0.110,Z 0.000} C_DIS
LIN {X 0.230,Y 0.132,Z 0.000} C_DIS
LIN {X 0.219,Y 0.151,Z 0.000} C_DIS
LIN {X 0.201,Y 0.168,Z 0.000} C_DIS
LIN {X 0.189,Y 0.188,Z 0.000} C_DIS
LIN {X 0.172,Y 0.204,Z 0.000} C_DIS
LIN {X 0.151,Y 0.217,Z 0.000} C_DIS
LIN {X 0.133,Y 0.230,Z 0.000} C_DIS
LIN {X 0.114,Y 0.248,Z 0.000} C_DIS
LIN {X 0.140,Y 0.438,Z 0.000} C_DIS
LIN {X 0.059,Y 0.329,Z 0.000} C_DIS
LIN {X 0.020,Y 0.256,Z 0.000} C_DIS
LIN {X -0.002,Y 0.265,Z 0.000} C_DIS
LIN {X -0.026,Y 0.266,Z 0.000} C_DIS
LIN {X -0.048,Y 0.260,Z 0.000} C_DIS
LIN {X -0.072,Y 0.253,Z 0.000} C_DIS
LIN {X -0.094,Y 0.249,Z 0.000} C_DIS
LIN {X -0.115,Y 0.237,Z 0.000} C_DIS
LIN {X -0.138,Y 0.229,Z 0.000} C_DIS
LIN {X -0.288,Y 0.370,Z 0.000} C_DIS
LIN {X -0.195,Y 0.195,Z 0.000} C_DIS
LIN {X -0.202,Y 0.169,Z 0.000} C_DIS
LIN {X -0.218,Y 0.151,Z 0.000} C_DIS
LIN {X -0.223,Y 0.127,Z 0.000} C_DIS
LIN {X -0.304,Y 0.136,Z 0.000} C_DIS
LIN {X -0.244,Y 0.081,Z 0.000} C_DIS
LIN {X -0.258,Y 0.062,Z 0.000} C_DIS
LIN {X -0.467,Y 0.053,Z 0.000} C_DIS
LIN {X -0.273,Y -0.004,Z 0.000} C_DIS
LIN {X -0.257,Y -0.026,Z 0.000} C_DIS
LIN {X -0.327,Y -0.065,Z 0.000} C_DIS
LIN {X -0.244,Y -0.075,Z 0.000} C_DIS
LIN {X -0.249,Y -0.101,Z 0.000} C_DIS
LIN {X -0.235,Y -0.120,Z 0.000} C_DIS
LIN {X -0.222,Y -0.141,Z 0.000} C_DIS
LIN {X -0.212,Y -0.161,Z 0.000} C_DIS
LIN {X -0.202,Y -0.184,Z 0.000} C_DIS
LIN {X -0.300,Y -0.352,Z 0.000} C_DIS
LIN {X -0.181,Y -0.279,Z 0.000} C_DIS
LIN {X -0.118,Y -0.228,Z 0.000} C_DIS
LIN {X -0.101,Y -0.245,Z 0.000} C_DIS
LIN {X -0.079,Y -0.255,Z 0.000} C_DIS
LIN {X -0.056,Y -0.258,Z 0.000} C_DIS
LIN {X -0.034,Y -0.272,Z 0.000} C_DIS
LIN {X 0.002,Y -0.469,Z 0.000} C_DIS
LIN {X 0.031,Y -0.256,Z 0.000} C_DIS
LIN {X 0.073,Y -0.325,Z 0.000} C_DIS
LIN {X 0.080,Y -0.241,Z 0.000} C_DIS
LIN {X 0.107,Y -0.246,Z 0.000} C_DIS
LIN {X 0.126,Y -0.235,Z 0.000} C_DIS
LIN {X 0.144,Y -0.219,Z 0.000} C_DIS
LIN {X 0.172,Y -0.215,Z 0.000} C_DIS
LIN {X 0.336,Y -0.327,Z 0.000} C_DIS
LIN {X 0.212,Y -0.161,Z 0.000} C_DIS
LIN {X 0.215,Y -0.137,Z 0.000} C_DIS
LIN {X 0.297,Y -0.148,Z 0.000} C_DIS
LIN {X 0.241,Y -0.092,Z 0.000} C_DIS
LIN {X 0.258,Y -0.074,Z 0.000} C_DIS
LIN {X 0.259,Y -0.050,Z 0.000} C_DIS
LIN {X 0.272,Y -0.028,Z 0.000} C_DIS
LIN {X 0.468,Y 0.011,Z 0.000} C_DIS
LIN {X 0.257,Y 0.038,Z 0.000} C_DIS
LIN {X 0.321,Y 0.079,Z 0.000} C_DIS
$VEL.CP=0.03
LIN {X 0.000,Y 0.000,Z 0.000} C_DIS
$VEL.CP=0.02
LIN {X 0.243,Y 0.087,Z 0.000} C_DIS
LIN {X 0.242,Y 0.110,Z 0.000} C_DIS
LIN {X 0.230,Y 0.132,Z 0.000} C_DIS
LIN {X 0.009,Y 0.006,Z 0.000} C_DIS
LIN {X -0.009,Y -0.006,Z 0.000} C_DIS
LIN {X -0.230,Y -0.132,Z 0.000} C_DIS
LIN {X -0.242,Y -0.110,Z 0.000} C_DIS
LIN {X -0.243,Y -0.087,Z 0.000} C_DIS
;rapid-leaky
LIN {X -0.104,Y 0.345,Z 0.000} C_DIS
$VEL.CP=0.03
LIN {X 0.000,Y 0.000,Z 0.000} C_DIS
;bead-perimeter_inner
$VEL.CP=0.02
LIN {X 0.424,Y 0.173,Z 0.000} C_DIS
LIN {X 0.203,Y 0.116,Z 0.000} C_DIS
LIN {X 0.193,Y 0.133,Z 0.000} C_DIS
LIN {X 0.176,Y 0.147,Z 0.000} C_DIS
LIN {X 0.166,Y 0.166,Z 0.000} C_DIS
LIN {X 0.152,Y 0.180,Z 0.000} C_DIS
LIN {X 0.133,Y 0.190,Z 0.000} C_DIS
LIN {X 0.117,Y 0.202,Z 0.000} C_DIS
LIN {X 0.102,Y 0.221,Z 0.000} C_DIS
LIN {X 0.121,Y 0.381,Z 0.000} C_DIS
LIN {X 0.052,Y 0.294,Z 0.000} C_DIS
LIN {X 0.018,Y 0.223,Z 0.000} C_DIS
LIN {X -0.002,Y 0.233,Z 0.000} C_DIS
LIN {X -0.023,Y 0.235,Z 0.000} C_DIS
LIN {X -0.042,Y 0.228,Z 0.000} C_DIS
LIN {X -0.063,Y 0.222,Z 0.000} C_DIS
LIN {X -0.083,Y 0.220,Z 0.000} C_DIS
LIN {X -0.101,Y 0.208,Z 0.000} C_DIS
LIN {X -0.122,Y 0.202,Z 0.000} C_DIS
LIN {X -0.251,Y 0.324,Z 0.000} C_DIS
LIN {X -0.174,Y 0.173,Z 0.000} C_DIS
LIN {X -0.178,Y 0.148,Z 0.000} C_DIS
LIN {X -0.191,Y 0.133,Z 0.000} C_DIS
LIN {X -0.194,Y 0.110,Z 0.000} C_DIS
LIN {X -0.272,Y 0.122,Z 0.000} C_DIS
LIN {X -0.439,Y 0.125,Z 0.000} C_DIS
LIN {X -0.409,Y 0.047,Z 0.000} C_DIS
LIN {X -0.243,Y -0.003,Z 0.000} C_DIS
LIN {X -0.223,Y -0.023,Z 0.000} C_DIS
LIN {X -0.292,Y -0.059,Z 0.000} C_DIS
LIN {X -0.432,Y -0.154,Z 0.000} C_DIS
LIN {X -0.207,Y -0.105,Z 0.000} C_DIS
LIN {X -0.195,Y -0.124,Z 0.000} C_DIS
LIN {X -0.186,Y -0.142,Z 0.000} C_DIS
LIN {X -0.180,Y -0.163,Z 0.000} C_DIS
LIN {X -0.261,Y -0.306,Z 0.000} C_DIS
LIN {X -0.162,Y -0.250,Z 0.000} C_DIS
LIN {X -0.102,Y -0.198,Z 0.000} C_DIS
LIN {X -0.089,Y -0.216,Z 0.000} C_DIS
LIN {X -0.070,Y -0.225,Z 0.000} C_DIS
LIN {X -0.049,Y -0.227,Z 0.000} C_DIS
LIN {X -0.030,Y -0.241,Z 0.000} C_DIS
LIN {X 0.002,Y -0.411,Z 0.000} C_DIS
LIN {X 0.027,Y -0.223,Z 0.000} C_DIS
LIN {X 0.065,Y -0.289,Z 0.000} C_DIS
LIN {X 0.069,Y -0.209,Z 0.000} C_DIS
LIN {X 0.206,Y -0.425,Z 0.000} C_DIS
LIN {X 0.127,Y -0.192,Z 0.000} C_DIS
LIN {X 0.152,Y -0.191,Z 0.000} C_DIS
LIN {X 0.295,Y -0.286,Z 0.000} C_DIS
LIN {X 0.373,Y -0.261,Z 0.000} C_DIS
LIN {X 0.266,Y -0.132,Z 0.000} C_DIS
LIN {X 0.210,Y -0.081,Z 0.000} C_DIS
LIN {X 0.227,Y -0.065,Z 0.000} C_DIS
LIN {X 0.228,Y -0.044,Z 0.000} C_DIS
LIN {X 0.407,Y -0.028,Z 0.000} C_DIS
LIN {X 0.243,Y 0.014,Z 0.000} C_DIS
LIN {X 0.224,Y 0.033,Z 0.000} C_DIS
LIN {X 0.287,Y 0.070,Z 0.000} C_DIS
$VEL.CP=0.03
LIN {X 0.000,Y 0.000,Z 0.000} C_DIS
$VEL.CP=0.02
LIN {X 0.424,Y 0.173,Z 0.000} C_DIS
LIN {X 0.203,Y 0.116,Z 0.000} C_DIS
LIN {X 0.089,Y 0.062,Z 0.000} C_DIS
LIN {X -0.089,Y -0.062,Z 0.000} C_DIS
LIN {X -0.203,Y -0.116,Z 0.000} C_DIS
LIN {X -0.424,Y -0.173,Z 0.000} C_DIS
;rapid-leaky
LIN {X -0.104,Y 0.346,Z 0.000} C_DIS
$VEL.CP=0.03
LIN {X 0.000,Y 0.000,Z 0.000} C_DIS
;bead-perimeter_inner
$VEL.CP=0.02
LIN {X 0.364,Y 0.148,Z 0.000} C_DIS
LIN {X 0.342,Y 0.215,Z 0.000} C_DIS
LIN {X 0.151,Y 0.126,Z 0.000} C_DIS
LIN {X 0.275,Y 0.299,Z 0.000} C_DIS
LIN {X 0.216,Y 0.339,Z 0.000} C_DIS
LIN {X 0.089,Y 0.193,Z 0.000} C_DIS
LIN {X 0.103,Y 0.324,Z 0.000} C_DIS
LIN {X 0.046,Y 0.259,Z 0.000} C_DIS
LIN {X 0.013,Y 0.391,Z 0.000} C_DIS
LIN {X -0.056,Y 0.400,Z 0.000} C_DIS
LIN {X -0.126,Y 0.381,Z 0.000} C_DIS
LIN {X -0.192,Y 0.354,Z 0.000} C_DIS
LIN {X -0.215,Y 0.278,Z 0.000} C_DIS
LIN {X -0.306,Y 0.279,Z 0.000} C_DIS
LIN {X -0.329,Y 0.209,Z 0.000} C_DIS
LIN {X -0.241,Y 0.107,Z 0.000} C_DIS
LIN {X -0.180,Y 0.060,Z 0.000} C_DIS
LIN {X -0.409,Y 0.078,Z 0.000} C_DIS
LIN {X -0.350,Y 0.007,Z 0.000} C_DIS
LIN {X -0.190,Y -0.020,Z 0.000} C_DIS
LIN {X -0.258,Y -0.051,Z 0.000} C_DIS
LIN {X -0.370,Y -0.133,Z 0.000} C_DIS
LIN {X -0.346,Y -0.197,Z 0.000} C_DIS
LIN {X -0.319,Y -0.266,Z 0.000} C_DIS
LIN {X -0.222,Y -0.260,Z 0.000} C_DIS
LIN {X -0.142,Y -0.220,Z 0.000} C_DIS
LIN {X -0.087,Y -0.168,Z 0.000} C_DIS
LIN {X -0.077,Y -0.187,Z 0.000} C_DIS
LIN {X -0.103,Y -0.390,Z 0.000} C_DIS
LIN {X -0.032,Y -0.349,Z 0.000} C_DIS
LIN {X 0.008,Y -0.214,Z 0.000} C_DIS
LIN {X 0.023,Y -0.190,Z 0.000} C_DIS
LIN {X 0.058,Y -0.255,Z 0.000} C_DIS
LIN {X 0.140,Y -0.366,Z 0.000} C_DIS
LIN {X 0.096,Y -0.179,Z 0.000} C_DIS
LIN {X 0.243,Y -0.333,Z 0.000} C_DIS
LIN {X 0.252,Y -0.245,Z 0.000} C_DIS
LIN {X 0.162,Y -0.122,Z 0.000} C_DIS
LIN {X 0.158,Y -0.101,Z 0.000} C_DIS
LIN {X 0.234,Y -0.116,Z 0.000} C_DIS
LIN {X 0.376,Y -0.125,Z 0.000} C_DIS
LIN {X 0.197,Y -0.038,Z 0.000} C_DIS
LIN {X 0.348,Y -0.025,Z 0.000} C_DIS
LIN {X 0.404,Y 0.040,Z 0.000} C_DIS
LIN {X 0.252,Y 0.063,Z 0.000} C_DIS
$VEL.CP=0.03
LIN {X 0.000,Y 0.000,Z 0.000} C_DIS
$VEL.CP=0.02
LIN {X 0.364,Y 0.148,Z 0.000} C_DIS
LIN {X 0.342,Y 0.215,Z 0.000} C_DIS
LIN {X 0.002,Y 0.002,Z 0.000} C_DIS
LIN {X -0.002,Y -0.002,Z 0.000} C_DIS
LIN {X -0.342,Y -0.215,Z 0.000} C_DIS
LIN {X -0.364,Y -0.148,Z 0.000} C_DIS
;rapid-leaky
LIN {X 0.045,Y 0.398,Z 0.000} C_DIS
$VEL.CP=0.03
LIN {X 0.000,Y 0.000,Z 0.000} C_DIS
;bead-perimeter_inner
$VEL.CP=0.02
LIN {X 0.302,Y 0.155,Z 0.000} C_DIS
LIN {X 0.268,Y 0.202,Z 0.000} C_DIS
LIN {X 0.231,Y 0.253,Z 0.000} C_DIS
LIN {X 0.182,Y 0.285,Z 0.000} C_DIS
LIN {X 0.076,Y 0.165,Z 0.000} C_DIS
LIN {X 0.085,Y 0.266,Z 0.000} C_DIS
LIN {X 0.052,Y 0.381,Z 0.000} C_DIS
LIN {X -0.018,Y 0.342,Z 0.000} C_DIS
LIN {X -0.031,Y 0.165,Z 0.000} C_DIS
LIN {X -0.106,Y 0.321,Z 0.000} C_DIS
LIN {X -0.162,Y 0.298,Z 0.000} C_DIS
LIN {X -0.107,Y 0.148,Z 0.000} C_DIS
LIN {X -0.202,Y 0.214,Z 0.000} C_DIS
LIN {X -0.268,Y 0.203,Z 0.000} C_DIS
LIN {X -0.343,Y 0.170,Z 0.000} C_DIS
LIN {X -0.315,Y 0.089,Z 0.000} C_DIS
LIN {X -0.292,Y 0.035,Z 0.000} C_DIS
LIN {X -0.181,Y -0.003,Z 0.000} C_DIS
LIN {X -0.380,Y -0.061,Z 0.000} C_DIS
LIN {X -0.310,Y -0.111,Z 0.000} C_DIS
LIN {X -0.149,Y -0.076,Z 0.000} C_DIS
LIN {X -0.277,Y -0.192,Z 0.000} C_DIS
LIN {X -0.135,Y -0.123,Z 0.000} C_DIS
LIN {X -0.182,Y -0.215,Z 0.000} C_DIS
LIN {X -0.195,Y -0.328,Z 0.000} C_DIS
LIN {X -0.116,Y -0.322,Z 0.000} C_DIS
LIN {X -0.058,Y -0.345,Z 0.000} C_DIS
LIN {X 0.002,Y -0.294,Z 0.000} C_DIS
LIN {X 0.019,Y -0.157,Z 0.000} C_DIS
LIN {X 0.098,Y -0.365,Z 0.000} C_DIS
LIN {X 0.151,Y -0.311,Z 0.000} C_DIS
LIN {X 0.206,Y -0.282,Z 0.000} C_DIS
LIN {X 0.210,Y -0.204,Z 0.000} C_DIS
LIN {X 0.266,Y -0.186,Z 0.000} C_DIS
LIN {X 0.350,Y -0.157,Z 0.000} C_DIS
LIN {X 0.332,Y -0.080,Z 0.000} C_DIS
LIN {X 0.289,Y -0.021,Z 0.000} C_DIS
LIN {X 0.342,Y 0.034,Z 0.000} C_DIS
LIN {X 0.366,Y 0.107,Z 0.000} C_DIS
$VEL.CP=0.03
LIN {X 0.000,Y 0.000,Z 0.000} C_DIS
$VEL.CP=0.02
LIN {X 0.302,Y 0.155,Z 0.000} C_DIS
LIN {X 0.268,Y 0.202,Z 0.000} C_DIS
LIN {X 0.084,Y 0.092,Z 0.000} C_DIS
LIN {X -0.084,Y -0.092,Z 0.000} C_DIS
LIN {X -0.268,Y -0.202,Z 0.000} C_DIS
LIN {X -0.302,Y -0.155,Z 0.000} C_DIS
;rapid-leaky
LIN {X -0.253,Y 0.292,Z 0.000} C_DIS
$VEL.CP=0.03
LIN {X 0.000,Y 0.000,Z 0.000} C_DIS
;bead-perimeter_inner
$VEL.CP=0.02
LIN {X 0.244,Y 0.099,Z 0.000} C_DIS
LIN {X 0.234,Y 0.148,Z 0.000} C_DIS
LIN {X 0.200,Y 0.183,Z 0.000} C_DIS
LIN {X 0.169,Y 0.219,Z 0.000} C_DIS
LIN {X 0.132,Y 0.257,Z 0.000} C_DIS
LIN {X 0.066,Y 0.209,Z 0.000} C_DIS
LIN {X 0.044,Y 0.313,Z 0.000} C_DIS
LIN {X -0.015,Y 0.278,Z 0.000} C_DIS
LIN {X -0.062,Y 0.264,Z 0.000} C_DIS
LIN {X -0.108,Y 0.251,Z 0.000} C_DIS
LIN {X -0.162,Y 0.245,Z 0.000} C_DIS
LIN {X -0.162,Y 0.170,Z 0.000} C_DIS
LIN {X -0.104,Y 0.087,Z 0.000} C_DIS
LIN {X -0.219,Y 0.139,Z 0.000} C_DIS
LIN {X -0.293,Y 0.117,Z 0.000} C_DIS
LIN {X -0.288,Y 0.055,Z 0.000} C_DIS
LIN {X -0.231,Y 0.003,Z 0.000} C_DIS
LIN {X -0.313,Y -0.050,Z 0.000} C_DIS
LIN {X -0.248,Y -0.089,Z 0.000} C_DIS
LIN {X -0.235,Y -0.134,Z 0.000} C_DIS
LIN {X -0.223,Y -0.186,Z 0.000} C_DIS
LIN {X -0.143,Y -0.169,Z 0.000} C_DIS
LIN {X -0.104,Y -0.161,Z 0.000} C_DIS
LIN {X -0.109,Y -0.237,Z 0.000} C_DIS
LIN {X -0.070,Y -0.267,Z 0.000} C_DIS
LIN {X -0.019,Y -0.150,Z 0.000} C_DIS
LIN {X 0.002,Y -0.235,Z 0.000} C_DIS
LIN {X 0.057,Y -0.310,Z 0.000} C_DIS
LIN {X 0.095,Y -0.244,Z 0.000} C_DIS
LIN {X 0.139,Y -0.234,Z 0.000} C_DIS
LIN {X 0.152,Y -0.180,Z 0.000} C_DIS
LIN {X 0.224,Y -0.187,Z 0.000} C_DIS
LIN {X 0.271,Y -0.150,Z 0.000} C_DIS
LIN {X 0.254,Y -0.084,Z 0.000} C_DIS
LIN {X 0.285,Y -0.041,Z 0.000} C_DIS
LIN {X 0.231,Y 0.007,Z 0.000} C_DIS
LIN {X 0.309,Y 0.064,Z 0.000} C_DIS
$VEL.CP=0.03
LIN {X 0.000,Y 0.000,Z 0.000} C_DIS
$VEL.CP=0.02
LIN {X 0.244,Y 0.099,Z 0.000} C_DIS
LIN {X 0.234,Y 0.148,Z 0.000} C_DIS
LIN {X 0.192,Y 0.175,Z 0.000} C_DIS
LIN {X -0.192,Y -0.175,Z 0.000} C_DIS
LIN {X -0.234,Y -0.148,Z 0.000} C_DIS
LIN {X -0.244,Y -0.099,Z 0.000} C_DIS
;rapid-leaky
LIN {X -0.104,Y 0.345,Z 0.000} C_DIS
$VEL.CP=0.03
LIN {X 0.000,Y 0.000,Z 0.000} C_DIS
;bead-perimeter_inner
$VEL.CP=0.02
LIN {X 0.183,Y 0.075,Z 0.000} C_DIS
LIN {X 0.181,Y 0.114,Z 0.000} C_DIS
LIN {X 0.153,Y 0.140,Z 0.000} C_DIS
LIN {X 0.130,Y 0.169,Z 0.000} C_DIS
LIN {X 0.104,Y 0.201,Z 0.000} C_DIS
LIN {X 0.047,Y 0.152,Z 0.000} C_DIS
LIN {X 0.035,Y 0.244,Z 0.000} C_DIS
LIN {X -0.012,Y 0.215,Z 0.000} C_DIS
LIN {X -0.047,Y 0.202,Z 0.000} C_DIS
LIN {X -0.083,Y 0.192,Z 0.000} C_DIS
LIN {X -0.128,Y 0.193,Z 0.000} C_DIS
LIN {X -0.201,Y 0.194,Z 0.000} C_DIS
LIN {X -0.164,Y 0.104,Z 0.000} C_DIS
LIN {X -0.229,Y 0.093,Z 0.000} C_DIS
LIN {X -0.227,Y 0.043,Z 0.000} C_DIS
LIN {X -0.173,Y 0.002,Z 0.000} C_DIS
LIN {X -0.244,Y -0.040,Z 0.000} C_DIS
LIN {X -0.188,Y -0.068,Z 0.000} C_DIS
LIN {X -0.178,Y -0.102,Z 0.000} C_DIS
LIN {X -0.176,Y -0.147,Z 0.000} C_DIS
LIN {X -0.103,Y -0.123,Z 0.000} C_DIS
LIN {X -0.085,Y -0.131,Z 0.000} C_DIS
LIN {X -0.081,Y -0.177,Z 0.000} C_DIS
LIN {X -0.055,Y -0.206,Z 0.000} C_DIS
LIN {X -0.015,Y -0.120,Z 0.000} C_DIS
LIN {X 0.003,Y -0.177,Z 0.000} C_DIS
LIN {X 0.045,Y -0.242,Z 0.000} C_DIS
LIN {X 0.071,Y -0.183,Z 0.000} C_DIS
LIN {X 0.106,Y -0.179,Z 0.000} C_DIS
LIN {X 0.114,Y -0.136,Z 0.000} C_DIS
LIN {X 0.176,Y -0.147,Z 0.000} C_DIS
LIN {X 0.211,Y -0.116,Z 0.000} C_DIS
LIN {X 0.193,Y -0.063,Z 0.000} C_DIS
LIN {X 0.224,Y -0.032,Z 0.000} C_DIS
LIN {X 0.172,Y 0.006,Z 0.000} C_DIS
LIN {X 0.241,Y 0.050,Z 0.000} C_DIS
$VEL.CP=0.03
LIN {X 0.000,Y 0.000,Z 0.000} C_DIS
$VEL.CP=0.02
LIN {X 0.183,Y 0.075,Z 0.000} C_DIS
LIN {X 0.181,Y 0.114,Z 0.000} C_DIS
LIN {X 0.153,Y 0.140,Z 0.000} C_DIS
LIN {X 0.110,Y 0.143,Z 0.000} C_DIS
LIN {X -0.110,Y -0.143,Z 0.000} C_DIS
LIN {X -0.153,Y -0.140,Z 0.000} C_DIS
LIN {X -0.181,Y -0.114,Z 0.000} C_DIS
LIN {X -0.183,Y -0.075,Z 0.000} C_DIS
;rapid-leaky
LIN {X -0.104,Y 0.345,Z 0.000} C_DIS
$VEL.CP=0.03
LIN {X 0.000,Y 0.000,Z 0.000} C_DIS
;bead-perimeter_inner
$VEL.CP=0.02
LIN {X 0.123,Y 0.051,Z 0.000} C_DIS
LIN {X 0.127,Y 0.080,Z 0.000} C_DIS
LIN {X 0.106,Y 0.097,Z 0.000} C_DIS
LIN {X 0.091,Y 0.118,Z 0.000} C_DIS
LIN {X 0.075,Y 0.147,Z 0.000} C_DIS
LIN {X 0.054,Y 0.270,Z 0.000} C_DIS
LIN {X -0.008,Y 0.152,Z 0.000} C_DIS
LIN {X -0.032,Y 0.139,Z 0.000} C_DIS
LIN {X -0.057,Y 0.133,Z 0.000} C_DIS
LIN {X -0.095,Y 0.142,Z 0.000} C_DIS
LIN {X -0.137,Y 0.130,Z 0.000} C_DIS
LIN {X -0.108,Y 0.070,Z 0.000} C_DIS
LIN {X -0.165,Y 0.067,Z 0.000} C_DIS
LIN {X -0.166,Y 0.031,Z 0.000} C_DIS
LIN {X -0.114,Y 0.001,Z 0.000} C_DIS
LIN {X -0.177,Y -0.030,Z 0.000} C_DIS
LIN {X -0.126,Y -0.046,Z 0.000} C_DIS
LIN {X -0.123,Y -0.070,Z 0.000} C_DIS
LIN {X -0.127,Y -0.107,Z 0.000} C_DIS
LIN {X -0.065,Y -0.078,Z 0.000} C_DIS
LIN {X -0.119,Y -0.219,Z 0.000} C_DIS
LIN {X -0.050,Y -0.235,Z 0.000} C_DIS
LIN {X 0.003,Y -0.117,Z 0.000} C_DIS
LIN {X 0.033,Y -0.174,Z 0.000} C_DIS
LIN {X 0.048,Y -0.123,Z 0.000} C_DIS
LIN {X 0.074,Y -0.124,Z 0.000} C_DIS
LIN {X 0.076,Y -0.092,Z 0.000} C_DIS
LIN {X 0.128,Y -0.107,Z 0.000} C_DIS
LIN {X 0.150,Y -0.082,Z 0.000} C_DIS
LIN {X 0.132,Y -0.043,Z 0.000} C_DIS
LIN {X 0.162,Y -0.023,Z 0.000} C_DIS
LIN {X 0.113,Y 0.005,Z 0.000} C_DIS
LIN {X 0.174,Y 0.037,Z 0.000} C_DIS
$VEL.CP=0.03
LIN {X 0.000,Y 0.000,Z 0.000} C_DIS
$VEL.CP=0.02
LIN {X 0.123,Y 0.051,Z 0.000} C_DIS
LIN {X 0.127,Y 0.080,Z 0.000} C_DIS
LIN {X 0.106,Y 0.097,Z 0.000} C_DIS
LIN {X 0.091,Y 0.118,Z 0.000} C_DIS
LIN {X 0.075,Y 0.147,Z 0.000} C_DIS
LIN {X 0.012,Y 0.058,Z 0.000} C_DIS
LIN {X -0.012,Y -0.058,Z 0.000} C_DIS
LIN {X -0.075,Y -0.147,Z 0.000} C_DIS
LIN {X -0.091,Y -0.118,Z 0.000} C_DIS
LIN {X -0.106,Y -0.097,Z 0.000} C_DIS
LIN {X -0.127,Y -0.080,Z 0.000} C_DIS
LIN {X -0.123,Y -0.051,Z 0.000} C_DIS
;rapid-leaky
LIN {X -0.104,Y 0.345,Z 0.000} C_DIS
$VEL.CP=0.03
LIN {X 0.000,Y 0.000,Z 0.000} C_DIS
;bead-perimeter_inner
$VEL.CP=0.02
LIN {X 0.099,Y 0.047,Z 0.000} C_DIS
LIN {X 0.095,Y 0.079,Z 0.000} C_DIS
LIN {X 0.074,Y 0.106,Z 0.000} C_DIS
LIN {X 0.035,Y 0.090,Z 0.000} C_DIS
LIN {X 0.017,Y 0.109,Z 0.000} C_DIS
LIN {X -0.012,Y 0.128,Z 0.000} C_DIS
LIN {X -0.042,Y 0.112,Z 0.000} C_DIS
LIN {X -0.059,Y 0.088,Z 0.000} C_DIS
LIN {X -0.108,Y 0.092,Z 0.000} C_DIS
LIN {X -0.121,Y 0.054,Z 0.000} C_DIS
LIN {X -0.159,Y 0.018,Z 0.000} C_DIS
LIN {X -0.128,Y -0.025,Z 0.000} C_DIS
LIN {X -0.113,Y -0.057,Z 0.000} C_DIS
LIN {X -0.105,Y -0.100,Z 0.000} C_DIS
LIN {X -0.073,Y -0.130,Z 0.000} C_DIS
LIN {X -0.029,Y -0.140,Z 0.000} C_DIS
LIN {X 0.005,Y -0.086,Z 0.000} C_DIS
LIN {X 0.044,Y -0.144,Z 0.000} C_DIS
LIN {X 0.079,Y -0.118,Z 0.000} C_DIS
LIN {X 0.079,Y -0.066,Z 0.000} C_DIS
LIN {X 0.091,Y -0.048,Z 0.000} C_DIS
LIN {X 0.110,Y -0.030,Z 0.000} C_DIS
LIN {X 0.114,Y -0.002,Z 0.000} C_DIS
LIN {X 0.107,Y 0.023,Z 0.000} C_DIS
$VEL.CP=0.03
LIN {X 0.000,Y 0.000,Z 0.000} C_DIS
$VEL.CP=0.02
LIN {X 0.099,Y 0.047,Z 0.000} C_DIS
LIN {X 0.095,Y 0.079,Z 0.000} C_DIS
LIN {X 0.074,Y 0.106,Z 0.000} C_DIS
LIN {X 0.035,Y 0.090,Z 0.000} C_DIS
LIN {X 0.017,Y 0.109,Z 0.000} C_DIS
LIN {X -0.012,Y 0.128,Z 0.000} C_DIS
LIN {X -0.036,Y 0.096,Z 0.000} C_DIS
LIN {X 0.036,Y -0.096,Z 0.000} C_DIS
LIN {X 0.012,Y -0.128,Z 0.000} C_DIS
LIN {X -0.017,Y -0.109,Z 0.000} C_DIS
LIN {X -0.035,Y -0.090,Z 0.000} C_DIS
LIN {X -0.074,Y -0.106,Z 0.000} C_DIS
LIN {X -0.095,Y -0.079,Z 0.000} C_DIS
LIN {X -0.099,Y -0.047,Z 0.000} C_DIS
;rapid-leaky
LIN {X -0.101,Y 0.347,Z 0.000} C_DIS
$VEL.CP=0.03
LIN {X 0.000,Y 0.000,Z 0.000} C_DIS
;bead-perimeter_inner
$VEL.CP=0.02
LIN {X 0.054,Y 0.060,Z 0.000} C_DIS
LIN {X 0.003,Y 0.076,Z 0.000} C_DIS
LIN {X -0.044,Y 0.060,Z 0.000} C_DIS
LIN {X -0.068,Y 0.020,Z 0.000} C_DIS
LIN {X -0.080,Y -0.034,Z 0.000} C_DIS
LIN {X -0.032,Y -0.074,Z 0.000} C_DIS
LIN {X 0.020,Y -0.071,Z 0.000} C_DIS
LIN {X 0.071,Y -0.047,Z 0.000} C_DIS
LIN {X 0.076,Y 0.010,Z 0.000} C_DIS
$VEL.CP=0.03
LIN {X 0.000,Y 0.000,Z 0.000} C_DIS
$VEL.CP=0.02
LIN {X 0.054,Y 0.060,Z 0.000} C_DIS
LIN {X 0.003,Y 0.076,Z 0.000} C_DIS
LIN {X -0.044,Y 0.060,Z 0.000} C_DIS
LIN {X -0.068,Y 0.020,Z 0.000} C_DIS
LIN {X -0.080,Y -0.034,Z 0.000} C_DIS
LIN {X -0.032,Y -0.074,Z 0.000} C_DIS
LIN {X 0.020,Y -0.071,Z 0.000} C_DIS
LIN {X 0.071,Y -0.047,Z 0.000} C_DIS
LIN {X 0.076,Y 0.010,Z 0.000} C_DIS
LIN {X -0.076,Y -0.010,Z 0.000} C_DIS
LIN {X -0.071,Y 0.047,Z 0.000} C_DIS
LIN {X -0.020,Y 0.071,Z 0.000} C_DIS
LIN {X 0.032,Y 0.074,Z 0.000} C_DIS
LIN {X 0.080,Y 0.034,Z 0.000} C_DIS
LIN {X 0.068,Y -0.020,Z 0.000} C_DIS
LIN {X 0.044,Y -0.060,Z 0.000} C_DIS
LIN {X -0.003,Y -0.076,Z 0.000} C_DIS
LIN {X -0.054,Y -0.060,Z 0.000} C_DIS
;rapid-dry
LIN {X -4.851,Y 0.188,Z -1.000} C_DIS
$VEL.CP=0.03
LIN {X 0.000,Y 0.000,Z 0.000} C_DIS
;bead-perimeter_outer
$VEL.CP=0.02
LIN {X 0.012,Y -0.426,Z 0.000} C_DIS
LIN {X 0.048,Y -0.421,Z 0.000} C_DIS
LIN {X 0.129,Y -0.577,Z 0.000} C_DIS
LIN {X 0.138,Y -0.404,Z 0.000} C_DIS
LIN {X 0.172,Y -0.391,Z 0.000} C_DIS
LIN {X 0.203,Y -0.367,Z 0.000} C_DIS
LIN {X 0.239,Y -0.354,Z 0.000} C_DIS
LIN {X 0.268,Y -0.332,Z 0.000} C_DIS
LIN {X 0.172,Y -0.183,Z 0.000} C_DIS
LIN {X 0.313,Y -0.290,Z 0.000} C_DIS
LIN {X 0.335,Y -0.260,Z 0.000} C_DIS
LIN {X 0.503,Y -0.311,Z 0.000} C_DIS
LIN {X 0.385,Y -0.185,Z 0.000} C_DIS
LIN {X 0.400,Y -0.149,Z 0.000} C_DIS
LIN {X 0.404,Y -0.112,Z 0.000} C_DIS
LIN {X 0.420,Y -0.078,Z 0.000} C_DIS
LIN {X 0.425,Y -0.039,Z 0.000} C_DIS
LIN {X 0.252,Y -0.006,Z 0.000} C_DIS
LIN {X 0.425,Y 0.021,Z 0.000} C_DIS
LIN {X 0.421,Y 0.058,Z 0.000} C_DIS
LIN {X 0.414,Y 0.095,Z 0.000} C_DIS
LIN {X 0.404,Y 0.131,Z 0.000} C_DIS
LIN {X 0.389,Y 0.167,Z 0.000} C_DIS
LIN {X 0.376,Y 0.200,Z 0.000} C_DIS
LIN {X 0.354,Y 0.232,Z 0.000} C_DIS
LIN {X 0.458,Y 0.374,Z 0.000} C_DIS
LIN {X 0.300,Y 0.305,Z 0.000} C_DIS
LIN {X 0.271,Y 0.327,Z 0.000} C_DIS
LIN {X 0.241,Y 0.351,Z 0.000} C_DIS
LIN {X 0.127,Y 0.217,Z 0.000} C_DIS
LIN {X 0.190,Y 0.383,Z 0.000} C_DIS
LIN {X 0.153,Y 0.395,Z 0.000} C_DIS
LIN {X 0.157,Y 0.570,Z 0.000} C_DIS
LIN {X 0.067,Y 0.422,Z 0.000} C_DIS
LIN {X 0.030,Y 0.423,Z 0.000} C_DIS
LIN {X -0.008,Y 0.427,Z 0.000} C_DIS
LIN {X -0.022,Y 0.253,Z 0.000} C_DIS
LIN {X -0.067,Y 0.420,Z 0.000} C_DIS
LIN {X -0.104,Y 0.409,Z 0.000} C_DIS
LIN {X -0.142,Y 0.404,Z 0.000} C_DIS
LIN {X -0.174,Y 0.383,Z 0.000} C_DIS
LIN {X -0.208,Y 0.371,Z 0.000} C_DIS
LIN {X -0.240,Y 0.350,Z 0.000} C_DIS
LIN {X -0.271,Y 0.327,Z 0.000} C_DIS
LIN {X -0.298,Y 0.303,Z 0.000} C_DIS
LIN {X -0.324,Y 0.274,Z 0.000} C_DIS
LIN {X -0.349,Y 0.247,Z 0.000} C_DIS
LIN {X -0.363,Y 0.211,Z 0.000} C_DIS
LIN {X -0.386,Y 0.181,Z 0.000} C_DIS
LIN {X -0.402,Y 0.146,Z 0.000} C_DIS
LIN {X -0.573,Y 0.142,Z 0.000} C_DIS
LIN {X -0.422,Y 0.058,Z 0.000} C_DIS
LIN {X -0.251,Y 0.017,Z 0.000} C_DIS
LIN {X -0.427,Y -0.002,Z 0.000} C_DIS
LIN {X -0.423,Y -0.039,Z 0.000} C_DIS
LIN {X -0.420,Y -0.078,Z 0.000} C_DIS
LIN {X -0.565,Y -0.167,Z 0.000} C_DIS
LIN {X -0.393,Y -0.163,Z 0.000} C_DIS
LIN {X -0.376,Y -0.197,Z 0.000} C_DIS
LIN {X -0.357,Y -0.230,Z 0.000} C_DIS
LIN {X -0.336,Y -0.260,Z 0.000} C_DIS
LIN {X -0.313,Y -0.290,Z 0.000} C_DIS
LIN {X -0.172,Y -0.183,Z 0.000} C_DIS
LIN {X -0.268,Y -0.332,Z 0.000} C_DIS
LIN {X -0.323,Y -0.497,Z 0.000} C_DIS
LIN {X -0.119,Y -0.224,Z 0.000} C_DIS
LIN {X -0.230,Y -0.546,Z 0.000} C_DIS
LIN {X -0.123,Y -0.410,Z 0.000} C_DIS
LIN {X -0.086,Y -0.416,Z 0.000} C_DIS
LIN {X -0.049,Y -0.423,Z 0.000} C_DIS
LIN {X -0.011,Y -0.252,Z 0.000} C_DIS
$VEL.CP=0.03
LIN {X 0.000,Y 0.000,Z 0.000} C_DIS
$VEL.CP=0.02
LIN {X 0.012,Y -0.426,Z 0.000} C_DIS
LIN {X 0.042,Y -0.371,Z 0.000} C_DIS
LIN {X -0.042,Y 0.371,Z 0.000} C_DIS
LIN {X -0.012,Y 0.426,Z 0.000} C_DIS
;rapid-leaky
LIN {X 0.360,Y -0.003,Z 0.000} C_DIS
$VEL.CP=0.03
LIN {X 0.000,Y 0.000,Z 0.000} C_DIS
;bead-perimeter_inner
$VEL.CP=0.02
LIN {X 0.011,Y -0.398,Z 0.000} C_DIS
LIN {X 0.045,Y -0.389,Z 0.000} C_DIS
LIN {X 0.118,Y -0.529,Z 0.000} C_DIS
LIN {X 0.128,Y -0.379,Z 0.000} C_DIS
LIN {X 0.161,Y -0.364,Z 0.000} C_DIS
LIN {X 0.109,Y -0.206,Z 0.000} C_DIS
LIN {X 0.299,Y -0.458,Z 0.000} C_DIS
LIN {X 0.250,Y -0.309,Z 0.000} C_DIS
LIN {X 0.154,Y -0.165,Z 0.000} C_DIS
LIN {X 0.292,Y -0.271,Z 0.000} C_DIS
LIN {X 0.310,Y -0.240,Z 0.000} C_DIS
LIN {X 0.337,Y -0.217,Z 0.000} C_DIS
LIN {X 0.485,Y -0.241,Z 0.000} C_DIS
LIN {X 0.372,Y -0.140,Z 0.000} C_DIS
LIN {X 0.366,Y -0.101,Z 0.000} C_DIS
LIN {X 0.394,Y -0.073,Z 0.000} C_DIS
LIN {X 0.395,Y -0.037,Z 0.000} C_DIS
LIN {X 0.227,Y -0.005,Z 0.000} C_DIS
LIN {X 0.397,Y 0.020,Z 0.000} C_DIS
LIN {X 0.389,Y 0.053,Z 0.000} C_DIS
LIN {X 0.382,Y 0.088,Z 0.000} C_DIS
LIN {X 0.374,Y 0.122,Z 0.000} C_DIS
LIN {X 0.361,Y 0.153,Z 0.000} C_DIS
LIN {X 0.347,Y 0.186,Z 0.000} C_DIS
LIN {X 0.328,Y 0.215,Z 0.000} C_DIS
LIN {X 0.420,Y 0.342,Z 0.000} C_DIS
LIN {X 0.281,Y 0.286,Z 0.000} C_DIS
LIN {X 0.251,Y 0.302,Z 0.000} C_DIS
LIN {X 0.224,Y 0.327,Z 0.000} C_DIS
LIN {X 0.291,Y 0.552,Z 0.000} C_DIS
LIN {X 0.142,Y 0.366,Z 0.000} C_DIS
LIN {X 0.144,Y 0.522,Z 0.000} C_DIS
LIN {X 0.063,Y 0.395,Z 0.000} C_DIS
LIN {X 0.028,Y 0.392,Z 0.000} C_DIS
LIN {X -0.008,Y 0.398,Z 0.000} C_DIS
LIN {X -0.020,Y 0.232,Z 0.000} C_DIS
LIN {X -0.095,Y 0.535,Z 0.000} C_DIS
LIN {X -0.062,Y 0.227,Z 0.000} C_DIS
LIN {X -0.134,Y 0.382,Z 0.000} C_DIS
LIN {X -0.157,Y 0.346,Z 0.000} C_DIS
LIN {X -0.195,Y 0.347,Z 0.000} C_DIS
LIN {X -0.221,Y 0.323,Z 0.000} C_DIS
LIN {X -0.251,Y 0.302,Z 0.000} C_DIS
LIN {X -0.276,Y 0.281,Z 0.000} C_DIS
LIN {X -0.299,Y 0.253,Z 0.000} C_DIS
LIN {X -0.328,Y 0.232,Z 0.000} C_DIS
LIN {X -0.328,Y 0.190,Z 0.000} C_DIS
LIN {X -0.360,Y 0.169,Z 0.000} C_DIS
LIN {X -0.512,Y 0.177,Z 0.000} C_DIS
LIN {X -0.390,Y 0.090,Z 0.000} C_DIS
LIN {X -0.394,Y 0.054,Z 0.000} C_DIS
LIN {X -0.226,Y 0.015,Z 0.000} C_DIS
LIN {X -0.398,Y -0.002,Z 0.000} C_DIS
LIN {X -0.390,Y -0.036,Z 0.000} C_DIS
LIN {X -0.532,Y -0.106,Z 0.000} C_DIS
LIN {X -0.380,Y -0.121,Z 0.000} C_DIS
LIN {X -0.363,Y -0.151,Z 0.000} C_DIS
LIN {X -0.348,Y -0.182,Z 0.000} C_DIS
LIN {X -0.331,Y -0.212,Z 0.000} C_DIS
LIN {X -0.310,Y -0.240,Z 0.000} C_DIS
LIN {X -0.446,Y -0.436,Z 0.000} C_DIS
LIN {X -0.250,Y -0.309,Z 0.000} C_DIS
LIN {X -0.299,Y -0.458,Z 0.000} C_DIS
LIN {X -0.109,Y -0.206,Z 0.000} C_DIS
LIN {X -0.213,Y -0.504,Z 0.000} C_DIS
LIN {X -0.115,Y -0.384,Z 0.000} C_DIS
LIN {X -0.079,Y -0.384,Z 0.000} C_DIS
LIN {X -0.056,Y -0.621,Z 0.000} C_DIS
$VEL.CP=0.03
LIN {X 0.000,Y 0.000,Z 0.000} C_DIS
$VEL.CP=0.02
LIN {X 0.011,Y -0.398,Z 0.000} C_DIS
LIN {X 0.045,Y -0.389,Z 0.000} C_DIS
LIN {X 0.002,Y -0.010,Z 0.000} C_DIS
LIN {X -0.002,Y 0.010,Z 0.000} C_DIS
LIN {X -0.045,Y 0.389,Z 0.000} C_DIS
LIN {X -0.011,Y 0.398,Z 0.000} C_DIS
;rapid-leaky
LIN {X 0.370,Y 0.198,Z 0.000} C_DIS
$VEL.CP=0.03
LIN {X 0.000,Y 0.000,Z 0.000} C_DIS
;bead-perimeter_inner
$VEL.CP=0.02
LIN {X 0.001,Y -0.570,Z 0.000} C_DIS
LIN {X 0.040,Y -0.358,Z 0.000} C_DIS
LIN {X 0.108,Y -0.481,Z 0.000} C_DIS
LIN {X 0.119,Y -0.353,Z 0.000} C_DIS
LIN {X 0.150,Y -0.338,Z 0.000} C_DIS
LIN {X 0.163,Y -0.296,Z 0.000} C_DIS
LIN {X 0.209,Y -0.311,Z 0.000} C_DIS
LIN {X 0.232,Y -0.286,Z 0.000} C_DIS
LIN {X 0.408,Y -0.398,Z 0.000} C_DIS
LIN {X 0.285,Y -0.221,Z 0.000} C_DIS
LIN {X 0.418,Y -0.260,Z 0.000} C_DIS
LIN {X 0.337,Y -0.161,Z 0.000} C_DIS
LIN {X 0.346,Y -0.129,Z 0.000} C_DIS
LIN {X 0.326,Y -0.091,Z 0.000} C_DIS
LIN {X 0.368,Y -0.068,Z 0.000} C_DIS
LIN {X 0.367,Y -0.034,Z 0.000} C_DIS
LIN {X 0.569,Y 0.014,Z 0.000} C_DIS
LIN {X 0.358,Y 0.049,Z 0.000} C_DIS
LIN {X 0.351,Y 0.080,Z 0.000} C_DIS
LIN {X 0.344,Y 0.112,Z 0.000} C_DIS
LIN {X 0.331,Y 0.141,Z 0.000} C_DIS
LIN {X 0.319,Y 0.171,Z 0.000} C_DIS
LIN {X 0.301,Y 0.197,Z 0.000} C_DIS
LIN {X 0.294,Y 0.232,Z 0.000} C_DIS
LIN {X 0.351,Y 0.345,Z 0.000} C_DIS
LIN {X 0.230,Y 0.278,Z 0.000} C_DIS
LIN {X 0.207,Y 0.303,Z 0.000} C_DIS
LIN {X 0.266,Y 0.505,Z 0.000} C_DIS
LIN {X 0.131,Y 0.336,Z 0.000} C_DIS
LIN {X 0.131,Y 0.475,Z 0.000} C_DIS
LIN {X 0.059,Y 0.367,Z 0.000} C_DIS
LIN {X 0.025,Y 0.360,Z 0.000} C_DIS
LIN {X -0.006,Y 0.370,Z 0.000} C_DIS
LIN {X -0.037,Y 0.346,Z 0.000} C_DIS
LIN {X -0.039,Y 0.223,Z 0.000} C_DIS
LIN {X -0.086,Y 0.337,Z 0.000} C_DIS
LIN {X -0.175,Y 0.476,Z 0.000} C_DIS
LIN {X -0.273,Y 0.516,Z 0.000} C_DIS
LIN {X -0.203,Y 0.296,Z 0.000} C_DIS
LIN {X -0.230,Y 0.278,Z 0.000} C_DIS
LIN {X -0.254,Y 0.258,Z 0.000} C_DIS
LIN {X -0.275,Y 0.232,Z 0.000} C_DIS
LIN {X -0.412,Y 0.283,Z 0.000} C_DIS
LIN {X -0.521,Y 0.261,Z 0.000} C_DIS
LIN {X -0.466,Y 0.161,Z 0.000} C_DIS
LIN {X -0.363,Y 0.083,Z 0.000} C_DIS
LIN {X -0.366,Y 0.050,Z 0.000} C_DIS
LIN {X -0.569,Y 0.012,Z 0.000} C_DIS
LIN {X -0.359,Y -0.033,Z 0.000} C_DIS
LIN {X -0.483,Y -0.096,Z 0.000} C_DIS
LIN {X -0.354,Y -0.112,Z 0.000} C_DIS
LIN {X -0.335,Y -0.139,Z 0.000} C_DIS
LIN {X -0.319,Y -0.167,Z 0.000} C_DIS
LIN {X -0.304,Y -0.195,Z 0.000} C_DIS
LIN {X -0.285,Y -0.221,Z 0.000} C_DIS
LIN {X -0.408,Y -0.398,Z 0.000} C_DIS
LIN {X -0.232,Y -0.286,Z 0.000} C_DIS
LIN {X -0.274,Y -0.420,Z 0.000} C_DIS
LIN {X -0.098,Y -0.187,Z 0.000} C_DIS
LIN {X -0.196,Y -0.461,Z 0.000} C_DIS
LIN {X -0.107,Y -0.358,Z 0.000} C_DIS
LIN {X -0.074,Y -0.353,Z 0.000} C_DIS
LIN {X -0.041,Y -0.366,Z 0.000} C_DIS
$VEL.CP=0.03
LIN {X 0.000,Y 0.000,Z 0.000} C_DIS
$VEL.CP=0.02
LIN {X 0.001,Y -0.570,Z 0.000} C_DIS
LIN {X 0.026,Y -0.228,Z 0.000} C_DIS
LIN {X -0.026,Y 0.228,Z 0.000} C_DIS
LIN {X -0.001,Y 0.570,Z 0.000} C_DIS
;rapid-leaky
LIN {X 0.359,Y -0.028,Z 0.000} C_DIS
$VEL.CP=0.03
LIN {X 0.000,Y 0.000,Z 0.000} C_DIS
;bead-perimeter_inner
$VEL.CP=0.02
LIN {X 0.001,Y -0.517,Z 0.000} C_DIS
LIN {X 0.037,Y -0.326,Z 0.000} C_DIS
LIN {X 0.096,Y -0.433,Z 0.000} C_DIS
LIN {X 0.111,Y -0.327,Z 0.000} C_DIS
LIN {X 0.138,Y -0.312,Z 0.000} C_DIS
LIN {X 0.143,Y -0.260,Z 0.000} C_DIS
LIN {X 0.195,Y -0.289,Z 0.000} C_DIS
LIN {X 0.214,Y -0.265,Z 0.000} C_DIS
LIN {X 0.369,Y -0.359,Z 0.000} C_DIS
LIN {X 0.260,Y -0.201,Z 0.000} C_DIS
LIN {X 0.376,Y -0.235,Z 0.000} C_DIS
LIN {X 0.312,Y -0.149,Z 0.000} C_DIS
LIN {X 0.320,Y -0.120,Z 0.000} C_DIS
LIN {X 0.287,Y -0.080,Z 0.000} C_DIS
LIN {X 0.341,Y -0.063,Z 0.000} C_DIS
LIN {X 0.339,Y -0.031,Z 0.000} C_DIS
LIN {X 0.515,Y 0.013,Z 0.000} C_DIS
LIN {X 0.326,Y 0.044,Z 0.000} C_DIS
LIN {X 0.320,Y 0.074,Z 0.000} C_DIS
LIN {X 0.313,Y 0.102,Z 0.000} C_DIS
LIN {X 0.302,Y 0.128,Z 0.000} C_DIS
LIN {X 0.291,Y 0.156,Z 0.000} C_DIS
LIN {X 0.275,Y 0.180,Z 0.000} C_DIS
LIN {X 0.273,Y 0.215,Z 0.000} C_DIS
LIN {X 0.315,Y 0.311,Z 0.000} C_DIS
LIN {X 0.209,Y 0.253,Z 0.000} C_DIS
LIN {X 0.191,Y 0.279,Z 0.000} C_DIS
LIN {X 0.241,Y 0.457,Z 0.000} C_DIS
LIN {X 0.119,Y 0.307,Z 0.000} C_DIS
LIN {X 0.119,Y 0.427,Z 0.000} C_DIS
LIN {X 0.054,Y 0.340,Z 0.000} C_DIS
LIN {X 0.023,Y 0.328,Z 0.000} C_DIS
LIN {X -0.006,Y 0.342,Z 0.000} C_DIS
LIN {X -0.033,Y 0.309,Z 0.000} C_DIS
LIN {X -0.113,Y 0.509,Z 0.000} C_DIS
LIN {X -0.118,Y 0.337,Z 0.000} C_DIS
LIN {X -0.125,Y 0.274,Z 0.000} C_DIS
LIN {X -0.167,Y 0.298,Z 0.000} C_DIS
LIN {X -0.185,Y 0.269,Z 0.000} C_DIS
LIN {X -0.209,Y 0.253,Z 0.000} C_DIS
LIN {X -0.232,Y 0.235,Z 0.000} C_DIS
LIN {X -0.251,Y 0.212,Z 0.000} C_DIS
LIN {X -0.374,Y 0.257,Z 0.000} C_DIS
LIN {X -0.477,Y 0.239,Z 0.000} C_DIS
LIN {X -0.418,Y 0.145,Z 0.000} C_DIS
LIN {X -0.337,Y 0.078,Z 0.000} C_DIS
LIN {X -0.337,Y 0.046,Z 0.000} C_DIS
LIN {X -0.516,Y 0.010,Z 0.000} C_DIS
LIN {X -0.326,Y -0.030,Z 0.000} C_DIS
LIN {X -0.436,Y -0.086,Z 0.000} C_DIS
LIN {X -0.328,Y -0.104,Z 0.000} C_DIS
LIN {X -0.305,Y -0.126,Z 0.000} C_DIS
LIN {X -0.291,Y -0.153,Z 0.000} C_DIS
LIN {X -0.277,Y -0.178,Z 0.000} C_DIS
LIN {X -0.260,Y -0.201,Z 0.000} C_DIS
LIN {X -0.369,Y -0.359,Z 0.000} C_DIS
LIN {X -0.214,Y -0.265,Z 0.000} C_DIS
LIN {X -0.250,Y -0.381,Z 0.000} C_DIS
LIN {X -0.088,Y -0.168,Z 0.000} C_DIS
LIN {X -0.178,Y -0.418,Z 0.000} C_DIS
LIN {X -0.100,Y -0.332,Z 0.000} C_DIS
LIN {X -0.067,Y -0.322,Z 0.000} C_DIS
LIN {X -0.038,Y -0.337,Z 0.000} C_DIS
$VEL.CP=0.03
LIN {X 0.000,Y 0.000,Z 0.000} C_DIS
$VEL.CP=0.02
LIN {X 0.001,Y -0.517,Z 0.000} C_DIS
LIN {X 0.032,Y -0.282,Z 0.000} C_DIS
LIN {X -0.032,Y 0.282,Z 0.000} C_DIS
LIN {X -0.001,Y 0.517,Z 0.000} C_DIS
;rapid-leaky
LIN {X 0.352,Y -0.180,Z 0.000} C_DIS
$VEL.CP=0.03
LIN {X 0.000,Y 0.000,Z 0.000} C_DIS
;bead-perimeter_inner
$VEL.CP=0.02
LIN {X 0.008,Y -0.312,Z 0.000} C_DIS
LIN {X 0.034,Y -0.294,Z 0.000} C_DIS
LIN {X 0.085,Y -0.385,Z 0.000} C_DIS
LIN {X 0.102,Y -0.301,Z 0.000} C_DIS
LIN {X 0.205,Y -0.435,Z 0.000} C_DIS
LIN {X 0.225,Y -0.343,Z 0.000} C_DIS
LIN {X 0.195,Y -0.242,Z 0.000} C_DIS
LIN {X 0.331,Y -0.321,Z 0.000} C_DIS
LIN {X 0.235,Y -0.182,Z 0.000} C_DIS
LIN {X 0.334,Y -0.209,Z 0.000} C_DIS
LIN {X 0.287,Y -0.138,Z 0.000} C_DIS
LIN {X 0.456,Y -0.158,Z 0.000} C_DIS
LIN {X 0.401,Y -0.079,Z 0.000} C_DIS
LIN {X 0.310,Y -0.029,Z 0.000} C_DIS
LIN {X 0.461,Y 0.012,Z 0.000} C_DIS
LIN {X 0.295,Y 0.041,Z 0.000} C_DIS
LIN {X 0.288,Y 0.066,Z 0.000} C_DIS
LIN {X 0.283,Y 0.092,Z 0.000} C_DIS
LIN {X 0.273,Y 0.116,Z 0.000} C_DIS
LIN {X 0.262,Y 0.141,Z 0.000} C_DIS
LIN {X 0.248,Y 0.162,Z 0.000} C_DIS
LIN {X 0.306,Y 0.247,Z 0.000} C_DIS
LIN {X 0.225,Y 0.229,Z 0.000} C_DIS
LIN {X 0.190,Y 0.228,Z 0.000} C_DIS
LIN {X 0.250,Y 0.385,Z 0.000} C_DIS
LIN {X 0.139,Y 0.280,Z 0.000} C_DIS
LIN {X 0.108,Y 0.277,Z 0.000} C_DIS
LIN {X 0.106,Y 0.379,Z 0.000} C_DIS
LIN {X 0.050,Y 0.314,Z 0.000} C_DIS
LIN {X 0.021,Y 0.296,Z 0.000} C_DIS
LIN {X -0.006,Y 0.313,Z 0.000} C_DIS
LIN {X -0.029,Y 0.273,Z 0.000} C_DIS
LIN {X -0.056,Y 0.290,Z 0.000} C_DIS
LIN {X -0.045,Y 0.167,Z 0.000} C_DIS
LIN {X -0.144,Y 0.395,Z 0.000} C_DIS
LIN {X -0.228,Y 0.431,Z 0.000} C_DIS
LIN {X -0.166,Y 0.242,Z 0.000} C_DIS
LIN {X -0.190,Y 0.228,Z 0.000} C_DIS
LIN {X -0.209,Y 0.213,Z 0.000} C_DIS
LIN {X -0.227,Y 0.192,Z 0.000} C_DIS
LIN {X -0.262,Y 0.186,Z 0.000} C_DIS
LIN {X -0.223,Y 0.128,Z 0.000} C_DIS
LIN {X -0.283,Y 0.133,Z 0.000} C_DIS
LIN {X -0.372,Y 0.130,Z 0.000} C_DIS
LIN {X -0.309,Y 0.071,Z 0.000} C_DIS
LIN {X -0.460,Y 0.053,Z 0.000} C_DIS
LIN {X -0.311,Y -0.002,Z 0.000} C_DIS
LIN {X -0.295,Y -0.027,Z 0.000} C_DIS
LIN {X -0.388,Y -0.076,Z 0.000} C_DIS
LIN {X -0.301,Y -0.095,Z 0.000} C_DIS
LIN {X -0.276,Y -0.115,Z 0.000} C_DIS
LIN {X -0.263,Y -0.137,Z 0.000} C_DIS
LIN {X -0.250,Y -0.161,Z 0.000} C_DIS
LIN {X -0.235,Y -0.182,Z 0.000} C_DIS
LIN {X -0.331,Y -0.321,Z 0.000} C_DIS
LIN {X -0.195,Y -0.242,Z 0.000} C_DIS
LIN {X -0.181,Y -0.267,Z 0.000} C_DIS
LIN {X -0.123,Y -0.225,Z 0.000} C_DIS
LIN {X -0.135,Y -0.306,Z 0.000} C_DIS
LIN {X -0.118,Y -0.376,Z 0.000} C_DIS
LIN {X -0.060,Y -0.290,Z 0.000} C_DIS
LIN {X -0.042,Y -0.460,Z 0.000} C_DIS
$VEL.CP=0.03
LIN {X 0.000,Y 0.000,Z 0.000} C_DIS
$VEL.CP=0.02
LIN {X 0.008,Y -0.312,Z 0.000} C_DIS
LIN {X 0.034,Y -0.294,Z 0.000} C_DIS
LIN {X 0.041,Y -0.187,Z 0.000} C_DIS
LIN {X -0.041,Y 0.187,Z 0.000} C_DIS
LIN {X -0.034,Y 0.294,Z 0.000} C_DIS
LIN {X -0.008,Y 0.312,Z 0.000} C_DIS
;rapid-leaky
LIN {X 0.360,Y -0.003,Z 0.000} C_DIS
$VEL.CP=0.03
LIN {X 0.000,Y 0.000,Z 0.000} C_DIS
;bead-perimeter_inner
$VEL.CP=0.02
LIN {X 0.008,Y -0.283,Z 0.000} C_DIS
LIN {X 0.030,Y -0.263,Z 0.000} C_DIS
LIN {X 0.073,Y -0.337,Z 0.000} C_DIS
LIN {X 0.093,Y -0.275,Z 0.000} C_DIS
LIN {X 0.184,Y -0.390,Z 0.000} C_DIS
LIN {X 0.201,Y -0.305,Z 0.000} C_DIS
LIN {X 0.177,Y -0.219,Z 0.000} C_DIS
LIN {X 0.292,Y -0.284,Z 0.000} C_DIS
LIN {X 0.210,Y -0.162,Z 0.000} C_DIS
LIN {X 0.291,Y -0.183,Z 0.000} C_DIS
LIN {X 0.263,Y -0.126,Z 0.000} C_DIS
LIN {X 0.409,Y -0.142,Z 0.000} C_DIS
LIN {X 0.356,Y -0.070,Z 0.000} C_DIS
LIN {X 0.281,Y -0.026,Z 0.000} C_DIS
LIN {X 0.407,Y 0.011,Z 0.000} C_DIS
LIN {X 0.264,Y 0.036,Z 0.000} C_DIS
LIN {X 0.257,Y 0.059,Z 0.000} C_DIS
LIN {X 0.252,Y 0.082,Z 0.000} C_DIS
LIN {X 0.244,Y 0.104,Z 0.000} C_DIS
LIN {X 0.234,Y 0.126,Z 0.000} C_DIS
LIN {X 0.222,Y 0.145,Z 0.000} C_DIS
LIN {X 0.268,Y 0.215,Z 0.000} C_DIS
LIN {X 0.206,Y 0.209,Z 0.000} C_DIS
LIN {X 0.169,Y 0.204,Z 0.000} C_DIS
LIN {X 0.221,Y 0.339,Z 0.000} C_DIS
LIN {X 0.126,Y 0.254,Z 0.000} C_DIS
LIN {X 0.097,Y 0.248,Z 0.000} C_DIS
LIN {X 0.093,Y 0.332,Z 0.000} C_DIS
LIN {X 0.046,Y 0.286,Z 0.000} C_DIS
LIN {X 0.019,Y 0.264,Z 0.000} C_DIS
LIN {X -0.005,Y 0.285,Z 0.000} C_DIS
LIN {X -0.025,Y 0.236,Z 0.000} C_DIS
LIN {X -0.050,Y 0.259,Z 0.000} C_DIS
LIN {X -0.169,Y 0.502,Z 0.000} C_DIS
LIN {X -0.206,Y 0.387,Z 0.000} C_DIS
LIN {X -0.147,Y 0.216,Z 0.000} C_DIS
LIN {X -0.169,Y 0.204,Z 0.000} C_DIS
LIN {X -0.187,Y 0.190,Z 0.000} C_DIS
LIN {X -0.202,Y 0.171,Z 0.000} C_DIS
LIN {X -0.241,Y 0.171,Z 0.000} C_DIS
LIN {X -0.445,Y 0.228,Z 0.000} C_DIS
LIN {X -0.325,Y 0.115,Z 0.000} C_DIS
LIN {X -0.283,Y 0.065,Z 0.000} C_DIS
LIN {X -0.406,Y 0.047,Z 0.000} C_DIS
LIN {X -0.282,Y -0.002,Z 0.000} C_DIS
LIN {X -0.264,Y -0.024,Z 0.000} C_DIS
LIN {X -0.340,Y -0.066,Z 0.000} C_DIS
LIN {X -0.275,Y -0.087,Z 0.000} C_DIS
LIN {X -0.246,Y -0.102,Z 0.000} C_DIS
LIN {X -0.235,Y -0.123,Z 0.000} C_DIS
LIN {X -0.223,Y -0.143,Z 0.000} C_DIS
LIN {X -0.210,Y -0.162,Z 0.000} C_DIS
LIN {X -0.292,Y -0.284,Z 0.000} C_DIS
LIN {X -0.177,Y -0.219,Z 0.000} C_DIS
LIN {X -0.166,Y -0.246,Z 0.000} C_DIS
LIN {X -0.104,Y -0.189,Z 0.000} C_DIS
LIN {X -0.126,Y -0.285,Z 0.000} C_DIS
LIN {X -0.101,Y -0.328,Z 0.000} C_DIS
LIN {X -0.054,Y -0.259,Z 0.000} C_DIS
LIN {X -0.038,Y -0.406,Z 0.000} C_DIS
$VEL.CP=0.03
LIN {X 0.000,Y 0.000,Z 0.000} C_DIS
$VEL.CP=0.02
LIN {X 0.008,Y -0.283,Z 0.000} C_DIS
LIN {X 0.030,Y -0.263,Z 0.000} C_DIS
LIN {X 0.053,Y -0.246,Z 0.000} C_DIS
LIN {X -0.053,Y 0.246,Z 0.000} C_DIS
LIN {X -0.030,Y 0.263,Z 0.000} C_DIS
LIN {X -0.008,Y 0.283,Z 0.000} C_DIS
;rapid-leaky
LIN {X 0.360,Y -0.003,Z 0.000} C_DIS
$VEL.CP=0.03
LIN {X 0.000,Y 0.000,Z 0.000} C_DIS
;bead-perimeter_inner
$VEL.CP=0.02
LIN {X 0.007,Y -0.255,Z 0.000} C_DIS
LIN {X 0.027,Y -0.231,Z 0.000} C_DIS
LIN {X 0.062,Y -0.289,Z 0.000} C_DIS
LIN {X 0.084,Y -0.250,Z 0.000} C_DIS
LIN {X 0.162,Y -0.344,Z 0.000} C_DIS
LIN {X 0.176,Y -0.267,Z 0.000} C_DIS
LIN {X 0.160,Y -0.197,Z 0.000} C_DIS
LIN {X 0.254,Y -0.245,Z 0.000} C_DIS
LIN {X 0.184,Y -0.143,Z 0.000} C_DIS
LIN {X 0.249,Y -0.157,Z 0.000} C_DIS
LIN {X 0.238,Y -0.114,Z 0.000} C_DIS
LIN {X 0.363,Y -0.127,Z 0.000} C_DIS
LIN {X 0.311,Y -0.060,Z 0.000} C_DIS
LIN {X 0.252,Y -0.023,Z 0.000} C_DIS
LIN {X 0.353,Y 0.010,Z 0.000} C_DIS
LIN {X 0.232,Y 0.032,Z 0.000} C_DIS
LIN {X 0.225,Y 0.052,Z 0.000} C_DIS
LIN {X 0.223,Y 0.072,Z 0.000} C_DIS
LIN {X 0.214,Y 0.091,Z 0.000} C_DIS
LIN {X 0.206,Y 0.110,Z 0.000} C_DIS
LIN {X 0.195,Y 0.128,Z 0.000} C_DIS
LIN {X 0.230,Y 0.184,Z 0.000} C_DIS
LIN {X 0.188,Y 0.190,Z 0.000} C_DIS
LIN {X 0.148,Y 0.179,Z 0.000} C_DIS
LIN {X 0.192,Y 0.293,Z 0.000} C_DIS
LIN {X 0.114,Y 0.229,Z 0.000} C_DIS
LIN {X 0.084,Y 0.218,Z 0.000} C_DIS
LIN {X 0.082,Y 0.284,Z 0.000} C_DIS
LIN {X 0.041,Y 0.259,Z 0.000} C_DIS
LIN {X 0.016,Y 0.232,Z 0.000} C_DIS
LIN {X -0.004,Y 0.257,Z 0.000} C_DIS
LIN {X -0.064,Y 0.427,Z 0.000} C_DIS
LIN {X -0.148,Y 0.441,Z 0.000} C_DIS
LIN {X -0.184,Y 0.345,Z 0.000} C_DIS
LIN {X -0.129,Y 0.189,Z 0.000} C_DIS
LIN {X -0.313,Y 0.347,Z 0.000} C_DIS
LIN {X -0.178,Y 0.150,Z 0.000} C_DIS
LIN {X -0.220,Y 0.156,Z 0.000} C_DIS
LIN {X -0.383,Y 0.195,Z 0.000} C_DIS
LIN {X -0.278,Y 0.099,Z 0.000} C_DIS
LIN {X -0.257,Y 0.059,Z 0.000} C_DIS
LIN {X -0.353,Y 0.042,Z 0.000} C_DIS
LIN {X -0.253,Y -0.001,Z 0.000} C_DIS
LIN {X -0.231,Y -0.022,Z 0.000} C_DIS
LIN {X -0.292,Y -0.056,Z 0.000} C_DIS
LIN {X -0.249,Y -0.078,Z 0.000} C_DIS
LIN {X -0.217,Y -0.090,Z 0.000} C_DIS
LIN {X -0.207,Y -0.108,Z 0.000} C_DIS
LIN {X -0.196,Y -0.127,Z 0.000} C_DIS
LIN {X -0.184,Y -0.142,Z 0.000} C_DIS
LIN {X -0.254,Y -0.245,Z 0.000} C_DIS
LIN {X -0.160,Y -0.197,Z 0.000} C_DIS
LIN {X -0.151,Y -0.224,Z 0.000} C_DIS
LIN {X -0.084,Y -0.154,Z 0.000} C_DIS
LIN {X -0.116,Y -0.263,Z 0.000} C_DIS
LIN {X -0.086,Y -0.282,Z 0.000} C_DIS
LIN {X -0.047,Y -0.227,Z 0.000} C_DIS
LIN {X -0.034,Y -0.352,Z 0.000} C_DIS
$VEL.CP=0.03
LIN {X 0.000,Y 0.000,Z 0.000} C_DIS
$VEL.CP=0.02
LIN {X 0.007,Y -0.255,Z 0.000} C_DIS
LIN {X 0.027,Y -0.231,Z 0.000} C_DIS
LIN {X 0.062,Y -0.289,Z 0.000} C_DIS
LIN {X 0.005,Y -0.016,Z 0.000} C_DIS
LIN {X -0.005,Y 0.016,Z 0.000} C_DIS
LIN {X -0.062,Y 0.289,Z 0.000} C_DIS
LIN {X -0.027,Y 0.231,Z 0.000} C_DIS
LIN {X -0.007,Y 0.255,Z 0.000} C_DIS
;rapid-leaky
LIN {X 0.361,Y -0.003,Z 0.000} C_DIS
$VEL.CP=0.03
LIN {X 0.000,Y 0.000,Z 0.000} C_DIS
;bead-perimeter_inner
$VEL.CP=0.02
LIN {X 0.028,Y -0.425,Z 0.000} C_DIS
LIN {X 0.051,Y -0.242,Z 0.000} C_DIS
LIN {X 0.076,Y -0.224,Z 0.000} C_DIS
LIN {X 0.141,Y -0.300,Z 0.000} C_DIS
LIN {X 0.151,Y -0.227,Z 0.000} C_DIS
LIN {X 0.141,Y -0.175,Z 0.000} C_DIS
LIN {X 0.216,Y -0.207,Z 0.000} C_DIS
LIN {X 0.159,Y -0.123,Z 0.000} C_DIS
LIN {X 0.201,Y -0.129,Z 0.000} C_DIS
LIN {X 0.219,Y -0.106,Z 0.000} C_DIS
LIN {X 0.316,Y -0.110,Z 0.000} C_DIS
LIN {X 0.266,Y -0.051,Z 0.000} C_DIS
LIN {X 0.224,Y -0.021,Z 0.000} C_DIS
LIN {X 0.298,Y 0.010,Z 0.000} C_DIS
LIN {X 0.201,Y 0.027,Z 0.000} C_DIS
LIN {X 0.386,Y 0.107,Z 0.000} C_DIS
LIN {X 0.363,Y 0.174,Z 0.000} C_DIS
LIN {X 0.358,Y 0.260,Z 0.000} C_DIS
LIN {X 0.300,Y 0.328,Z 0.000} C_DIS
LIN {X 0.162,Y 0.247,Z 0.000} C_DIS
LIN {X 0.174,Y 0.392,Z 0.000} C_DIS
LIN {X 0.068,Y 0.231,Z 0.000} C_DIS
LIN {X 0.038,Y 0.237,Z 0.000} C_DIS
LIN {X 0.010,Y 0.430,Z 0.000} C_DIS
LIN {X -0.054,Y 0.358,Z 0.000} C_DIS
LIN {X -0.127,Y 0.381,Z 0.000} C_DIS
LIN {X -0.161,Y 0.302,Z 0.000} C_DIS
LIN {X -0.110,Y 0.162,Z 0.000} C_DIS
LIN {X -0.271,Y 0.299,Z 0.000} C_DIS
LIN {X -0.352,Y 0.271,Z 0.000} C_DIS
LIN {X -0.323,Y 0.163,Z 0.000} C_DIS
LIN {X -0.222,Y 0.080,Z 0.000} C_DIS
LIN {X -0.239,Y 0.056,Z 0.000} C_DIS
LIN {X -0.299,Y 0.036,Z 0.000} C_DIS
LIN {X -0.424,Y -0.020,Z 0.000} C_DIS
LIN {X -0.244,Y -0.045,Z 0.000} C_DIS
LIN {X -0.223,Y -0.071,Z 0.000} C_DIS
LIN {X -0.366,Y -0.171,Z 0.000} C_DIS
LIN {X -0.328,Y -0.232,Z 0.000} C_DIS
LIN {X -0.216,Y -0.207,Z 0.000} C_DIS
LIN {X -0.141,Y -0.175,Z 0.000} C_DIS
LIN {X -0.200,Y -0.320,Z 0.000} C_DIS
LIN {X -0.107,Y -0.242,Z 0.000} C_DIS
LIN {X -0.071,Y -0.234,Z 0.000} C_DIS
LIN {X -0.041,Y -0.197,Z 0.000} C_DIS
LIN {X -0.028,Y -0.297,Z 0.000} C_DIS
$VEL.CP=0.03
LIN {X 0.000,Y 0.000,Z 0.000} C_DIS
$VEL.CP=0.02
LIN {X 0.028,Y -0.425,Z 0.000} C_DIS
LIN {X 0.051,Y -0.242,Z 0.000} C_DIS
LIN {X 0.041,Y -0.120,Z 0.000} C_DIS
LIN {X -0.041,Y 0.120,Z 0.000} C_DIS
LIN {X -0.051,Y 0.242,Z 0.000} C_DIS
LIN {X -0.028,Y 0.425,Z 0.000} C_DIS
;rapid-leaky
LIN {X 0.360,Y -0.004,Z 0.000} C_DIS
$VEL.CP=0.03
LIN {X 0.000,Y 0.000,Z 0.000} C_DIS
;bead-perimeter_inner
$VEL.CP=0.02
LIN {X 0.024,Y -0.364,Z 0.000} C_DIS
LIN {X 0.042,Y -0.200,Z 0.000} C_DIS
LIN {X 0.145,Y -0.373,Z 0.000} C_DIS
LIN {X 0.166,Y -0.263,Z 0.000} C_DIS
LIN {X 0.155,Y -0.187,Z 0.000} C_DIS
LIN {X 0.279,Y -0.238,Z 0.000} C_DIS
LIN {X 0.171,Y -0.110,Z 0.000} C_DIS
LIN {X 0.182,Y -0.087,Z 0.000} C_DIS
LIN {X 0.270,Y -0.095,Z 0.000} C_DIS
LIN {X 0.416,Y -0.059,Z 0.000} C_DIS
LIN {X 0.244,Y 0.009,Z 0.000} C_DIS
LIN {X 0.332,Y 0.060,Z 0.000} C_DIS
LIN {X 0.318,Y 0.119,Z 0.000} C_DIS
LIN {X 0.291,Y 0.173,Z 0.000} C_DIS
LIN {X 0.161,Y 0.127,Z 0.000} C_DIS
LIN {X 0.251,Y 0.275,Z 0.000} C_DIS
LIN {X 0.108,Y 0.158,Z 0.000} C_DIS
LIN {X 0.113,Y 0.221,Z 0.000} C_DIS
LIN {X 0.062,Y 0.159,Z 0.000} C_DIS
LIN {X 0.058,Y 0.197,Z 0.000} C_DIS
LIN {X 0.031,Y 0.196,Z 0.000} C_DIS
LIN {X 0.012,Y 0.169,Z 0.000} C_DIS
LIN {X -0.011,Y 0.284,Z 0.000} C_DIS
LIN {X -0.036,Y 0.206,Z 0.000} C_DIS
LIN {X -0.103,Y 0.314,Z 0.000} C_DIS
LIN {X -0.142,Y 0.267,Z 0.000} C_DIS
LIN {X -0.092,Y 0.135,Z 0.000} C_DIS
LIN {X -0.228,Y 0.252,Z 0.000} C_DIS
LIN {X -0.306,Y 0.235,Z 0.000} C_DIS
LIN {X -0.262,Y 0.130,Z 0.000} C_DIS
LIN {X -0.190,Y 0.069,Z 0.000} C_DIS
LIN {X -0.395,Y 0.072,Z 0.000} C_DIS
LIN {X -0.244,Y 0.003,Z 0.000} C_DIS
LIN {X -0.168,Y -0.016,Z 0.000} C_DIS
LIN {X -0.203,Y -0.037,Z 0.000} C_DIS
LIN {X -0.189,Y -0.060,Z 0.000} C_DIS
LIN {X -0.159,Y -0.066,Z 0.000} C_DIS
LIN {X -0.292,Y -0.170,Z 0.000} C_DIS
LIN {X -0.279,Y -0.238,Z 0.000} C_DIS
LIN {X -0.155,Y -0.187,Z 0.000} C_DIS
LIN {X -0.122,Y -0.181,Z 0.000} C_DIS
LIN {X -0.138,Y -0.294,Z 0.000} C_DIS
LIN {X -0.093,Y -0.361,Z 0.000} C_DIS
LIN {X -0.024,Y -0.244,Z 0.000} C_DIS
$VEL.CP=0.03
LIN {X 0.000,Y 0.000,Z 0.000} C_DIS
$VEL.CP=0.02
LIN {X 0.024,Y -0.364,Z 0.000} C_DIS
LIN {X 0.042,Y -0.200,Z 0.000} C_DIS
LIN {X 0.083,Y -0.215,Z 0.000} C_DIS
LIN {X -0.083,Y 0.215,Z 0.000} C_DIS
LIN {X -0.042,Y 0.200,Z 0.000} C_DIS
LIN {X -0.024,Y 0.364,Z 0.000} C_DIS
;rapid-leaky
LIN {X 0.360,Y -0.003,Z 0.000} C_DIS
$VEL.CP=0.03
LIN {X 0.000,Y 0.000,Z 0.000} C_DIS
;bead-perimeter_inner
$VEL.CP=0.02
LIN {X 0.020,Y -0.304,Z 0.000} C_DIS
LIN {X 0.034,Y -0.162,Z 0.000} C_DIS
LIN {X 0.121,Y -0.311,Z 0.000} C_DIS
LIN {X 0.132,Y -0.206,Z 0.000} C_DIS
LIN {X 0.119,Y -0.145,Z 0.000} C_DIS
LIN {X 0.233,Y -0.200,Z 0.000} C_DIS
LIN {X 0.139,Y -0.089,Z 0.000} C_DIS
LIN {X 0.147,Y -0.071,Z 0.000} C_DIS
LIN {X 0.218,Y -0.077,Z 0.000} C_DIS
LIN {X 0.347,Y -0.049,Z 0.000} C_DIS
LIN {X 0.190,Y 0.008,Z 0.000} C_DIS
LIN {X 0.270,Y 0.049,Z 0.000} C_DIS
LIN {X 0.258,Y 0.097,Z 0.000} C_DIS
LIN {X 0.237,Y 0.141,Z 0.000} C_DIS
LIN {X 0.130,Y 0.102,Z 0.000} C_DIS
LIN {X 0.204,Y 0.224,Z 0.000} C_DIS
LIN {X 0.092,Y 0.134,Z 0.000} C_DIS
LIN {X 0.138,Y 0.302,Z 0.000} C_DIS
LIN {X 0.047,Y 0.161,Z 0.000} C_DIS
LIN {X 0.025,Y 0.158,Z 0.000} C_DIS
LIN {X 0.001,Y 0.372,Z 0.000} C_DIS
LIN {X -0.028,Y 0.159,Z 0.000} C_DIS
LIN {X -0.088,Y 0.267,Z 0.000} C_DIS
LIN {X -0.113,Y 0.211,Z 0.000} C_DIS
LIN {X -0.074,Y 0.108,Z 0.000} C_DIS
LIN {X -0.185,Y 0.205,Z 0.000} C_DIS
LIN {X -0.255,Y 0.195,Z 0.000} C_DIS
LIN {X -0.206,Y 0.101,Z 0.000} C_DIS
LIN {X -0.154,Y 0.056,Z 0.000} C_DIS
LIN {X -0.330,Y 0.060,Z 0.000} C_DIS
LIN {X -0.325,Y -0.012,Z 0.000} C_DIS
LIN {X -0.166,Y -0.030,Z 0.000} C_DIS
LIN {X -0.152,Y -0.049,Z 0.000} C_DIS
LIN {X -0.130,Y -0.053,Z 0.000} C_DIS
LIN {X -0.237,Y -0.139,Z 0.000} C_DIS
LIN {X -0.233,Y -0.199,Z 0.000} C_DIS
LIN {X -0.224,Y -0.301,Z 0.000} C_DIS
LIN {X -0.106,Y -0.230,Z 0.000} C_DIS
LIN {X -0.076,Y -0.293,Z 0.000} C_DIS
LIN {X -0.020,Y -0.190,Z 0.000} C_DIS
$VEL.CP=0.03
LIN {X 0.000,Y 0.000,Z 0.000} C_DIS
$VEL.CP=0.02
LIN {X 0.020,Y -0.304,Z 0.000} C_DIS
LIN {X 0.034,Y -0.162,Z 0.000} C_DIS
LIN {X 0.120,Y -0.307,Z 0.000} C_DIS
LIN {X -0.120,Y 0.307,Z 0.000} C_DIS
LIN {X -0.034,Y 0.162,Z 0.000} C_DIS
LIN {X -0.020,Y 0.304,Z 0.000} C_DIS
;rapid-leaky
LIN {X 0.360,Y -0.004,Z 0.000} C_DIS
$VEL.CP=0.03
LIN {X 0.000,Y 0.000,Z 0.000} C_DIS
;bead-perimeter_inner
$VEL.CP=0.02
LIN {X 0.016,Y -0.243,Z 0.000} C_DIS
LIN {X 0.066,Y -0.244,Z 0.000} C_DIS
LIN {X 0.069,Y -0.151,Z 0.000} C_DIS
LIN {X 0.171,Y -0.233,Z 0.000} C_DIS
LIN {X 0.184,Y -0.158,Z 0.000} C_DIS
LIN {X 0.220,Y -0.123,Z 0.000} C_DIS
LIN {X 0.161,Y -0.058,Z 0.000} C_DIS
LIN {X 0.282,Y -0.040,Z 0.000} C_DIS
LIN {X 0.138,Y 0.007,Z 0.000} C_DIS
LIN {X 0.207,Y 0.038,Z 0.000} C_DIS
LIN {X 0.291,Y 0.124,Z 0.000} C_DIS
LIN {X 0.190,Y 0.137,Z 0.000} C_DIS
LIN {X 0.089,Y 0.091,Z 0.000} C_DIS
LIN {X 0.142,Y 0.191,Z 0.000} C_DIS
LIN {X 0.063,Y 0.126,Z 0.000} C_DIS
LIN {X 0.075,Y 0.224,Z 0.000} C_DIS
LIN {X 0.019,Y 0.119,Z 0.000} C_DIS
LIN {X 0.000,Y 0.302,Z 0.000} C_DIS
LIN {X -0.031,Y 0.149,Z 0.000} C_DIS
LIN {X -0.059,Y 0.169,Z 0.000} C_DIS
LIN {X -0.086,Y 0.158,Z 0.000} C_DIS
LIN {X -0.123,Y 0.162,Z 0.000} C_DIS
LIN {X -0.156,Y 0.145,Z 0.000} C_DIS
LIN {X -0.121,Y 0.085,Z 0.000} C_DIS
LIN {X -0.270,Y 0.117,Z 0.000} C_DIS
LIN {X -0.263,Y 0.047,Z 0.000} C_DIS
LIN {X -0.137,Y 0.000,Z 0.000} C_DIS
LIN {X -0.232,Y -0.033,Z 0.000} C_DIS
LIN {X -0.116,Y -0.037,Z 0.000} C_DIS
LIN {X -0.283,Y -0.148,Z 0.000} C_DIS
LIN {X -0.184,Y -0.158,Z 0.000} C_DIS
LIN {X -0.086,Y -0.106,Z 0.000} C_DIS
LIN {X -0.085,Y -0.127,Z 0.000} C_DIS
LIN {X -0.077,Y -0.170,Z 0.000} C_DIS
LIN {X -0.058,Y -0.225,Z 0.000} C_DIS
LIN {X -0.016,Y -0.137,Z 0.000} C_DIS
$VEL.CP=0.03
LIN {X 0.000,Y 0.000,Z 0.000} C_DIS
$VEL.CP=0.02
LIN {X 0.016,Y -0.243,Z 0.000} C_DIS
LIN {X 0.066,Y -0.244,Z 0.000} C_DIS
LIN {X 0.069,Y -0.151,Z 0.000} C_DIS
LIN {X 0.081,Y -0.111,Z 0.000} C_DIS
LIN {X -0.081,Y 0.111,Z 0.000} C_DIS
LIN {X -0.069,Y 0.151,Z 0.000} C_DIS
LIN {X -0.066,Y 0.244,Z 0.000} C_DIS
LIN {X -0.016,Y 0.243,Z 0.000} C_DIS
;rapid-leaky
LIN {X 0.361,Y -0.015,Z 0.000} C_DIS
$VEL.CP=0.03
LIN {X 0.000,Y 0.000,Z 0.000} C_DIS
;bead-perimeter_inner
$VEL.CP=0.02
LIN {X 0.011,Y -0.171,Z 0.000} C_DIS
LIN {X 0.046,Y -0.170,Z 0.000} C_DIS
LIN {X 0.044,Y -0.099,Z 0.000} C_DIS
LIN {X 0.124,Y -0.169,Z 0.000} C_DIS
LIN {X 0.203,Y -0.159,Z 0.000} C_DIS
LIN {X 0.184,Y -0.077,Z 0.000} C_DIS
LIN {X 0.109,Y -0.020,Z 0.000} C_DIS
LIN {X 0.191,Y -0.004,Z 0.000} C_DIS
LIN {X 0.145,Y 0.026,Z 0.000} C_DIS
LIN {X 0.139,Y 0.052,Z 0.000} C_DIS
LIN {X 0.127,Y 0.076,Z 0.000} C_DIS
LIN {X 0.133,Y 0.119,Z 0.000} C_DIS
LIN {X 0.098,Y 0.131,Z 0.000} C_DIS
LIN {X 0.097,Y 0.247,Z 0.000} C_DIS
LIN {X 0.018,Y 0.155,Z 0.000} C_DIS
LIN {X -0.003,Y 0.134,Z 0.000} C_DIS
LIN {X -0.068,Y 0.236,Z 0.000} C_DIS
LIN {X -0.095,Y 0.156,Z 0.000} C_DIS
LIN {X -0.101,Y 0.111,Z 0.000} C_DIS
LIN {X -0.146,Y 0.112,Z 0.000} C_DIS
LIN {X -0.101,Y 0.047,Z 0.000} C_DIS
LIN {X -0.082,Y 0.030,Z 0.000} C_DIS
LIN {X -0.184,Y 0.033,Z 0.000} C_DIS
LIN {X -0.167,Y -0.007,Z 0.000} C_DIS
LIN {X -0.170,Y -0.042,Z 0.000} C_DIS
LIN {X -0.137,Y -0.063,Z 0.000} C_DIS
LIN {X -0.119,Y -0.085,Z 0.000} C_DIS
LIN {X -0.071,Y -0.066,Z 0.000} C_DIS
LIN {X -0.124,Y -0.169,Z 0.000} C_DIS
LIN {X -0.076,Y -0.198,Z 0.000} C_DIS
LIN {X -0.025,Y -0.166,Z 0.000} C_DIS
$VEL.CP=0.03
LIN {X 0.000,Y 0.000,Z 0.000} C_DIS
$VEL.CP=0.02
LIN {X 0.011,Y -0.171,Z 0.000} C_DIS
LIN {X 0.046,Y -0.170,Z 0.000} C_DIS
LIN {X 0.044,Y -0.099,Z 0.000} C_DIS
LIN {X 0.124,Y -0.169,Z 0.000} C_DIS
LIN {X 0.106,Y -0.083,Z 0.000} C_DIS
LIN {X -0.106,Y 0.083,Z 0.000} C_DIS
LIN {X -0.124,Y 0.169,Z 0.000} C_DIS
LIN {X -0.044,Y 0.099,Z 0.000} C_DIS
LIN {X -0.046,Y 0.170,Z 0.000} C_DIS
LIN {X -0.011,Y 0.171,Z 0.000} C_DIS
;rapid-leaky
LIN {X 0.360,Y -0.016,Z 0.000} C_DIS
$VEL.CP=0.03
LIN {X 0.000,Y 0.000,Z 0.000} C_DIS
;bead-perimeter_inner
$VEL.CP=0.02
LIN {X 0.007,Y -0.098,Z 0.000} C_DIS
LIN {X 0.026,Y -0.097,Z 0.000} C_DIS
LIN {X 0.062,Y -0.110,Z 0.000} C_DIS
LIN {X 0.074,Y -0.079,Z 0.000} C_DIS
LIN {X 0.075,Y -0.053,Z 0.000} C_DIS
LIN {X 0.105,Y -0.044,Z 0.000} C_DIS
LIN {X 0.115,Y -0.016,Z 0.000} C_DIS
LIN {X 0.099,Y 0.009,Z 0.000} C_DIS
LIN {X 0.117,Y 0.038,Z 0.000} C_DIS
LIN {X 0.073,Y 0.043,Z 0.000} C_DIS
LIN {X 0.130,Y 0.141,Z 0.000} C_DIS
LIN {X 0.056,Y 0.143,Z 0.000} C_DIS
LIN {X 0.010,Y 0.086,Z 0.000} C_DIS
LIN {X -0.008,Y 0.117,Z 0.000} C_DIS
LIN {X -0.032,Y 0.093,Z 0.000} C_DIS
LIN {X -0.080,Y 0.122,Z 0.000} C_DIS
LIN {X -0.115,Y 0.095,Z 0.000} C_DIS
LIN {X -0.151,Y 0.054,Z 0.000} C_DIS
LIN {X -0.112,Y 0.008,Z 0.000} C_DIS
LIN {X -0.092,Y -0.013,Z 0.000} C_DIS
LIN {X -0.122,Y -0.051,Z 0.000} C_DIS
LIN {X -0.108,Y -0.085,Z 0.000} C_DIS
LIN {X -0.099,Y -0.160,Z 0.000} C_DIS
LIN {X -0.030,Y -0.143,Z 0.000} C_DIS
$VEL.CP=0.03
LIN {X 0.000,Y 0.000,Z 0.000} C_DIS
$VEL.CP=0.02
LIN {X 0.007,Y -0.098,Z 0.000} C_DIS
LIN {X 0.026,Y -0.097,Z 0.000} C_DIS
LIN {X 0.062,Y -0.110,Z 0.000} C_DIS
LIN {X 0.074,Y -0.079,Z 0.000} C_DIS
LIN {X 0.075,Y -0.053,Z 0.000} C_DIS
LIN {X 0.105,Y -0.044,Z 0.000} C_DIS
LIN {X 0.115,Y -0.016,Z 0.000} C_DIS
LIN {X 0.044,Y 0.004,Z 0.000} C_DIS
LIN {X -0.044,Y -0.004,Z 0.000} C_DIS
LIN {X -0.115,Y 0.016,Z 0.000} C_DIS
LIN {X -0.105,Y 0.044,Z 0.000} C_DIS
LIN {X -0.075,Y 0.053,Z 0.000} C_DIS
LIN {X -0.074,Y 0.079,Z 0.000} C_DIS
LIN {X -0.062,Y 0.110,Z 0.000} C_DIS
LIN {X -0.026,Y 0.097,Z 0.000} C_DIS
LIN {X -0.007,Y 0.098,Z 0.000} C_DIS
;rapid-leaky
LIN {X 0.362,Y -0.003,Z 0.000} C_DIS
$VEL.CP=0.03
LIN {X 0.000,Y 0.000,Z 0.000} C_DIS
;bead-perimeter_inner
$VEL.CP=0.02
LIN {X 0.003,Y -0.049,Z 0.000} C_DIS
LIN {X 0.027,Y -0.049,Z 0.000} C_DIS
LIN {X 0.079,Y -0.035,Z 0.000} C_DIS
LIN {X 0.053,Y 0.011,Z 0.000} C_DIS
LIN {X 0.037,Y 0.028,Z 0.000} C_DIS
LIN {X 0.026,Y 0.053,Z 0.000} C_DIS
LIN {X 0.001,Y 0.043,Z 0.000} C_DIS
LIN {X -0.043,Y 0.070,Z 0.000} C_DIS
LIN {X -0.076,Y 0.023,Z 0.000} C_DIS
LIN {X -0.067,Y -0.026,Z 0.000} C_DIS
LIN {X -0.040,Y -0.069,Z 0.000} C_DIS
$VEL.CP=0.03
LIN {X 0.000,Y 0.000,Z 0.000} C_DIS
$VEL.CP=0.02
LIN {X 0.003,Y -0.049,Z 0.000} C_DIS
LIN {X 0.027,Y -0.049,Z 0.000} C_DIS
LIN {X 0.079,Y -0.035,Z 0.000} C_DIS
LIN {X 0.053,Y 0.011,Z 0.000} C_DIS
LIN {X 0.037,Y 0.028,Z 0.000} C_DIS
LIN {X 0.026,Y 0.053,Z 0.000} C_DIS
LIN {X 0.001,Y 0.043,Z 0.000} C_DIS
LIN {X -0.043,Y 0.070,Z 0.000} C_DIS
LIN {X -0.076,Y 0.023,Z 0.000} C_DIS
LIN {X -0.067,Y -0.026,Z 0.000} C_DIS
LIN {X -0.040,Y -0.069,Z 0.000} C_DIS
LIN {X 0.040,Y 0.069,Z 0.000} C_DIS
LIN {X 0.067,Y 0.026,Z 0.000} C_DIS
LIN {X 0.076,Y -0.023,Z 0.000} C_DIS
LIN {X 0.043,Y -0.070,Z 0.000} C_DIS
LIN {X -0.001,Y -0.043,Z 0.000} C_DIS
LIN {X -0.026,Y -0.053,Z 0.000} C_DIS
LIN {X -0.037,Y -0.028,Z 0.000} C_DIS
LIN {X -0.053,Y -0.011,Z 0.000} C_DIS
LIN {X -0.079,Y 0.035,Z 0.000} C_DIS
LIN {X -0.027,Y 0.049,Z 0.000} C_DIS
LIN {X -0.003,Y 0.049,Z 0.000} C_DIS
;rapid-dry
LIN {X -3.719,Y 2.870,Z -1.000} C_DIS
$VEL.CP=0.03
LIN {X 0.000,Y 0.000,Z 0.000} C_DIS
;bead-perimeter_outer
$VEL.CP=0.02
LIN {X -0.241,Y -0.352,Z 0.000} C_DIS
LIN {X -0.206,Y -0.366,Z 0.000} C_DIS
LIN {X -0.177,Y -0.389,Z 0.000} C_DIS
LIN {X -0.140,Y -0.402,Z 0.000} C_DIS
LIN {X -0.104,Y -0.408,Z 0.000} C_DIS
LIN {X -0.067,Y -0.421,Z 0.000} C_DIS
LIN {X -0.030,Y -0.424,Z 0.000} C_DIS
LIN {X 0.008,Y -0.427,Z 0.000} C_DIS
LIN {X 0.022,Y -0.252,Z 0.000} C_DIS
LIN {X 0.105,Y -0.584,Z 0.000} C_DIS
LIN {X 0.119,Y -0.409,Z 0.000} C_DIS
LIN {X 0.153,Y -0.391,Z 0.000} C_DIS
LIN {X 0.189,Y -0.384,Z 0.000} C_DIS
LIN {X 0.223,Y -0.364,Z 0.000} C_DIS
LIN {X 0.145,Y -0.203,Z 0.000} C_DIS
LIN {X 0.272,Y -0.329,Z 0.000} C_DIS
LIN {X 0.297,Y -0.302,Z 0.000} C_DIS
LIN {X 0.325,Y -0.275,Z 0.000} C_DIS
LIN {X 0.346,Y -0.245,Z 0.000} C_DIS
LIN {X 0.367,Y -0.214,Z 0.000} C_DIS
LIN {X 0.385,Y -0.179,Z 0.000} C_DIS
LIN {X 0.401,Y -0.147,Z 0.000} C_DIS
LIN {X 0.408,Y -0.109,Z 0.000} C_DIS
LIN {X 0.588,Y -0.091,Z 0.000} C_DIS
LIN {X 0.250,Y -0.017,Z 0.000} C_DIS
LIN {X 0.427,Y 0.002,Z 0.000} C_DIS
LIN {X 0.425,Y 0.040,Z 0.000} C_DIS
LIN {X 0.581,Y 0.116,Z 0.000} C_DIS
LIN {X 0.405,Y 0.129,Z 0.000} C_DIS
LIN {X 0.391,Y 0.162,Z 0.000} C_DIS
LIN {X 0.377,Y 0.197,Z 0.000} C_DIS
LIN {X 0.357,Y 0.230,Z 0.000} C_DIS
LIN {X 0.338,Y 0.261,Z 0.000} C_DIS
LIN {X 0.185,Y 0.167,Z 0.000} C_DIS
LIN {X 0.297,Y 0.307,Z 0.000} C_DIS
LIN {X 0.268,Y 0.329,Z 0.000} C_DIS
LIN {X 0.322,Y 0.497,Z 0.000} C_DIS
LIN {X 0.194,Y 0.380,Z 0.000} C_DIS
LIN {X 0.158,Y 0.397,Z 0.000} C_DIS
LIN {X 0.120,Y 0.401,Z 0.000} C_DIS
LIN {X 0.087,Y 0.420,Z 0.000} C_DIS
LIN {X 0.048,Y 0.423,Z 0.000} C_DIS
LIN {X 0.012,Y 0.250,Z 0.000} C_DIS
LIN {X -0.012,Y 0.426,Z 0.000} C_DIS
LIN {X -0.048,Y 0.421,Z 0.000} C_DIS
LIN {X -0.130,Y 0.580,Z 0.000} C_DIS
LIN {X -0.077,Y 0.241,Z 0.000} C_DIS
LIN {X -0.158,Y 0.397,Z 0.000} C_DIS
LIN {X -0.194,Y 0.380,Z 0.000} C_DIS
LIN {X -0.322,Y 0.497,Z 0.000} C_DIS
LIN {X -0.268,Y 0.329,Z 0.000} C_DIS
LIN {X -0.297,Y 0.307,Z 0.000} C_DIS
LIN {X -0.185,Y 0.167,Z 0.000} C_DIS
LIN {X -0.338,Y 0.261,Z 0.000} C_DIS
LIN {X -0.357,Y 0.230,Z 0.000} C_DIS
LIN {X -0.379,Y 0.198,Z 0.000} C_DIS
LIN {X -0.553,Y 0.217,Z 0.000} C_DIS
LIN {X -0.241,Y 0.073,Z 0.000} C_DIS
LIN {X -0.583,Y 0.117,Z 0.000} C_DIS
LIN {X -0.425,Y 0.039,Z 0.000} C_DIS
LIN {X -0.250,Y 0.006,Z 0.000} C_DIS
LIN {X -0.426,Y -0.021,Z 0.000} C_DIS
LIN {X -0.423,Y -0.058,Z 0.000} C_DIS
LIN {X -0.409,Y -0.094,Z 0.000} C_DIS
LIN {X -0.406,Y -0.132,Z 0.000} C_DIS
LIN {X -0.393,Y -0.168,Z 0.000} C_DIS
LIN {X -0.370,Y -0.197,Z 0.000} C_DIS
LIN {X -0.491,Y -0.335,Z 0.000} C_DIS
LIN {X -0.327,Y -0.276,Z 0.000} C_DIS
LIN {X -0.297,Y -0.302,Z 0.000} C_DIS
LIN {X -0.271,Y -0.327,Z 0.000} C_DIS
$VEL.CP=0.03
LIN {X 0.000,Y 0.000,Z 0.000} C_DIS
$VEL.CP=0.02
LIN {X -0.241,Y -0.352,Z 0.000} C_DIS
LIN {X -0.184,Y -0.326,Z 0.000} C_DIS
LIN {X 0.184,Y 0.326,Z 0.000} C_DIS
LIN {X 0.241,Y 0.352,Z 0.000} C_DIS
;rapid-leaky
LIN {X 0.288,Y -0.217,Z 0.000} C_DIS
$VEL.CP=0.03
LIN {X 0.000,Y 0.000,Z 0.000} C_DIS
;bead-perimeter_inner
$VEL.CP=0.02
LIN {X -0.225,Y -0.329,Z 0.000} C_DIS
LIN {X -0.187,Y -0.330,Z 0.000} C_DIS
LIN {X -0.166,Y -0.365,Z 0.000} C_DIS
LIN {X -0.130,Y -0.375,Z 0.000} C_DIS
LIN {X -0.094,Y -0.369,Z 0.000} C_DIS
LIN {X -0.063,Y -0.394,Z 0.000} C_DIS
LIN {X -0.028,Y -0.393,Z 0.000} C_DIS
LIN {X 0.008,Y -0.398,Z 0.000} C_DIS
LIN {X 0.020,Y -0.231,Z 0.000} C_DIS
LIN {X 0.097,Y -0.538,Z 0.000} C_DIS
LIN {X 0.111,Y -0.383,Z 0.000} C_DIS
LIN {X 0.138,Y -0.353,Z 0.000} C_DIS
LIN {X 0.178,Y -0.360,Z 0.000} C_DIS
LIN {X 0.337,Y -0.522,Z 0.000} C_DIS
LIN {X 0.254,Y -0.306,Z 0.000} C_DIS
LIN {X 0.275,Y -0.280,Z 0.000} C_DIS
LIN {X 0.300,Y -0.254,Z 0.000} C_DIS
LIN {X 0.321,Y -0.227,Z 0.000} C_DIS
LIN {X 0.339,Y -0.197,Z 0.000} C_DIS
LIN {X 0.356,Y -0.166,Z 0.000} C_DIS
LIN {X 0.375,Y -0.138,Z 0.000} C_DIS
LIN {X 0.520,Y -0.129,Z 0.000} C_DIS
LIN {X 0.401,Y -0.055,Z 0.000} C_DIS
LIN {X 0.225,Y -0.015,Z 0.000} C_DIS
LIN {X 0.398,Y 0.002,Z 0.000} C_DIS
LIN {X 0.397,Y 0.037,Z 0.000} C_DIS
LIN {X 0.533,Y 0.108,Z 0.000} C_DIS
LIN {X 0.375,Y 0.118,Z 0.000} C_DIS
LIN {X 0.362,Y 0.151,Z 0.000} C_DIS
LIN {X 0.348,Y 0.182,Z 0.000} C_DIS
LIN {X 0.330,Y 0.212,Z 0.000} C_DIS
LIN {X 0.315,Y 0.243,Z 0.000} C_DIS
LIN {X 0.444,Y 0.437,Z 0.000} C_DIS
LIN {X 0.248,Y 0.305,Z 0.000} C_DIS
LIN {X 0.295,Y 0.454,Z 0.000} C_DIS
LIN {X 0.181,Y 0.357,Z 0.000} C_DIS
LIN {X 0.148,Y 0.370,Z 0.000} C_DIS
LIN {X 0.109,Y 0.363,Z 0.000} C_DIS
LIN {X 0.081,Y 0.393,Z 0.000} C_DIS
LIN {X 0.056,Y 0.619,Z 0.000} C_DIS
LIN {X -0.011,Y 0.398,Z 0.000} C_DIS
LIN {X -0.045,Y 0.389,Z 0.000} C_DIS
LIN {X -0.119,Y 0.535,Z 0.000} C_DIS
LIN {X -0.071,Y 0.221,Z 0.000} C_DIS
LIN {X -0.148,Y 0.370,Z 0.000} C_DIS
LIN {X -0.181,Y 0.357,Z 0.000} C_DIS
LIN {X -0.295,Y 0.454,Z 0.000} C_DIS
LIN {X -0.248,Y 0.305,Z 0.000} C_DIS
LIN {X -0.444,Y 0.437,Z 0.000} C_DIS
LIN {X -0.315,Y 0.243,Z 0.000} C_DIS
LIN {X -0.330,Y 0.212,Z 0.000} C_DIS
LIN {X -0.356,Y 0.186,Z 0.000} C_DIS
LIN {X -0.509,Y 0.200,Z 0.000} C_DIS
LIN {X -0.222,Y 0.066,Z 0.000} C_DIS
LIN {X -0.538,Y 0.108,Z 0.000} C_DIS
LIN {X -0.395,Y 0.037,Z 0.000} C_DIS
LIN {X -0.225,Y 0.005,Z 0.000} C_DIS
LIN {X -0.398,Y -0.020,Z 0.000} C_DIS
LIN {X -0.396,Y -0.054,Z 0.000} C_DIS
LIN {X -0.370,Y -0.086,Z 0.000} C_DIS
LIN {X -0.378,Y -0.122,Z 0.000} C_DIS
LIN {X -0.369,Y -0.158,Z 0.000} C_DIS
LIN {X -0.334,Y -0.178,Z 0.000} C_DIS
LIN {X -0.340,Y -0.223,Z 0.000} C_DIS
LIN {X -0.420,Y -0.344,Z 0.000} C_DIS
LIN {X -0.275,Y -0.280,Z 0.000} C_DIS
LIN {X -0.250,Y -0.302,Z 0.000} C_DIS
$VEL.CP=0.03
LIN {X 0.000,Y 0.000,Z 0.000} C_DIS
$VEL.CP=0.02
LIN {X -0.225,Y -0.329,Z 0.000} C_DIS
LIN {X -0.187,Y -0.330,Z 0.000} C_DIS
LIN {X -0.009,Y -0.021,Z 0.000} C_DIS
LIN {X 0.009,Y 0.021,Z 0.000} C_DIS
LIN {X 0.187,Y 0.330,Z 0.000} C_DIS
LIN {X 0.225,Y 0.329,Z 0.000} C_DIS
;rapid-leaky
LIN {X 0.288,Y -0.217,Z 0.000} C_DIS
$VEL.CP=0.03
LIN {X 0.000,Y 0.000,Z 0.000} C_DIS
;bead-perimeter_inner
$VEL.CP=0.02
LIN {X -0.209,Y -0.305,Z 0.000} C_DIS
LIN {X -0.167,Y -0.295,Z 0.000} C_DIS
LIN {X -0.155,Y -0.341,Z 0.000} C_DIS
LIN {X -0.121,Y -0.348,Z 0.000} C_DIS
LIN {X -0.084,Y -0.330,Z 0.000} C_DIS
LIN {X -0.059,Y -0.367,Z 0.000} C_DIS
LIN {X -0.025,Y -0.361,Z 0.000} C_DIS
LIN {X 0.025,Y -0.580,Z 0.000} C_DIS
LIN {X 0.089,Y -0.493,Z 0.000} C_DIS
LIN {X 0.103,Y -0.355,Z 0.000} C_DIS
LIN {X 0.123,Y -0.315,Z 0.000} C_DIS
LIN {X 0.166,Y -0.337,Z 0.000} C_DIS
LIN {X 0.308,Y -0.476,Z 0.000} C_DIS
LIN {X 0.236,Y -0.285,Z 0.000} C_DIS
LIN {X 0.252,Y -0.257,Z 0.000} C_DIS
LIN {X 0.276,Y -0.233,Z 0.000} C_DIS
LIN {X 0.295,Y -0.209,Z 0.000} C_DIS
LIN {X 0.311,Y -0.181,Z 0.000} C_DIS
LIN {X 0.327,Y -0.153,Z 0.000} C_DIS
LIN {X 0.350,Y -0.128,Z 0.000} C_DIS
LIN {X 0.467,Y -0.115,Z 0.000} C_DIS
LIN {X 0.378,Y -0.052,Z 0.000} C_DIS
LIN {X 0.568,Y -0.012,Z 0.000} C_DIS
LIN {X 0.370,Y 0.034,Z 0.000} C_DIS
LIN {X 0.485,Y 0.099,Z 0.000} C_DIS
LIN {X 0.344,Y 0.109,Z 0.000} C_DIS
LIN {X 0.333,Y 0.138,Z 0.000} C_DIS
LIN {X 0.320,Y 0.167,Z 0.000} C_DIS
LIN {X 0.303,Y 0.195,Z 0.000} C_DIS
LIN {X 0.292,Y 0.226,Z 0.000} C_DIS
LIN {X 0.405,Y 0.399,Z 0.000} C_DIS
LIN {X 0.228,Y 0.281,Z 0.000} C_DIS
LIN {X 0.269,Y 0.412,Z 0.000} C_DIS
LIN {X 0.169,Y 0.332,Z 0.000} C_DIS
LIN {X 0.137,Y 0.344,Z 0.000} C_DIS
LIN {X 0.098,Y 0.324,Z 0.000} C_DIS
LIN {X 0.076,Y 0.367,Z 0.000} C_DIS
LIN {X 0.050,Y 0.565,Z 0.000} C_DIS
LIN {X -0.010,Y 0.369,Z 0.000} C_DIS
LIN {X -0.040,Y 0.358,Z 0.000} C_DIS
LIN {X -0.110,Y 0.491,Z 0.000} C_DIS
LIN {X -0.201,Y 0.544,Z 0.000} C_DIS
LIN {X -0.169,Y 0.332,Z 0.000} C_DIS
LIN {X -0.269,Y 0.412,Z 0.000} C_DIS
LIN {X -0.228,Y 0.281,Z 0.000} C_DIS
LIN {X -0.405,Y 0.399,Z 0.000} C_DIS
LIN {X -0.292,Y 0.226,Z 0.000} C_DIS
LIN {X -0.303,Y 0.195,Z 0.000} C_DIS
LIN {X -0.332,Y 0.173,Z 0.000} C_DIS
LIN {X -0.467,Y 0.182,Z 0.000} C_DIS
LIN {X -0.201,Y 0.061,Z 0.000} C_DIS
LIN {X -0.493,Y 0.098,Z 0.000} C_DIS
LIN {X -0.367,Y 0.034,Z 0.000} C_DIS
LIN {X -0.568,Y -0.014,Z 0.000} C_DIS
LIN {X -0.370,Y -0.051,Z 0.000} C_DIS
LIN {X -0.331,Y -0.076,Z 0.000} C_DIS
LIN {X -0.351,Y -0.114,Z 0.000} C_DIS
LIN {X -0.344,Y -0.147,Z 0.000} C_DIS
LIN {X -0.299,Y -0.159,Z 0.000} C_DIS
LIN {X -0.319,Y -0.210,Z 0.000} C_DIS
LIN {X -0.382,Y -0.313,Z 0.000} C_DIS
LIN {X -0.252,Y -0.257,Z 0.000} C_DIS
LIN {X -0.230,Y -0.278,Z 0.000} C_DIS
$VEL.CP=0.03
LIN {X 0.000,Y 0.000,Z 0.000} C_DIS
$VEL.CP=0.02
LIN {X -0.209,Y -0.305,Z 0.000} C_DIS
LIN {X -0.167,Y -0.295,Z 0.000} C_DIS
LIN {X -0.038,Y -0.084,Z 0.000} C_DIS
LIN {X 0.038,Y 0.084,Z 0.000} C_DIS
LIN {X 0.167,Y 0.295,Z 0.000} C_DIS
LIN {X 0.209,Y 0.305,Z 0.000} C_DIS
;rapid-leaky
LIN {X 0.287,Y -0.217,Z 0.000} C_DIS
$VEL.CP=0.03
LIN {X 0.000,Y 0.000,Z 0.000} C_DIS
;bead-perimeter_inner
$VEL.CP=0.02
LIN {X -0.289,Y -0.444,Z 0.000} C_DIS
LIN {X -0.194,Y -0.414,Z 0.000} C_DIS
LIN {X -0.112,Y -0.320,Z 0.000} C_DIS
LIN {X -0.075,Y -0.292,Z 0.000} C_DIS
LIN {X -0.054,Y -0.341,Z 0.000} C_DIS
LIN {X -0.023,Y -0.328,Z 0.000} C_DIS
LIN {X 0.006,Y -0.342,Z 0.000} C_DIS
LIN {X 0.031,Y -0.297,Z 0.000} C_DIS
LIN {X 0.067,Y -0.340,Z 0.000} C_DIS
LIN {X 0.096,Y -0.328,Z 0.000} C_DIS
LIN {X 0.107,Y -0.277,Z 0.000} C_DIS
LIN {X 0.155,Y -0.313,Z 0.000} C_DIS
LIN {X 0.278,Y -0.431,Z 0.000} C_DIS
LIN {X 0.217,Y -0.263,Z 0.000} C_DIS
LIN {X 0.230,Y -0.234,Z 0.000} C_DIS
LIN {X 0.251,Y -0.212,Z 0.000} C_DIS
LIN {X 0.270,Y -0.191,Z 0.000} C_DIS
LIN {X 0.283,Y -0.165,Z 0.000} C_DIS
LIN {X 0.299,Y -0.139,Z 0.000} C_DIS
LIN {X 0.429,Y -0.149,Z 0.000} C_DIS
LIN {X 0.309,Y -0.072,Z 0.000} C_DIS
LIN {X 0.355,Y -0.049,Z 0.000} C_DIS
LIN {X 0.514,Y -0.010,Z 0.000} C_DIS
LIN {X 0.342,Y 0.032,Z 0.000} C_DIS
LIN {X 0.438,Y 0.089,Z 0.000} C_DIS
LIN {X 0.312,Y 0.099,Z 0.000} C_DIS
LIN {X 0.305,Y 0.127,Z 0.000} C_DIS
LIN {X 0.291,Y 0.152,Z 0.000} C_DIS
LIN {X 0.276,Y 0.177,Z 0.000} C_DIS
LIN {X 0.396,Y 0.323,Z 0.000} C_DIS
LIN {X 0.240,Y 0.248,Z 0.000} C_DIS
LIN {X 0.208,Y 0.255,Z 0.000} C_DIS
LIN {X 0.242,Y 0.370,Z 0.000} C_DIS
LIN {X 0.157,Y 0.309,Z 0.000} C_DIS
LIN {X 0.126,Y 0.317,Z 0.000} C_DIS
LIN {X 0.086,Y 0.285,Z 0.000} C_DIS
LIN {X 0.071,Y 0.341,Z 0.000} C_DIS
LIN {X 0.046,Y 0.512,Z 0.000} C_DIS
LIN {X -0.009,Y 0.340,Z 0.000} C_DIS
LIN {X -0.037,Y 0.326,Z 0.000} C_DIS
LIN {X -0.071,Y 0.341,Z 0.000} C_DIS
LIN {X -0.086,Y 0.285,Z 0.000} C_DIS
LIN {X -0.126,Y 0.317,Z 0.000} C_DIS
LIN {X -0.207,Y 0.394,Z 0.000} C_DIS
LIN {X -0.192,Y 0.285,Z 0.000} C_DIS
LIN {X -0.208,Y 0.255,Z 0.000} C_DIS
LIN {X -0.367,Y 0.363,Z 0.000} C_DIS
LIN {X -0.269,Y 0.207,Z 0.000} C_DIS
LIN {X -0.276,Y 0.178,Z 0.000} C_DIS
LIN {X -0.398,Y 0.201,Z 0.000} C_DIS
LIN {X -0.335,Y 0.125,Z 0.000} C_DIS
LIN {X -0.285,Y 0.080,Z 0.000} C_DIS
LIN {X -0.344,Y 0.063,Z 0.000} C_DIS
LIN {X -0.512,Y 0.035,Z 0.000} C_DIS
LIN {X -0.340,Y -0.017,Z 0.000} C_DIS
LIN {X -0.343,Y -0.047,Z 0.000} C_DIS
LIN {X -0.292,Y -0.067,Z 0.000} C_DIS
LIN {X -0.324,Y -0.105,Z 0.000} C_DIS
LIN {X -0.319,Y -0.137,Z 0.000} C_DIS
LIN {X -0.263,Y -0.140,Z 0.000} C_DIS
LIN {X -0.299,Y -0.197,Z 0.000} C_DIS
LIN {X -0.344,Y -0.282,Z 0.000} C_DIS
LIN {X -0.230,Y -0.234,Z 0.000} C_DIS
LIN {X -0.210,Y -0.254,Z 0.000} C_DIS
$VEL.CP=0.03
LIN {X 0.000,Y 0.000,Z 0.000} C_DIS
$VEL.CP=0.02
LIN {X -0.289,Y -0.444,Z 0.000} C_DIS
LIN {X -0.115,Y -0.245,Z 0.000} C_DIS
LIN {X 0.115,Y 0.245,Z 0.000} C_DIS
LIN {X 0.289,Y 0.444,Z 0.000} C_DIS
;rapid-leaky
LIN {X 0.288,Y -0.217,Z 0.000} C_DIS
$VEL.CP=0.03
LIN {X 0.000,Y 0.000,Z 0.000} C_DIS
;bead-perimeter_inner
$VEL.CP=0.02
LIN {X -0.262,Y -0.403,Z 0.000} C_DIS
LIN {X -0.175,Y -0.372,Z 0.000} C_DIS
LIN {X -0.102,Y -0.293,Z 0.000} C_DIS
LIN {X -0.065,Y -0.254,Z 0.000} C_DIS
LIN {X -0.050,Y -0.313,Z 0.000} C_DIS
LIN {X -0.021,Y -0.297,Z 0.000} C_DIS
LIN {X 0.006,Y -0.313,Z 0.000} C_DIS
LIN {X 0.026,Y -0.257,Z 0.000} C_DIS
LIN {X 0.062,Y -0.314,Z 0.000} C_DIS
LIN {X 0.088,Y -0.300,Z 0.000} C_DIS
LIN {X 0.093,Y -0.240,Z 0.000} C_DIS
LIN {X 0.142,Y -0.289,Z 0.000} C_DIS
LIN {X 0.249,Y -0.386,Z 0.000} C_DIS
LIN {X 0.199,Y -0.240,Z 0.000} C_DIS
LIN {X 0.207,Y -0.211,Z 0.000} C_DIS
LIN {X 0.227,Y -0.192,Z 0.000} C_DIS
LIN {X 0.244,Y -0.173,Z 0.000} C_DIS
LIN {X 0.256,Y -0.149,Z 0.000} C_DIS
LIN {X 0.269,Y -0.125,Z 0.000} C_DIS
LIN {X 0.385,Y -0.135,Z 0.000} C_DIS
LIN {X 0.275,Y -0.064,Z 0.000} C_DIS
LIN {X 0.332,Y -0.046,Z 0.000} C_DIS
LIN {X 0.459,Y -0.008,Z 0.000} C_DIS
LIN {X 0.315,Y 0.029,Z 0.000} C_DIS
LIN {X 0.390,Y 0.080,Z 0.000} C_DIS
LIN {X 0.281,Y 0.090,Z 0.000} C_DIS
LIN {X 0.276,Y 0.114,Z 0.000} C_DIS
LIN {X 0.263,Y 0.137,Z 0.000} C_DIS
LIN {X 0.249,Y 0.161,Z 0.000} C_DIS
LIN {X 0.354,Y 0.287,Z 0.000} C_DIS
LIN {X 0.221,Y 0.228,Z 0.000} C_DIS
LIN {X 0.188,Y 0.231,Z 0.000} C_DIS
LIN {X 0.215,Y 0.328,Z 0.000} C_DIS
LIN {X 0.144,Y 0.284,Z 0.000} C_DIS
LIN {X 0.116,Y 0.290,Z 0.000} C_DIS
LIN {X 0.075,Y 0.248,Z 0.000} C_DIS
LIN {X 0.065,Y 0.314,Z 0.000} C_DIS
LIN {X 0.042,Y 0.458,Z 0.000} C_DIS
LIN {X -0.008,Y 0.312,Z 0.000} C_DIS
LIN {X -0.034,Y 0.294,Z 0.000} C_DIS
LIN {X -0.065,Y 0.314,Z 0.000} C_DIS
LIN {X -0.075,Y 0.248,Z 0.000} C_DIS
LIN {X -0.116,Y 0.290,Z 0.000} C_DIS
LIN {X -0.183,Y 0.351,Z 0.000} C_DIS
LIN {X -0.176,Y 0.261,Z 0.000} C_DIS
LIN {X -0.188,Y 0.231,Z 0.000} C_DIS
LIN {X -0.329,Y 0.326,Z 0.000} C_DIS
LIN {X -0.246,Y 0.189,Z 0.000} C_DIS
LIN {X -0.249,Y 0.161,Z 0.000} C_DIS
LIN {X -0.353,Y 0.179,Z 0.000} C_DIS
LIN {X -0.313,Y 0.117,Z 0.000} C_DIS
LIN {X -0.246,Y 0.068,Z 0.000} C_DIS
LIN {X -0.318,Y 0.059,Z 0.000} C_DIS
LIN {X -0.458,Y 0.032,Z 0.000} C_DIS
LIN {X -0.311,Y -0.015,Z 0.000} C_DIS
LIN {X -0.317,Y -0.044,Z 0.000} C_DIS
LIN {X -0.253,Y -0.059,Z 0.000} C_DIS
LIN {X -0.296,Y -0.096,Z 0.000} C_DIS
LIN {X -0.295,Y -0.126,Z 0.000} C_DIS
LIN {X -0.227,Y -0.121,Z 0.000} C_DIS
LIN {X -0.280,Y -0.184,Z 0.000} C_DIS
LIN {X -0.305,Y -0.252,Z 0.000} C_DIS
LIN {X -0.207,Y -0.211,Z 0.000} C_DIS
LIN {X -0.190,Y -0.229,Z 0.000} C_DIS
$VEL.CP=0.03
LIN {X 0.000,Y 0.000,Z 0.000} C_DIS
$VEL.CP=0.02
LIN {X -0.262,Y -0.403,Z 0.000} C_DIS
LIN {X -0.136,Y -0.289,Z 0.000} C_DIS
LIN {X 0.136,Y 0.289,Z 0.000} C_DIS
LIN {X 0.262,Y 0.403,Z 0.000} C_DIS
;rapid-leaky
LIN {X 0.288,Y -0.217,Z 0.000} C_DIS
$VEL.CP=0.03
LIN {X 0.000,Y 0.000,Z 0.000} C_DIS
;bead-perimeter_inner
$VEL.CP=0.02
LIN {X -0.235,Y -0.361,Z 0.000} C_DIS
LIN {X -0.155,Y -0.330,Z 0.000} C_DIS
LIN {X -0.093,Y -0.267,Z 0.000} C_DIS
LIN {X -0.055,Y -0.215,Z 0.000} C_DIS
LIN {X -0.046,Y -0.286,Z 0.000} C_DIS
LIN {X -0.019,Y -0.265,Z 0.000} C_DIS
LIN {X 0.005,Y -0.285,Z 0.000} C_DIS
LIN {X 0.023,Y -0.217,Z 0.000} C_DIS
LIN {X 0.056,Y -0.287,Z 0.000} C_DIS
LIN {X 0.080,Y -0.274,Z 0.000} C_DIS
LIN {X 0.078,Y -0.201,Z 0.000} C_DIS
LIN {X 0.131,Y -0.266,Z 0.000} C_DIS
LIN {X 0.218,Y -0.340,Z 0.000} C_DIS
LIN {X 0.181,Y -0.219,Z 0.000} C_DIS
LIN {X 0.185,Y -0.188,Z 0.000} C_DIS
LIN {X 0.202,Y -0.171,Z 0.000} C_DIS
LIN {X 0.219,Y -0.154,Z 0.000} C_DIS
LIN {X 0.228,Y -0.133,Z 0.000} C_DIS
LIN {X 0.240,Y -0.112,Z 0.000} C_DIS
LIN {X 0.341,Y -0.120,Z 0.000} C_DIS
LIN {X 0.240,Y -0.057,Z 0.000} C_DIS
LIN {X 0.309,Y -0.042,Z 0.000} C_DIS
LIN {X 0.406,Y -0.007,Z 0.000} C_DIS
LIN {X 0.287,Y 0.026,Z 0.000} C_DIS
LIN {X 0.342,Y 0.071,Z 0.000} C_DIS
LIN {X 0.251,Y 0.080,Z 0.000} C_DIS
LIN {X 0.246,Y 0.103,Z 0.000} C_DIS
LIN {X 0.235,Y 0.122,Z 0.000} C_DIS
LIN {X 0.222,Y 0.143,Z 0.000} C_DIS
LIN {X 0.312,Y 0.252,Z 0.000} C_DIS
LIN {X 0.201,Y 0.208,Z 0.000} C_DIS
LIN {X 0.168,Y 0.207,Z 0.000} C_DIS
LIN {X 0.188,Y 0.285,Z 0.000} C_DIS
LIN {X 0.133,Y 0.261,Z 0.000} C_DIS
LIN {X 0.105,Y 0.263,Z 0.000} C_DIS
LIN {X 0.063,Y 0.209,Z 0.000} C_DIS
LIN {X 0.060,Y 0.288,Z 0.000} C_DIS
LIN {X 0.038,Y 0.404,Z 0.000} C_DIS
LIN {X -0.008,Y 0.283,Z 0.000} C_DIS
LIN {X -0.030,Y 0.263,Z 0.000} C_DIS
LIN {X -0.060,Y 0.288,Z 0.000} C_DIS
LIN {X -0.063,Y 0.209,Z 0.000} C_DIS
LIN {X -0.105,Y 0.263,Z 0.000} C_DIS
LIN {X -0.160,Y 0.308,Z 0.000} C_DIS
LIN {X -0.161,Y 0.238,Z 0.000} C_DIS
LIN {X -0.168,Y 0.207,Z 0.000} C_DIS
LIN {X -0.290,Y 0.288,Z 0.000} C_DIS
LIN {X -0.223,Y 0.172,Z 0.000} C_DIS
LIN {X -0.222,Y 0.143,Z 0.000} C_DIS
LIN {X -0.309,Y 0.158,Z 0.000} C_DIS
LIN {X -0.291,Y 0.108,Z 0.000} C_DIS
LIN {X -0.206,Y 0.058,Z 0.000} C_DIS
LIN {X -0.292,Y 0.054,Z 0.000} C_DIS
LIN {X -0.404,Y 0.029,Z 0.000} C_DIS
LIN {X -0.283,Y -0.014,Z 0.000} C_DIS
LIN {X -0.291,Y -0.040,Z 0.000} C_DIS
LIN {X -0.212,Y -0.050,Z 0.000} C_DIS
LIN {X -0.270,Y -0.087,Z 0.000} C_DIS
LIN {X -0.270,Y -0.116,Z 0.000} C_DIS
LIN {X -0.191,Y -0.102,Z 0.000} C_DIS
LIN {X -0.260,Y -0.171,Z 0.000} C_DIS
LIN {X -0.266,Y -0.221,Z 0.000} C_DIS
LIN {X -0.186,Y -0.188,Z 0.000} C_DIS
LIN {X -0.169,Y -0.205,Z 0.000} C_DIS
$VEL.CP=0.03
LIN {X 0.000,Y 0.000,Z 0.000} C_DIS
$VEL.CP=0.02
LIN {X -0.235,Y -0.361,Z 0.000} C_DIS
LIN {X -0.155,Y -0.330,Z 0.000} C_DIS
LIN {X -0.001,Y -0.004,Z 0.000} C_DIS
LIN {X 0.001,Y 0.004,Z 0.000} C_DIS
LIN {X 0.155,Y 0.330,Z 0.000} C_DIS
LIN {X 0.235,Y 0.361,Z 0.000} C_DIS
;rapid-leaky
LIN {X 0.288,Y -0.217,Z 0.000} C_DIS
$VEL.CP=0.03
LIN {X 0.000,Y 0.000,Z 0.000} C_DIS
;bead-perimeter_inner
$VEL.CP=0.02
LIN {X -0.209,Y -0.319,Z 0.000} C_DIS
LIN {X -0.134,Y -0.289,Z 0.000} C_DIS
LIN {X -0.119,Y -0.367,Z 0.000} C_DIS
LIN {X -0.052,Y -0.308,Z 0.000} C_DIS
LIN {X -0.016,Y -0.233,Z 0.000} C_DIS
LIN {X 0.004,Y -0.257,Z 0.000} C_DIS
LIN {X 0.069,Y -0.438,Z 0.000} C_DIS
LIN {X 0.072,Y -0.246,Z 0.000} C_DIS
LIN {X 0.182,Y -0.406,Z 0.000} C_DIS
LIN {X 0.189,Y -0.295,Z 0.000} C_DIS
LIN {X 0.163,Y -0.196,Z 0.000} C_DIS
LIN {X 0.163,Y -0.166,Z 0.000} C_DIS
LIN {X 0.177,Y -0.150,Z 0.000} C_DIS
LIN {X 0.193,Y -0.136,Z 0.000} C_DIS
LIN {X 0.200,Y -0.117,Z 0.000} C_DIS
LIN {X 0.211,Y -0.099,Z 0.000} C_DIS
LIN {X 0.247,Y -0.090,Z 0.000} C_DIS
LIN {X 0.207,Y -0.054,Z 0.000} C_DIS
LIN {X 0.335,Y -0.049,Z 0.000} C_DIS
LIN {X 0.351,Y -0.006,Z 0.000} C_DIS
LIN {X 0.294,Y 0.030,Z 0.000} C_DIS
LIN {X 0.260,Y 0.057,Z 0.000} C_DIS
LIN {X 0.220,Y 0.070,Z 0.000} C_DIS
LIN {X 0.218,Y 0.090,Z 0.000} C_DIS
LIN {X 0.206,Y 0.107,Z 0.000} C_DIS
LIN {X 0.195,Y 0.126,Z 0.000} C_DIS
LIN {X 0.270,Y 0.218,Z 0.000} C_DIS
LIN {X 0.182,Y 0.187,Z 0.000} C_DIS
LIN {X 0.148,Y 0.182,Z 0.000} C_DIS
LIN {X 0.161,Y 0.243,Z 0.000} C_DIS
LIN {X 0.120,Y 0.237,Z 0.000} C_DIS
LIN {X 0.095,Y 0.237,Z 0.000} C_DIS
LIN {X 0.106,Y 0.432,Z 0.000} C_DIS
LIN {X 0.034,Y 0.351,Z 0.000} C_DIS
LIN {X -0.007,Y 0.254,Z 0.000} C_DIS
LIN {X -0.027,Y 0.231,Z 0.000} C_DIS
LIN {X -0.054,Y 0.261,Z 0.000} C_DIS
LIN {X -0.147,Y 0.408,Z 0.000} C_DIS
LIN {X -0.136,Y 0.264,Z 0.000} C_DIS
LIN {X -0.145,Y 0.216,Z 0.000} C_DIS
LIN {X -0.148,Y 0.181,Z 0.000} C_DIS
LIN {X -0.182,Y 0.188,Z 0.000} C_DIS
LIN {X -0.270,Y 0.217,Z 0.000} C_DIS
LIN {X -0.195,Y 0.127,Z 0.000} C_DIS
LIN {X -0.265,Y 0.136,Z 0.000} C_DIS
LIN {X -0.435,Y 0.147,Z 0.000} C_DIS
LIN {X -0.267,Y 0.049,Z 0.000} C_DIS
LIN {X -0.252,Y 0.023,Z 0.000} C_DIS
LIN {X -0.351,Y -0.010,Z 0.000} C_DIS
LIN {X -0.314,Y -0.046,Z 0.000} C_DIS
LIN {X -0.367,Y -0.110,Z 0.000} C_DIS
LIN {X -0.400,Y -0.188,Z 0.000} C_DIS
LIN {X -0.240,Y -0.158,Z 0.000} C_DIS
LIN {X -0.228,Y -0.190,Z 0.000} C_DIS
LIN {X -0.163,Y -0.166,Z 0.000} C_DIS
LIN {X -0.149,Y -0.180,Z 0.000} C_DIS
$VEL.CP=0.03
LIN {X 0.000,Y 0.000,Z 0.000} C_DIS
$VEL.CP=0.02
LIN {X -0.209,Y -0.319,Z 0.000} C_DIS
LIN {X -0.134,Y -0.289,Z 0.000} C_DIS
LIN {X -0.031,Y -0.095,Z 0.000} C_DIS
LIN {X 0.031,Y 0.095,Z 0.000} C_DIS
LIN {X 0.134,Y 0.289,Z 0.000} C_DIS
LIN {X 0.209,Y 0.319,Z 0.000} C_DIS
;rapid-leaky
LIN {X 0.288,Y -0.217,Z 0.000} C_DIS
$VEL.CP=0.03
LIN {X 0.000,Y 0.000,Z 0.000} C_DIS
;bead-perimeter_inner
$VEL.CP=0.02
LIN {X -0.182,Y -0.278,Z 0.000} C_DIS
LIN {X -0.115,Y -0.247,Z 0.000} C_DIS
LIN {X -0.103,Y -0.320,Z 0.000} C_DIS
LIN {X -0.044,Y -0.262,Z 0.000} C_DIS
LIN {X -0.010,Y -0.430,Z 0.000} C_DIS
LIN {X 0.059,Y -0.372,Z 0.000} C_DIS
LIN {X 0.064,Y -0.219,Z 0.000} C_DIS
LIN {X 0.156,Y -0.344,Z 0.000} C_DIS
LIN {X 0.159,Y -0.250,Z 0.000} C_DIS
LIN {X 0.285,Y -0.317,Z 0.000} C_DIS
LIN {X 0.152,Y -0.129,Z 0.000} C_DIS
LIN {X 0.340,Y -0.219,Z 0.000} C_DIS
LIN {X 0.403,Y -0.166,Z 0.000} C_DIS
LIN {X 0.174,Y -0.045,Z 0.000} C_DIS
LIN {X 0.293,Y -0.042,Z 0.000} C_DIS
LIN {X 0.296,Y -0.004,Z 0.000} C_DIS
LIN {X 0.246,Y 0.024,Z 0.000} C_DIS
LIN {X 0.233,Y 0.051,Z 0.000} C_DIS
LIN {X 0.189,Y 0.060,Z 0.000} C_DIS
LIN {X 0.367,Y 0.171,Z 0.000} C_DIS
LIN {X 0.169,Y 0.109,Z 0.000} C_DIS
LIN {X 0.226,Y 0.182,Z 0.000} C_DIS
LIN {X 0.291,Y 0.325,Z 0.000} C_DIS
LIN {X 0.135,Y 0.201,Z 0.000} C_DIS
LIN {X 0.108,Y 0.213,Z 0.000} C_DIS
LIN {X 0.084,Y 0.210,Z 0.000} C_DIS
LIN {X 0.089,Y 0.367,Z 0.000} C_DIS
LIN {X 0.029,Y 0.297,Z 0.000} C_DIS
LIN {X -0.029,Y 0.425,Z 0.000} C_DIS
LIN {X -0.048,Y 0.235,Z 0.000} C_DIS
LIN {X -0.125,Y 0.342,Z 0.000} C_DIS
LIN {X -0.113,Y 0.222,Z 0.000} C_DIS
LIN {X -0.130,Y 0.192,Z 0.000} C_DIS
LIN {X -0.291,Y 0.325,Z 0.000} C_DIS
LIN {X -0.226,Y 0.182,Z 0.000} C_DIS
LIN {X -0.169,Y 0.109,Z 0.000} C_DIS
LIN {X -0.221,Y 0.115,Z 0.000} C_DIS
LIN {X -0.373,Y 0.128,Z 0.000} C_DIS
LIN {X -0.241,Y 0.044,Z 0.000} C_DIS
LIN {X -0.224,Y 0.021,Z 0.000} C_DIS
LIN {X -0.297,Y -0.010,Z 0.000} C_DIS
LIN {X -0.268,Y -0.038,Z 0.000} C_DIS
LIN {X -0.319,Y -0.096,Z 0.000} C_DIS
LIN {X -0.341,Y -0.159,Z 0.000} C_DIS
LIN {X -0.220,Y -0.145,Z 0.000} C_DIS
LIN {X -0.189,Y -0.159,Z 0.000} C_DIS
LIN {X -0.269,Y -0.299,Z 0.000} C_DIS
$VEL.CP=0.03
LIN {X 0.000,Y 0.000,Z 0.000} C_DIS
$VEL.CP=0.02
LIN {X -0.182,Y -0.278,Z 0.000} C_DIS
LIN {X -0.115,Y -0.247,Z 0.000} C_DIS
LIN {X -0.060,Y -0.186,Z 0.000} C_DIS
LIN {X 0.060,Y 0.186,Z 0.000} C_DIS
LIN {X 0.115,Y 0.247,Z 0.000} C_DIS
LIN {X 0.182,Y 0.278,Z 0.000} C_DIS
;rapid-leaky
LIN {X 0.287,Y -0.216,Z 0.000} C_DIS
$VEL.CP=0.03
LIN {X 0.000,Y 0.000,Z 0.000} C_DIS
;bead-perimeter_inner
$VEL.CP=0.02
LIN {X -0.161,Y -0.249,Z 0.000} C_DIS
LIN {X -0.153,Y -0.379,Z 0.000} C_DIS
LIN {X -0.059,Y -0.305,Z 0.000} C_DIS
LIN {X -0.008,Y -0.369,Z 0.000} C_DIS
LIN {X 0.050,Y -0.306,Z 0.000} C_DIS
LIN {X 0.083,Y -0.266,Z 0.000} C_DIS
LIN {X 0.102,Y -0.208,Z 0.000} C_DIS
LIN {X 0.102,Y -0.167,Z 0.000} C_DIS
LIN {X 0.153,Y -0.190,Z 0.000} C_DIS
LIN {X 0.246,Y -0.228,Z 0.000} C_DIS
LIN {X 0.286,Y -0.185,Z 0.000} C_DIS
LIN {X 0.349,Y -0.143,Z 0.000} C_DIS
LIN {X 0.151,Y -0.037,Z 0.000} C_DIS
LIN {X 0.287,Y -0.037,Z 0.000} C_DIS
LIN {X 0.396,Y 0.020,Z 0.000} C_DIS
LIN {X 0.202,Y 0.044,Z 0.000} C_DIS
LIN {X 0.319,Y 0.117,Z 0.000} C_DIS
LIN {X 0.291,Y 0.169,Z 0.000} C_DIS
LIN {X 0.184,Y 0.147,Z 0.000} C_DIS
LIN {X 0.144,Y 0.148,Z 0.000} C_DIS
LIN {X 0.219,Y 0.297,Z 0.000} C_DIS
LIN {X 0.166,Y 0.367,Z 0.000} C_DIS
LIN {X 0.073,Y 0.302,Z 0.000} C_DIS
LIN {X 0.024,Y 0.243,Z 0.000} C_DIS
LIN {X -0.024,Y 0.365,Z 0.000} C_DIS
LIN {X -0.073,Y 0.302,Z 0.000} C_DIS
LIN {X -0.166,Y 0.367,Z 0.000} C_DIS
LIN {X -0.219,Y 0.297,Z 0.000} C_DIS
LIN {X -0.175,Y 0.177,Z 0.000} C_DIS
LIN {X -0.295,Y 0.209,Z 0.000} C_DIS
LIN {X -0.183,Y 0.096,Z 0.000} C_DIS
LIN {X -0.297,Y 0.104,Z 0.000} C_DIS
LIN {X -0.223,Y 0.042,Z 0.000} C_DIS
LIN {X -0.241,Y 0.019,Z 0.000} C_DIS
LIN {X -0.197,Y -0.010,Z 0.000} C_DIS
LIN {X -0.223,Y -0.031,Z 0.000} C_DIS
LIN {X -0.272,Y -0.082,Z 0.000} C_DIS
LIN {X -0.210,Y -0.090,Z 0.000} C_DIS
LIN {X -0.266,Y -0.168,Z 0.000} C_DIS
LIN {X -0.155,Y -0.131,Z 0.000} C_DIS
LIN {X -0.227,Y -0.251,Z 0.000} C_DIS
$VEL.CP=0.03
LIN {X 0.000,Y 0.000,Z 0.000} C_DIS
$VEL.CP=0.02
LIN {X -0.161,Y -0.249,Z 0.000} C_DIS
LIN {X -0.153,Y -0.379,Z 0.000} C_DIS
LIN {X -0.018,Y -0.093,Z 0.000} C_DIS
LIN {X 0.018,Y 0.093,Z 0.000} C_DIS
LIN {X 0.153,Y 0.379,Z 0.000} C_DIS
LIN {X 0.161,Y 0.249,Z 0.000} C_DIS
;rapid-leaky
LIN {X 0.288,Y -0.217,Z 0.000} C_DIS
$VEL.CP=0.03
LIN {X 0.000,Y 0.000,Z 0.000} C_DIS
;bead-perimeter_inner
$VEL.CP=0.02
LIN {X -0.127,Y -0.193,Z 0.000} C_DIS
LIN {X -0.131,Y -0.325,Z 0.000} C_DIS
LIN {X -0.045,Y -0.239,Z 0.000} C_DIS
LIN {X -0.007,Y -0.310,Z 0.000} C_DIS
LIN {X 0.041,Y -0.238,Z 0.000} C_DIS
LIN {X 0.067,Y -0.217,Z 0.000} C_DIS
LIN {X 0.170,Y -0.311,Z 0.000} C_DIS
LIN {X 0.120,Y -0.147,Z 0.000} C_DIS
LIN {X 0.199,Y -0.185,Z 0.000} C_DIS
LIN {X 0.233,Y -0.150,Z 0.000} C_DIS
LIN {X 0.125,Y -0.058,Z 0.000} C_DIS
LIN {X 0.271,Y -0.088,Z 0.000} C_DIS
LIN {X 0.236,Y -0.030,Z 0.000} C_DIS
LIN {X 0.328,Y 0.015,Z 0.000} C_DIS
LIN {X 0.165,Y 0.036,Z 0.000} C_DIS
LIN {X 0.259,Y 0.095,Z 0.000} C_DIS
LIN {X 0.236,Y 0.137,Z 0.000} C_DIS
LIN {X 0.142,Y 0.112,Z 0.000} C_DIS
LIN {X 0.124,Y 0.128,Z 0.000} C_DIS
LIN {X 0.178,Y 0.241,Z 0.000} C_DIS
LIN {X 0.138,Y 0.306,Z 0.000} C_DIS
LIN {X 0.056,Y 0.237,Z 0.000} C_DIS
LIN {X 0.020,Y 0.189,Z 0.000} C_DIS
LIN {X -0.020,Y 0.305,Z 0.000} C_DIS
LIN {X -0.056,Y 0.237,Z 0.000} C_DIS
LIN {X -0.138,Y 0.306,Z 0.000} C_DIS
LIN {X -0.178,Y 0.241,Z 0.000} C_DIS
LIN {X -0.136,Y 0.139,Z 0.000} C_DIS
LIN {X -0.246,Y 0.175,Z 0.000} C_DIS
LIN {X -0.148,Y 0.077,Z 0.000} C_DIS
LIN {X -0.239,Y 0.085,Z 0.000} C_DIS
LIN {X -0.184,Y 0.034,Z 0.000} C_DIS
LIN {X -0.186,Y 0.016,Z 0.000} C_DIS
LIN {X -0.169,Y -0.008,Z 0.000} C_DIS
LIN {X -0.181,Y -0.025,Z 0.000} C_DIS
LIN {X -0.221,Y -0.067,Z 0.000} C_DIS
LIN {X -0.170,Y -0.073,Z 0.000} C_DIS
LIN {X -0.216,Y -0.137,Z 0.000} C_DIS
LIN {X -0.126,Y -0.107,Z 0.000} C_DIS
LIN {X -0.184,Y -0.203,Z 0.000} C_DIS
$VEL.CP=0.03
LIN {X 0.000,Y 0.000,Z 0.000} C_DIS
$VEL.CP=0.02
LIN {X -0.127,Y -0.193,Z 0.000} C_DIS
LIN {X -0.131,Y -0.325,Z 0.000} C_DIS
LIN {X -0.041,Y -0.215,Z 0.000} C_DIS
LIN {X 0.041,Y 0.215,Z 0.000} C_DIS
LIN {X 0.131,Y 0.325,Z 0.000} C_DIS
LIN {X 0.127,Y 0.193,Z 0.000} C_DIS
;rapid-leaky
LIN {X 0.288,Y -0.217,Z 0.000} C_DIS
$VEL.CP=0.03
LIN {X 0.000,Y 0.000,Z 0.000} C_DIS
;bead-perimeter_inner
$VEL.CP=0.02
LIN {X -0.095,Y -0.142,Z 0.000} C_DIS
LIN {X -0.116,Y -0.299,Z 0.000} C_DIS
LIN {X -0.030,Y -0.246,Z 0.000} C_DIS
LIN {X 0.005,Y -0.171,Z 0.000} C_DIS
LIN {X 0.077,Y -0.305,Z 0.000} C_DIS
LIN {X 0.139,Y -0.252,Z 0.000} C_DIS
LIN {X 0.161,Y -0.181,Z 0.000} C_DIS
LIN {X 0.259,Y -0.183,Z 0.000} C_DIS
LIN {X 0.231,Y -0.094,Z 0.000} C_DIS
LIN {X 0.246,Y -0.041,Z 0.000} C_DIS
LIN {X 0.260,Y 0.012,Z 0.000} C_DIS
LIN {X 0.127,Y 0.027,Z 0.000} C_DIS
LIN {X 0.291,Y 0.122,Z 0.000} C_DIS
LIN {X 0.192,Y 0.137,Z 0.000} C_DIS
LIN {X 0.102,Y 0.105,Z 0.000} C_DIS
LIN {X 0.136,Y 0.184,Z 0.000} C_DIS
LIN {X 0.119,Y 0.272,Z 0.000} C_DIS
LIN {X 0.046,Y 0.282,Z 0.000} C_DIS
LIN {X -0.004,Y 0.139,Z 0.000} C_DIS
LIN {X -0.051,Y 0.276,Z 0.000} C_DIS
LIN {X -0.110,Y 0.245,Z 0.000} C_DIS
LIN {X -0.068,Y 0.101,Z 0.000} C_DIS
LIN {X -0.170,Y 0.188,Z 0.000} C_DIS
LIN {X -0.192,Y 0.137,Z 0.000} C_DIS
LIN {X -0.113,Y 0.060,Z 0.000} C_DIS
LIN {X -0.177,Y 0.064,Z 0.000} C_DIS
LIN {X -0.149,Y 0.027,Z 0.000} C_DIS
LIN {X -0.136,Y 0.013,Z 0.000} C_DIS
LIN {X -0.283,Y -0.027,Z 0.000} C_DIS
LIN {X -0.300,Y -0.109,Z 0.000} C_DIS
LIN {X -0.256,Y -0.185,Z 0.000} C_DIS
LIN {X -0.141,Y -0.156,Z 0.000} C_DIS
$VEL.CP=0.03
